! XPM2
! xpm-workbench primitive slice-stack
! xpm-workbench slice-size 65 65
! xpm-workbench slice-count 65
! xpm-workbench slice-layout 9 8
! xpm-workbench material drone-b
! xpm-workbench refractive-index 1.50
! xpm-workbench glass-hue 120
! xpm-workbench surface-roughness 0.15
! xpm-workbench dispersion 0.99
! xpm-workbench absorption 0.08
! xpm-workbench mirror off
! xpm-workbench hi-fi off
! xpm-workbench mood neutral
! xpm-workbench surface grass
! xpm-workbench drone-core mirror
! xpm-workbench drone-inner-radius 12
! xpm-workbench animation-amplitude 2.00
! xpm-workbench animation-frequency 0.60
! xpm-workbench glass-sphere 32 32 32 26
! Drone B: an opaque mirror core enclosed by a mood-reactive glass shell.
585 520 12 1
! colors
  c None
D c rgba(64, 64, 64, 0.025)
S c rgba(89, 89, 89, 0.03)
M c rgba(122, 122, 122, 0.035)
L c rgba(161, 161, 161, 0.04)
H c rgba(209, 209, 209, 0.055)
i c #252a30
j c #7f8b94
k c #eef4f7
a c None
b c None
c c None
! pixels
                                                                                                                                                                                                                                                                                                                                                                                                                                                                                                                                                                                                         
                                                                                                                                                                                                                                                                                                                                                                                                                                                                                                                                                                                                         
                                                                                                                                                                                                                                                                                                                                                                                                                                                                                                                                                                                                         
                                                                                                                                                                                                                                                                                                                                                                                                                                                                                                                                                                                                         
                                                                                                                                                                                                                                                                                                                                                                                                                                                                                                                                                                                                         
                                                                                                                                                                                                                                                                                                                                                                                                                                                                                                                                                                                                         
                                                                                                                                                                                                                                                                                                                                                                                                                                                                                                                                                                                                         
                                                                                                                                                                                                                                                                                                                                                                                                                                                                                                                                                                                                         
                                                                                                                                                                                                                                                                                                                                                                                                                                                                                                                                                                                                         
                                                                                                                                                                                                                                                                                                                                                                                                                                                                                                                                                                                                         
                                                                                                                                                                                                                                                                                                                                                                                                                                                                                                                                                                                                         
                                                                                                                                                                                                                                                                                                                                                                                                                                                                                                                                                                                                         
                                                                                                                                                                                                                                                                                                                                                                                                                                                                                                                                                                                                         
                                                                                                                                                                                                                                                                                                                                                                                                                                                                                                                                                                                                         
                                                                                                                                                                                                                                                                                                                                                                                                                                                                                                                                                                                                         
                                                                                                                                                                                                                                                                                                                                                                                                                                                                                                                                                                                                         
                                                                                                                                                                                                                                                                                                                                                                                                                                                                                                                                                                                                         
                                                                                                                                                                                                                                                                                                                                                                                                                                                                                                                                                                                                         
                                                                                                                                                                                                                                                                                                                                                                                                                                                                                                                                                                                                         
                                                                                                                                                                                                                                                                                                                                                                                                                                                                                                                                                                                                         
                                                                                                                                                                                                                                                                                                                                                                                                                                                                                                                                                                                                         
                                                                                                                                                                                                                                                                                                                                                                                                                                                                                                                                                                                                         
                                                                                                                                                                                                                                                                                                                                                                                                                                                                                                                                                                        D                                
                                                                                                                                                                                                                                                                                                                                                                                                                                                                                                                                                                    DDDDDDDDD                            
                                                                                                                                                                                                                                                                                                                                                                                                                                                                                                                                                                  DDDDDDDDDDDDD                          
                                                                                                                                                                                                                                                                                                                                                                                                                                                                                                      DDD                                                        DDDDDDDDDDDDDDD                         
                                                                                                                                                                                                                                                                                                                                                                                                                                                                                                    DDDDDDD                                                     DDDDDDDDDDDDDDDDD                        
                                                                                                                                                                                                                                                                                                                                                                                                                                                                                                  DDDDDDDDDDD                                                   DDDDDDDDDDDDDDDDD                        
                                                                                                                                                                                                                                                                                                                                                                                                                                                                                                  DDDDDDDDDDD                                                  DDDDDDDDDDDDDDDDDDD                       
                                                                                                                                                                                                                                                                                                                                                                                                                                                                                                 DDDDDDDDDDDDD                                                 DDDDDDDDDDDDDDDDDDD                       
                                                                                                                                                                                                                                                                                                                                                                                                                                                                                                 DDDDDDDDDDDDD                                                 DDDDDDDDDDDDDDDDDDD                       
                                                                                                                                                                                                                                                                                                                                                                                                                                                                                                DDDDDDDDDDDDDDD                                                DDDDDDDDDDDDDDDDDDD                       
                                                                                                                                                                                                                                                                                                                                                                                                                                      D                                                         DDDDDDDDDDDDDDD                                               DDDDDDDDDDDDDDDDDDDDD                      
                                                                                                                                                                                                                                                                                                                                                                                                                                                                                                DDDDDDDDDDDDDDD                                                DDDDDDDDDDDDDDDDDDD                       
                                                                                                                                                                                                                                                                                                                                                                                                                                                                                                 DDDDDDDDDDDDD                                                 DDDDDDDDDDDDDDDDDDD                       
                                                                                                                                                                                                                                                                                                                                                                                                                                                                                                 DDDDDDDDDDDDD                                                 DDDDDDDDDDDDDDDDDDD                       
                                                                                                                                                                                                                                                                                                                                                                                                                                                                                                  DDDDDDDDDDD                                                  DDDDDDDDDDDDDDDDDDD                       
                                                                                                                                                                                                                                                                                                                                                                                                                                                                                                  DDDDDDDDDDD                                                   DDDDDDDDDDDDDDDDD                        
                                                                                                                                                                                                                                                                                                                                                                                                                                                                                                    DDDDDDD                                                     DDDDDDDDDDDDDDDDD                        
                                                                                                                                                                                                                                                                                                                                                                                                                                                                                                      DDD                                                        DDDDDDDDDDDDDDD                         
                                                                                                                                                                                                                                                                                                                                                                                                                                                                                                                                                                  DDDDDDDDDDDDD                          
                                                                                                                                                                                                                                                                                                                                                                                                                                                                                                                                                                    DDDDDDDDD                            
                                                                                                                                                                                                                                                                                                                                                                                                                                                                                                                                                                        D                                
                                                                                                                                                                                                                                                                                                                                                                                                                                                                                                                                                                                                         
                                                                                                                                                                                                                                                                                                                                                                                                                                                                                                                                                                                                         
                                                                                                                                                                                                                                                                                                                                                                                                                                                                                                                                                                                                         
                                                                                                                                                                                                                                                                                                                                                                                                                                                                                                                                                                                                         
                                                                                                                                                                                                                                                                                                                                                                                                                                                                                                                                                                                                         
                                                                                                                                                                                                                                                                                                                                                                                                                                                                                                                                                                                                         
                                                                                                                                                                                                                                                                                                                                                                                                                                                                                                                                                                                                         
                                                                                                                                                                                                                                                                                                                                                                                                                                                                                                                                                                                                         
                                                                                                                                                                                                                                                                                                                                                                                                                                                                                                                                                                                                         
                                                                                                                                                                                                                                                                                                                                                                                                                                                                                                                                                                                                         
                                                                                                                                                                                                                                                                                                                                                                                                                                                                                                                                                                                                         
                                                                                                                                                                                                                                                                                                                                                                                                                                                                                                                                                                                                         
                                                                                                                                                                                                                                                                                                                                                                                                                                                                                                                                                                                                         
                                                                                                                                                                                                                                                                                                                                                                                                                                                                                                                                                                                                         
                                                                                                                                                                                                                                                                                                                                                                                                                                                                                                                                                                                                         
                                                                                                                                                                                                                                                                                                                                                                                                                                                                                                                                                                                                         
                                                                                                                                                                                                                                                                                                                                                                                                                                                                                                                                                                                                         
                                                                                                                                                                                                                                                                                                                                                                                                                                                                                                                                                                                                         
cbbbbaaaacbbbbaaaaccbbbbaaaacbbbbaaaaccbbbbaaaacbbbbaaaaccbbbbaaabbaabbaabcaabaabcabbcabbaabaabbaabcaabcabcabbcabbaabaabbaabcaabcaabaabacbaabacbaabacbaabacbaabacbaabacbaabacbabbacbabbacbabbacbabbbbbbbccccaaaaaaaaabbbbbbbbaaaaaaaaabbbbbbbbbccccaaaaaaaaabbbbbbbbabababbabababaabababaabababaabababaacababaacabababcacababcacababcabbbaccbbaacbbaaabbbaacbbaaabbbaacbbaaccbaaabbbbaccbbaacbbaaabbbabbcaabbaabbccaabbcaabbaabbcaabbccaabbaabbbaabbcaabbcaaabbaabbcaababbcbabacaabacaababacbabacbabacaabababbababbcbabacbabacbababbcbabcbbbbbbbbbbbbbabaaaaaaaaaaaaaccaccbbcbbbbbbbbbbabbaabaaaaaaaaaaca
                                                                                                                                                                                                                                                                                                                                                                                                                                                                                                                                                                                                         
                                                                                                                                                                                                                                                                                                                                                                                                                                                                                                                                                                                                         
                                                                                                                                                                                                                                                                                                                                                                                                                                                                                                                                                                                                         
                                                                                                                                                                                                                                                                                                                                                                                                                                                                                                                                                                                                         
                                                                                                                                                                                                                                                                                                                                                                                                                                                                                                                                                                                                         
                                                                                                                                                                                                                                                                                                                                                                                                                                                                                                                                                                                                         
                                                                                                                                                                                                                                                                                                                                                                                                                                                                                                                                                                                                         
                                                                                                                                                                                                                                                                                                                                                                                                                                                                                                                                                                                                         
                                                                                                                                                                                                                                                                                                                                                                                                                                                                                                                                                                                                         
                                                                                                                                                                                                                                                                                                                                                                                                                                                                                                                                                                                                         
                                                                                                                                                                                                                                                                                                                                                                                                                                                                                                                                                                                                         
                                                                                                                                                                                                                                                                                                                                                                                                                                                                                                                                                                                                         
                                                                                                                                                                                                                                                                                                                                                                                                                                                                                                                                                                                                         
                                                                                                                                                                                                                                                                                                                                                                                                                                                                                                                                                                                                         
                                                                                                                                                                                                                                                                                                                                                                                                                                                                                                                                                                     DDDDDDD                             
                                                                                                                                                                                                                                                                                                                                                                                                                                                                                                   DDDDDDDDD                                                     DDDDDDDDDDDDDDD                         
                                                                                                                                                                                                                                                                                                                                                                                                                                 DDDDDDDDDDD                                                    DDDDDDDDDDDDDDD                                                DDDDDDDDDDDDDDDDDDD                       
                                                                                                                                                                                                                                                                                                                                                                DDDDDDDDDDD                                                    DDDDDDDDDDDDDDD                                                DDDDDDDDDDDDDDDDDDD                                            DDDDDDDDDDDDDDDDDDDDDDD                     
                                                                                                                                                                                                                                                                                               DDDDDDDDDDD                                                    DDDDDDDDDDDDDDD                                                DDDDDDDDDDDDDDDDDDD                                            DDDDDDDDDDDDDDDDDDDDDDD                                         DDDDDDDDDDDDDDDDDDDDDDDDD                    
                                                                                                                                                                                                                               DDDDDDDDD                                                     DDDDDDDDDDDDDDD                                                DDDDDDDDDDDDDDDDDDD                                            DDDDDDDDDDDDDDDDDDDDDDD                                         DDDDDDDDDDDDDDDDDDDDDDDDD                                       DDDDDDDDDDDDDDDDDDDDDDDDDDD                   
                                                                                                                                                               DDDDDDD                                                      DDDDDDDDDDDDDDD                                                DDDDDDDDDDDDDDDDDDD                                            DDDDDDDDDDDDDDDDDDDDDDD                                         DDDDDDDDDDDDDDDDDDDDDDDDD                                       DDDDDDDDDDDDDDDDDDDDDDDDDDD                                    DDDDDDDDDDDDDDDDDDDDDDDDDDDDDDD                 
                                                                                                                                                            DDDDDDDDDDDDD                                                  DDDDDDDDDDDDDDDDD                                              DDDDDDDDDDDDDDDDDDDDD                                          DDDDDDDDDDDDDDDDDDDDDDDDD                                       DDDDDDDDDDDDDDDDDDDDDDDDDDD                                     DDDDDDDDDDDDDDDDDDDDDDDDDDDDD                                   DDDDDDDDDDDDDDDDDDDDDDDDDDDDDDD                 
                                                                                             DDDDDDDDD                                                    DDDDDDDDDDDDDDDDD                                              DDDDDDDDDDDDDDDDDDDDD                                          DDDDDDDDDDDDDDDDDDDDDDDDD                                       DDDDDDDDDDDDDDDDDDDDDDDDDDD                                     DDDDDDDDDDDDDDDDDDDDDDDDDDDDD                                   DDDDDDDDDDDDDDDDDDDDDDDDDDDDDDD                                 DDDDDDDDDDDDDDDDDDDDDDDDDDDDDDDDD                
                               DDD                                                         DDDDDDDDDDDDD                                                 DDDDDDDDDDDDDDDDDDD                                            DDDDDDDDDDDDDDDDDDDDDDD                                        DDDDDDDDDDDDDDDDDDDDDDDDDDD                                     DDDDDDDDDDDDDDDDDDDDDDDDDDDDD                                   DDDDDDDDDDDDDDDDDDDDDDDDDDDDDDD                                 DDDDDDDDDDDDDDDDDDDDDDDDDDDDDDDDD                               DDDDDDDDDDDDDDDDDDDDDDDDDDDDDDDDDDD               
                           DDDDDDDDDDD                                                   DDDDDDDDDDDDDDDDD                                              DDDDDDDDDDDDDDDDDDDDD                                          DDDDDDDDDDDDDDDDDDDDDDDDD                                       DDDDDDDDDDDDDDDDDDDDDDDDDDD                                    DDDDDDDDDDDDDDDDDDDDDDDDDDDDDDD                                 DDDDDDDDDDDDDDDDDDDDDDDDDDDDDDDDD                               DDDDDDDDDDDDDDDDDDDDDDDDDDDDDDDDDDD                             DDDDDDDDDDDDDDDDDDDDDDDDDDDDDDDDDDDDD              
                          DDDDDDDDDDDDD                                                 DDDDDDDDDDDDDDDDDDD                                            DDDDDDDDDDDDDDDDDDDDDDD                                        DDDDDDDDDDDDDDDDDDDDDDDDDDD                                     DDDDDDDDDDDDDDDDDDDDDDDDDDDDD                                   DDDDDDDDDDDDDDDDDDDDDDDDDDDDDDD                                 DDDDDDDDDDDDDDDDDDDDDDDDDDDDDDDDD                               DDDDDDDDDDDDDDDDDDDDDDDDDDDDDDDDDDD                             DDDDDDDDDDDDDDDDDDDDDDDDDDDDDDDDDDDDD              
                        DDDDDDDDDDDDDDDDD                                              DDDDDDDDDDDDDDDDDDDDD                                          DDDDDDDDDDDDDDDDDDDDDDDDD                                       DDDDDDDDDDDDDDDDDDDDDDDDDDD                                    DDDDDDDDDDDDDDDDDDDDDDDDDDDDDDD                                 DDDDDDDDDDDDDDDDDDDDDDDDDDDDDDDDD                               DDDDDDDDDDDDDDDDDDDDDDDDDDDDDDDDDDD                             DDDDDDDDDDDDDDDDDDDDDDDDDDDDDDDDDDDDD                           DDDDDDDDDDDDDDDDDDDDDDDDDDDDDDDDDDDDDDD             
                       DDDDDDDDDDDDDDDDDDD                                            DDDDDDDDDDDDDDDDDDDDDDD                                        DDDDDDDDDDDDDDDDDDDDDDDDDDD                                     DDDDDDDDDDDDDDDDDDDDDDDDDDDDD                                   DDDDDDDDDDDDDDDDDDDDDDDDDDDDDDD                                 DDDDDDDDDDDDDDDDDDDDDDDDDDDDDDDDD                               DDDDDDDDDDDDDDDDDDDDDDDDDDDDDDDDDDD                             DDDDDDDDDDDDDDDDDDDDDDDDDDDDDDDDDDDDD                           DDDDDDDDDDDDDDDDDDDDDDDDDDDDDDDDDDDDDDD             
                       DDDDDDDDDDDDDDDDDDD                                            DDDDDDDDDDDDDDDDDDDDDDD                                        DDDDDDDDDDDDDDDDDDDDDDDDDDD                                    DDDDDDDDDDDDDDDDDDDDDDDDDDDDDDD                                 DDDDDDDDDDDDDDDDDDDDDDDDDDDDDDDDD                               DDDDDDDDDDDDDDDDDDDDDDDDDDDDDDDDDDD                             DDDDDDDDDDDDDDDDDDDDDDDDDDDDDDDDDDDDD                           DDDDDDDDDDDDDDDDDDDDDDDDDDDDDDDDDDDDDDD                         DDDDDDDDDDDDDDDDDDDDDDDDDDDDDDDDDDDDDDDDD            
                      DDDDDDDDDDDDDDDDDDDDD                                          DDDDDDDDDDDDDDDDDDDDDDDDD                                      DDDDDDDDDDDDDDDDDDDDDDDDDDDDD                                   DDDDDDDDDDDDDDDDDDDDDDDDDDDDDDD                                 DDDDDDDDDDDDDDDDDDDDDDDDDDDDDDDDD                               DDDDDDDDDDDDDDDDDDDDDDDDDDDDDDDDDDD                             DDDDDDDDDDDDDDDDDDDDDDDDDDDDDDDDDDDDD                           DDDDDDDDDDDDDDDDDDDDDDDDDDDDDDDDDDDDDDD                         DDDDDDDDDDDDDDDDDDDDDDDDDDDDDDDDDDDDDDDDD            
                     DDDDDDDDDDDDDDDDDDDDDDD                                         DDDDDDDDDDDDDDDDDDDDDDDDD                                      DDDDDDDDDDDDDDDDDDDDDDDDDDDDD                                   DDDDDDDDDDDDDDDDDDDDDDDDDDDDDDD                                DDDDDDDDDDDDDDDDDDDDDDDDDDDDDDDDDDD                             DDDDDDDDDDDDDDDDDDDDDDDDDDDDDDDDDDDDD                           DDDDDDDDDDDDDDDDDDDDDDDDDDDDDDDDDDDDDDD                          DDDDDDDDDDDDDDDDDDDDDDDDDDDDDDDDDDDDDDD                         DDDDDDDDDDDDDDDDDDDDDDDDDDDDDDDDDDDDDDDDD            
                     DDDDDDDDDDDDDDDDDDDDDDD                                        DDDDDDDDDDDDDDDDDDDDDDDDDDD                                     DDDDDDDDDDDDDDDDDDDDDDDDDDDDD                                  DDDDDDDDDDDDDDDDDDDDDDDDDDDDDDDDD                               DDDDDDDDDDDDDDDDDDDDDDDDDDDDDDDDDDD                             DDDDDDDDDDDDDDDDDDDDDDDDDDDDDDDDDDDDD                           DDDDDDDDDDDDDDDDDDDDDDDDDDDDDDDDDDDDDDD                         DDDDDDDDDDDDDDDDDDDDDDDDDDDDDDDDDDDDDDDDD                        DDDDDDDDDDDDDDDDDDDDDDDDDDDDDDDDDDDDDDDDD            
                     DDDDDDDDDDDDDDDDDDDDDDD                                        DDDDDDDDDDDDDDDDDDDDDDDDDDD                                    DDDDDDDDDDDDDDDDDDDDDDDDDDDDDDD                                 DDDDDDDDDDDDDDDDDDDDDDDDDDDDDDDDD                               DDDDDDDDDDDDDDDDDDDDDDDDDDDDDDDDDDD                             DDDDDDDDDDDDDDDDDDDDDDDDDDDDDDDDDDDDD                           DDDDDDDDDDDDDDDDDDDDDDDDDDDDDDDDDDDDDDD                         DDDDDDDDDDDDDDDDDDDDDDDDDDDDDDDDDDDDDDDDD                       DDDDDDDDDDDDDDDDDDDDDDDDDDDDDDDDDDDDDDDDDDD           
                     DDDDDDDDDDDDDDDDDDDDDDD                                        DDDDDDDDDDDDDDDDDDDDDDDDDDD                                    DDDDDDDDDDDDDDDDDDDDDDDDDDDDDDD                                 DDDDDDDDDDDDDDDDDDDDDDDDDDDDDDDDD                               DDDDDDDDDDDDDDDDDDDDDDDDDDDDDDDDDDD                             DDDDDDDDDDDDDDDDDDDDDDDDDDDDDDDDDDDDD                           DDDDDDDDDDDDDDDDDDDDDDDDDDDDDDDDDDDDDDD                         DDDDDDDDDDDDDDDDDDDDDDDDDDDDDDDDDDDDDDDDD                       DDDDDDDDDDDDDDDDDDDDDDDDDDDDDDDDDDDDDDDDDDD           
                    DDDDDDDDDDDDDDDDDDDDDDDDD                                       DDDDDDDDDDDDDDDDDDDDDDDDDDD                                    DDDDDDDDDDDDDDDDDDDDDDDDDDDDDDD                                 DDDDDDDDDDDDDDDDDDDDDDDDDDDDDDDDD                               DDDDDDDDDDDDDDDDDDDDDDDDDDDDDDDDDDD                             DDDDDDDDDDDDDDDDDDDDDDDDDDDDDDDDDDDDD                           DDDDDDDDDDDDDDDDDDDDDDDDDDDDDDDDDDDDDDD                         DDDDDDDDDDDDDDDDDDDDDDDDDDDDDDDDDDDDDDDDD                       DDDDDDDDDDDDDDDDDDDDDDDDDDDDDDDDDDDDDDDDDDD           
                    DDDDDDDDDDDDDDDDDDDDDDDDD                                       DDDDDDDDDDDDDDDDDDDDDDDDDDD                                    DDDDDDDDDDDDDDDDDDDDDDDDDDDDDDD                                 DDDDDDDDDDDDDDDDDDDDDDDDDDDDDDDDD                               DDDDDDDDDDDDDDDDDDDDDDDDDDDDDDDDDDD                             DDDDDDDDDDDDDDDDDDDDDDDDDDDDDDDDDDDDD                           DDDDDDDDDDDDDDDDDDDDDDDDDDDDDDDDDDDDDDD                         DDDDDDDDDDDDDDDDDDDDDDDDDDDDDDDDDDDDDDDDD                       DDDDDDDDDDDDDDDDDDDDDDDDDDDDDDDDDDDDDDDDDDD           
                    DDDDDDDDDDDDDDDDDDDDDDDDD                                       DDDDDDDDDDDDDDDDDDDDDDDDDDD                                    DDDDDDDDDDDDDDDDDDDDDDDDDDDDDDD                                 DDDDDDDDDDDDDDDDDDDDDDDDDDDDDDDDD                               DDDDDDDDDDDDDDDDDDDDDDDDDDDDDDDDDDD                             DDDDDDDDDDDDDDDDDDDDDDDDDDDDDDDDDDDDD                           DDDDDDDDDDDDDDDDDDDDDDDDDDDDDDDDDDDDDDD                         DDDDDDDDDDDDDDDDDDDDDDDDDDDDDDDDDDDDDDDDD                       DDDDDDDDDDDDDDDDDDDDDDDDDDDDDDDDDDDDDDDDDDD           
                     DDDDDDDDDDDDDDDDDDDDDDD                                        DDDDDDDDDDDDDDDDDDDDDDDDDDD                                    DDDDDDDDDDDDDDDDDDDDDDDDDDDDDDD                                 DDDDDDDDDDDDDDDDDDDDDDDDDDDDDDDDD                               DDDDDDDDDDDDDDDDDDDDDDDDDDDDDDDDDDD                             DDDDDDDDDDDDDDDDDDDDDDDDDDDDDDDDDDDDD                           DDDDDDDDDDDDDDDDDDDDDDDDDDDDDDDDDDDDDDD                         DDDDDDDDDDDDDDDDDDDDDDDDDDDDDDDDDDDDDDDDD                       DDDDDDDDDDDDDDDDDDDDDDDDDDDDDDDDDDDDDDDDDDD           
                     DDDDDDDDDDDDDDDDDDDDDDD                                        DDDDDDDDDDDDDDDDDDDDDDDDDDD                                    DDDDDDDDDDDDDDDDDDDDDDDDDDDDDDD                                 DDDDDDDDDDDDDDDDDDDDDDDDDDDDDDDDD                               DDDDDDDDDDDDDDDDDDDDDDDDDDDDDDDDDDD                             DDDDDDDDDDDDDDDDDDDDDDDDDDDDDDDDDDDDD                           DDDDDDDDDDDDDDDDDDDDDDDDDDDDDDDDDDDDDDD                         DDDDDDDDDDDDDDDDDDDDDDDDDDDDDDDDDDDDDDDDD                       DDDDDDDDDDDDDDDDDDDDDDDDDDDDDDDDDDDDDDDDDDD           
                     DDDDDDDDDDDDDDDDDDDDDDD                                        DDDDDDDDDDDDDDDDDDDDDDDDDDD                                     DDDDDDDDDDDDDDDDDDDDDDDDDDDDD                                  DDDDDDDDDDDDDDDDDDDDDDDDDDDDDDDDD                               DDDDDDDDDDDDDDDDDDDDDDDDDDDDDDDDDDD                             DDDDDDDDDDDDDDDDDDDDDDDDDDDDDDDDDDDDD                           DDDDDDDDDDDDDDDDDDDDDDDDDDDDDDDDDDDDDDD                         DDDDDDDDDDDDDDDDDDDDDDDDDDDDDDDDDDDDDDDDD                        DDDDDDDDDDDDDDDDDDDDDDDDDDDDDDDDDDDDDDDDD            
                     DDDDDDDDDDDDDDDDDDDDDDD                                         DDDDDDDDDDDDDDDDDDDDDDDDD                                      DDDDDDDDDDDDDDDDDDDDDDDDDDDDD                                   DDDDDDDDDDDDDDDDDDDDDDDDDDDDDDD                                DDDDDDDDDDDDDDDDDDDDDDDDDDDDDDDDDDD                             DDDDDDDDDDDDDDDDDDDDDDDDDDDDDDDDDDDDD                           DDDDDDDDDDDDDDDDDDDDDDDDDDDDDDDDDDDDDDD                          DDDDDDDDDDDDDDDDDDDDDDDDDDDDDDDDDDDDDDD                         DDDDDDDDDDDDDDDDDDDDDDDDDDDDDDDDDDDDDDDDD            
                      DDDDDDDDDDDDDDDDDDDDD                                          DDDDDDDDDDDDDDDDDDDDDDDDD                                      DDDDDDDDDDDDDDDDDDDDDDDDDDDDD                                   DDDDDDDDDDDDDDDDDDDDDDDDDDDDDDD                                 DDDDDDDDDDDDDDDDDDDDDDDDDDDDDDDDD                               DDDDDDDDDDDDDDDDDDDDDDDDDDDDDDDDDDD                             DDDDDDDDDDDDDDDDDDDDDDDDDDDDDDDDDDDDD                           DDDDDDDDDDDDDDDDDDDDDDDDDDDDDDDDDDDDDDD                         DDDDDDDDDDDDDDDDDDDDDDDDDDDDDDDDDDDDDDDDD            
                       DDDDDDDDDDDDDDDDDDD                                            DDDDDDDDDDDDDDDDDDDDDDD                                        DDDDDDDDDDDDDDDDDDDDDDDDDDD                                    DDDDDDDDDDDDDDDDDDDDDDDDDDDDDDD                                 DDDDDDDDDDDDDDDDDDDDDDDDDDDDDDDDD                               DDDDDDDDDDDDDDDDDDDDDDDDDDDDDDDDDDD                             DDDDDDDDDDDDDDDDDDDDDDDDDDDDDDDDDDDDD                           DDDDDDDDDDDDDDDDDDDDDDDDDDDDDDDDDDDDDDD                         DDDDDDDDDDDDDDDDDDDDDDDDDDDDDDDDDDDDDDDDD            
                       DDDDDDDDDDDDDDDDDDD                                            DDDDDDDDDDDDDDDDDDDDDDD                                        DDDDDDDDDDDDDDDDDDDDDDDDDDD                                     DDDDDDDDDDDDDDDDDDDDDDDDDDDDD                                   DDDDDDDDDDDDDDDDDDDDDDDDDDDDDDD                                 DDDDDDDDDDDDDDDDDDDDDDDDDDDDDDDDD                               DDDDDDDDDDDDDDDDDDDDDDDDDDDDDDDDDDD                             DDDDDDDDDDDDDDDDDDDDDDDDDDDDDDDDDDDDD                           DDDDDDDDDDDDDDDDDDDDDDDDDDDDDDDDDDDDDDD             
                        DDDDDDDDDDDDDDDDD                                              DDDDDDDDDDDDDDDDDDDDD                                          DDDDDDDDDDDDDDDDDDDDDDDDD                                       DDDDDDDDDDDDDDDDDDDDDDDDDDD                                    DDDDDDDDDDDDDDDDDDDDDDDDDDDDDDD                                 DDDDDDDDDDDDDDDDDDDDDDDDDDDDDDDDD                               DDDDDDDDDDDDDDDDDDDDDDDDDDDDDDDDDDD                             DDDDDDDDDDDDDDDDDDDDDDDDDDDDDDDDDDDDD                           DDDDDDDDDDDDDDDDDDDDDDDDDDDDDDDDDDDDDDD             
                          DDDDDDDDDDDDD                                                 DDDDDDDDDDDDDDDDDDD                                            DDDDDDDDDDDDDDDDDDDDDDD                                        DDDDDDDDDDDDDDDDDDDDDDDDDDD                                     DDDDDDDDDDDDDDDDDDDDDDDDDDDDD                                   DDDDDDDDDDDDDDDDDDDDDDDDDDDDDDD                                 DDDDDDDDDDDDDDDDDDDDDDDDDDDDDDDDD                               DDDDDDDDDDDDDDDDDDDDDDDDDDDDDDDDDDD                             DDDDDDDDDDDDDDDDDDDDDDDDDDDDDDDDDDDDD              
                           DDDDDDDDDDD                                                   DDDDDDDDDDDDDDDDD                                              DDDDDDDDDDDDDDDDDDDDD                                          DDDDDDDDDDDDDDDDDDDDDDDDD                                       DDDDDDDDDDDDDDDDDDDDDDDDDDD                                    DDDDDDDDDDDDDDDDDDDDDDDDDDDDDDD                                 DDDDDDDDDDDDDDDDDDDDDDDDDDDDDDDDD                               DDDDDDDDDDDDDDDDDDDDDDDDDDDDDDDDDDD                             DDDDDDDDDDDDDDDDDDDDDDDDDDDDDDDDDDDDD              
                               DDD                                                         DDDDDDDDDDDDD                                                 DDDDDDDDDDDDDDDDDDD                                            DDDDDDDDDDDDDDDDDDDDDDD                                        DDDDDDDDDDDDDDDDDDDDDDDDDDD                                     DDDDDDDDDDDDDDDDDDDDDDDDDDDDD                                   DDDDDDDDDDDDDDDDDDDDDDDDDDDDDDD                                 DDDDDDDDDDDDDDDDDDDDDDDDDDDDDDDDD                               DDDDDDDDDDDDDDDDDDDDDDDDDDDDDDDDDDD               
                                                                                             DDDDDDDDD                                                    DDDDDDDDDDDDDDDDD                                              DDDDDDDDDDDDDDDDDDDDD                                          DDDDDDDDDDDDDDDDDDDDDDDDD                                       DDDDDDDDDDDDDDDDDDDDDDDDDDD                                     DDDDDDDDDDDDDDDDDDDDDDDDDDDDD                                   DDDDDDDDDDDDDDDDDDDDDDDDDDDDDDD                                 DDDDDDDDDDDDDDDDDDDDDDDDDDDDDDDDD                
                                                                                                                                                            DDDDDDDDDDDDD                                                  DDDDDDDDDDDDDDDDD                                              DDDDDDDDDDDDDDDDDDDDD                                          DDDDDDDDDDDDDDDDDDDDDDDDD                                       DDDDDDDDDDDDDDDDDDDDDDDDDDD                                     DDDDDDDDDDDDDDDDDDDDDDDDDDDDD                                   DDDDDDDDDDDDDDDDDDDDDDDDDDDDDDD                 
                                                                                                                                                               DDDDDDD                                                      DDDDDDDDDDDDDDD                                                DDDDDDDDDDDDDDDDDDD                                            DDDDDDDDDDDDDDDDDDDDDDD                                         DDDDDDDDDDDDDDDDDDDDDDDDD                                       DDDDDDDDDDDDDDDDDDDDDDDDDDD                                    DDDDDDDDDDDDDDDDDDDDDDDDDDDDDDD                 
                                                                                                                                                                                                                               DDDDDDDDD                                                     DDDDDDDDDDDDDDD                                                DDDDDDDDDDDDDDDDDDD                                            DDDDDDDDDDDDDDDDDDDDDDD                                         DDDDDDDDDDDDDDDDDDDDDDDDD                                       DDDDDDDDDDDDDDDDDDDDDDDDDDD                   
                                                                                                                                                                                                                                                                                               DDDDDDDDDDD                                                    DDDDDDDDDDDDDDD                                                DDDDDDDDDDDDDDDDDDD                                            DDDDDDDDDDDDDDDDDDDDDDD                                         DDDDDDDDDDDDDDDDDDDDDDDDD                    
                                                                                                                                                                                                                                                                                                                                                                DDDDDDDDDDD                                                    DDDDDDDDDDDDDDD                                                DDDDDDDDDDDDDDDDDDD                                            DDDDDDDDDDDDDDDDDDDDDDD                     
                                                                                                                                                                                                                                                                                                                                                                                                                                 DDDDDDDDDDD                                                    DDDDDDDDDDDDDDD                                                DDDDDDDDDDDDDDDDDDD                       
                                                                                                                                                                                                                                                                                                                                                                                                                                                                                                   DDDDDDDDD                                                     DDDDDDDDDDDDDDD                         
                                                                                                                                                                                                                                                                                                                                                                                                                                                                                                                                                                     DDDDDDD                             
                                                                                                                                                                                                                                                                                                                                                                                                                                                                                                                                                                                                         
                                                                                                                                                                                                                                                                                                                                                                                                                                                                                                                                                                                                         
                                                                                                                                                                                                                                                                                                                                                                                                                                                                                                                                                                                                         
                                                                                                                                                                                                                                                                                                                                                                                                                                                                                                                                                                                                         
                                                                                                                                                                                                                                                                                                                                                                                                                                                                                                                                                                                                         
                                                                                                                                                                                                                                                                                                                                                                                                                                                                                                                                                                                                         
                                                                                                                                                                                                                                                                                                                                                                                                                                                                                                                                                                                                         
bbabbabcabcabaababcabcabcababcabcabcababbabbabbabbabaabaabaababcaabbaabbaabbaabaacbaacbaacbbabbacbbacbbaabbaabaacbaacbaacbaabbacbbbbcaaabbbbcaababbcaaaabbbcaaaabbbbcaaabbbbcaababbcaaaabbbcaaaabbbbbabacacbcbabaacbcbababababababababababababababacacbcabacacbcbabaaccbbbbaaaacbbbbaaaaccbbbbaaaacbbbbaaaaccbbbbaaaacbbbbaaaaccbbbbabcabbaabbaabcabcaabcabbcabcabbaabbaabcabcaabcabbcabbabbaabbaabcaaacbacbacbacbacbacbabbacbabbacbabaacbabaacbabaacbabaacbabaabbabaabcccccaaaaaaaabbbbbbbbbaaaaaaaaabbbbbbbbcccccaaaaaaaabbbbbbbbbccccbcabababcacababcacababcbcacabcbcacababcbcababcbcabababcabababcbba
                                                                                                                                                                                                                                                                                                                                                                                                                                                                                                                                                                                                         
                                                                                                                                                                                                                                                                                                                                                                                                                                                                                                                                                                                                         
                                                                                                                                                                                                                                                                                                                                                                                                                                                                                                                                                                                                         
                                                                                                                                                                                                                                                                                                                                                                                                                                                                                                                                                                                                         
                                                                                                                                                                                                                                                                                                                                                                                                                                                                                                                                                                                                         
                                                                                                                                                                                                                                                                                                                                                                                                                                                                                                                                                                                                         
                                                                                                                                                                                                                                                                                                                                                                                                                                                                                                                                                                                                         
                                                                                                                                                                                                                                                                                                                                                                                                                                                                                                                                                                                                         
                                                                                                                                                                                                                                                                                                                                                                                                                                                                                                                                                                                                         
                                                                                                                                                                                                                                                                                                                                                                                                                                                                                                                                                                                                         
                                                                                                                                                                                                                                                                                                                                                                                                                                                                                                      DDD                                                            SSSSDDD                             
                                                                                                                                                                                                                                                                                                    D                                                            DDDDDDDDD                                                      SDDDDDDDDDDDD                                                   SSSSSDDDDDDDDDD                                                 SSSSSSSSDDDDDDDDD                        
                                                                                                                                                                 DDD                                                          DDDDDDDDDDD                                                     DDDDDDDDDDDDD                                                  DDDDDDDDDDDDDDDDD                                               SSSDDDDDDDDDDDDDDDD                                              SSSSSDDDDDDDDDDDDDD                                             SSSSSSSSSDDDDDDDDDDDD                      
                                                                                             DDDDDDDDD                                                      DDDDDDDDDDDDD                                                  DDDDDDDDDDDDDDDDD                                               DDDDDDDDDDDDDDDDDDD                                             DDDDDDDDDDDDDDDDDDDDD                                           SSSSDDDDDDDDDDDDDDDDDDD                                          SSSSSSDDDDDDDDDDDDDDDDD                                         SSSSSSSSSSDDDDDDDDDDDDDDD                    
                          DDDDDDDDDDDDD                                                  DDDDDDDDDDDDDDDDD                                               DDDDDDDDDDDDDDDDDDD                                             DDDDDDDDDDDDDDDDDDDDD                                           DDDDDDDDDDDDDDDDDDDDDDD                                         SDDDDDDDDDDDDDDDDDDDDDDDD                                       SSSSSDDDDDDDDDDDDDDDDDDDDDD                                      SSSSSSSDDDDDDDDDDDDDDDDDDDD                                     SSSSSSSSSSDDDDDDDDDDDDDDDDDDD                  
                        DDDDDDDDDDDDDDDDD                                              DDDDDDDDDDDDDDDDDDDDD                                           DDDDDDDDDDDDDDDDDDDDDDD                                         DDDDDDDDDDDDDDDDDDDDDDDDD                                       DDDDDDDDDDDDDDDDDDDDDDDDDDD                                      SDDDDDDDDDDDDDDDDDDDDDDDDDD                                     SSSSDDDDDDDDDDDDDDDDDDDDDDDDD                                   SSSSSSSSDDDDDDDDDDDDDDDDDDDDDDD                                  SSSSSSSSSSDDDDDDDDDDDDDDDDDDDDD                 
                      DDDDDDDDDDDDDDDDDDDDD                                          DDDDDDDDDDDDDDDDDDDDDDDDD                                       DDDDDDDDDDDDDDDDDDDDDDDDDDD                                      DDDDDDDDDDDDDDDDDDDDDDDDDDD                                     DDDDDDDDDDDDDDDDDDDDDDDDDDDDD                                   SSDDDDDDDDDDDDDDDDDDDDDDDDDDDDD                                  SSSSDDDDDDDDDDDDDDDDDDDDDDDDDDD                                 SSSSSSSSDDDDDDDDDDDDDDDDDDDDDDDDD                                SSSSSSSSSSDDDDDDDDDDDDDDDDDDDDDDD                
                    DDDDDDDDDDDDDDDDDDDDDDDDD                                       DDDDDDDDDDDDDDDDDDDDDDDDDDD                                     DDDDDDDDDDDDDDDDDDDDDDDDDDDDD                                   DDDDDDDDDDDDDDDDDDDDDDDDDDDDDDD                                  DDDDDDDDDDDDDDDDDDDDDDDDDDDDDDD                                 SSDDDDDDDDDDDDDDDDDDDDDDDDDDDDDDD                                SSSSDDDDDDDDDDDDDDDDDDDDDDDDDDDDD                               SSSSSSSDDDDDDDDDDDDDDDDDDDDDDDDDDDD                              SSSSSSSSSSDDDDDDDDDDDDDDDDDDDDDDDDD               
                   DDDDDDDDDDDDDDDDDDDDDDDDDDD                                     DDDDDDDDDDDDDDDDDDDDDDDDDDDDD                                   DDDDDDDDDDDDDDDDDDDDDDDDDDDDDDD                                 DDDDDDDDDDDDDDDDDDDDDDDDDDDDDDDDD                                DDDDDDDDDDDDDDDDDDDDDDDDDDDDDDDDD                               SDDDDDDDDDDDDDDDDDDDDDDDDDDDDDDDDDD                              SSSSDDDDDDDDDDDDDDDDDDDDDDDDDDDDDDD                             SSSSSSSDDDDDDDDDDDDDDDDDDDDDDDDDDDDDD                            SSSSSSSSSSDDDDDDDDDDDDDDDDDDDDDDDDDDD              
                  DDDDDDDDDDDDDDDDDDDDDDDDDDDDD                                   DDDDDDDDDDDDDDDDDDDDDDDDDDDDDDD                                 DDDDDDDDDDDDDDDDDDDDDDDDDDDDDDDDD                               DDDDDDDDDDDDDDDDDDDDDDDDDDDDDDDDDDD                              DDDDDDDDDDDDDDDDDDDDDDDDDDDDDDDDDDD                             SDDDDDDDDDDDDDDDDDDDDDDDDDDDDDDDDDDDD                            SSSSDDDDDDDDDDDDDDDDDDDDDDDDDDDDDDDDD                           SSSSSSSDDDDDDDDDDDDDDDDDDDDDDDDDDDDDDDD                          SSSSSSSSSDDDDDDDDDDDDDDDDDDDDDDDDDDDDDD             
                 DDDDDDDDDDDDDDDDDDDDDDDDDDDDDDD                                 DDDDDDDDDDDDDDDDDDDDDDDDDDDDDDDDD                               DDDDDDDDDDDDDDDDDDDDDDDDDDDDDDDDDDD                             DDDDDDDDDDDDDDDDDDDDDDDDDDDDDDDDDDDDD                            DDDDDDDDDDDDDDDDDDDDDDDDDDDDDDDDDDDDD                           SDDDDDDDDDDDDDDDDDDDDDDDDDDDDDDDDDDDDDD                          SSSDDDDDDDDDDDDDDDDDDDDDDDDDDDDDDDDDDDD                         SSSSSSSDDDDDDDDDDDDDDDDDDDDDDDDDDDDDDDDDD                        SSSSSSSSSDDDDDDDDDDDDDDDDDDDDDDDDDDDDDDDD            
                DDDDDDDDDDDDDDDDDDDDDDDDDDDDDDDDD                               DDDDDDDDDDDDDDDDDDDDDDDDDDDDDDDDDDD                             DDDDDDDDDDDDDDDDDDDDDDDDDDDDDDDDDDDDD                            DDDDDDDDDDDDDDDDDDDDDDDDDDDDDDDDDDDDD                           DDDDDDDDDDDDDDDDDDDDDDDDDDDDDDDDDDDDDDD                          DDDDDDDDDDDDDDDDDDDDDDDDDDDDDDDDDDDDDDD                         SSSDDDDDDDDDDDDDDDDDDDDDDDDDDDDDDDDDDDDDD                        SSSSSSDDDDDDDDDDDDDDDDDDDDDDDDDDDDDDDDDDD                       SSSSSSSSSDDDDDDDDDDDDDDDDDDDDDDDDDDDDDDDDDD           
               DDDDDDDDDDDDDDDDDDDDDDDDDDDDDDDDDDD                             DDDDDDDDDDDDDDDDDDDDDDDDDDDDDDDDDDDDD                           DDDDDDDDDDDDDDDDDDDDDDDDDDDDDDDDDDDDDDD                          DDDDDDDDDDDDDDDDDDDDDDDDDDDDDDDDDDDDDDD                         DDDDDDDDDDDDDDDDDDDDDDDDDDDDDDDDDDDDDDDDD                        DDDDDDDDDDDDDDDDDDDDDDDDDDDDDDDDDDDDDDDDD                       SSSDDDDDDDDDDDDDDDDDDDDDDDDDDDDDDDDDDDDDDDD                      SSSSSDDDDDDDDDDDDDDDDDDDDDDDDDDDDDDDDDDDDDD                      SSSSSSSSDDDDDDDDDDDDDDDDDDDDDDDDDDDDDDDDDDD           
              DDDDDDDDDDDDDDDDDDDDDDDDDDDDDDDDDDDDD                           DDDDDDDDDDDDDDDDDDDDDDDDDDDDDDDDDDDDDDD                          DDDDDDDDDDDDDDDDDDDDDDDDDDDDDDDDDDDDDDD                         DDDDDDDDDDDDDDDDDDDDDDDDDDDDDDDDDDDDDDDDD                        DDDDDDDDDDDDDDDDDDDDDDDDDDDDDDDDDDDDDDDDD                       DDDDDDDDDDDDDDDDDDDDDDDDDDDDDDDDDDDDDDDDDDD                      SSDDDDDDDDDDDDDDDDDDDDDDDDDDDDDDDDDDDDDDDDD                      SSSSDDDDDDDDDDDDDDDDDDDDDDDDDDDDDDDDDDDDDDD                     SSSSSSSSDDDDDDDDDDDDDDDDDDDDDDDDDDDDDDDDDDDDD          
              DDDDDDDDDDDDDDDDDDDDDDDDDDDDDDDDDDDDD                           DDDDDDDDDDDDDDDDDDDDDDDDDDDDDDDDDDDDDDD                         DDDDDDDDDDDDDDDDDDDDDDDDDDDDDDDDDDDDDDDDD                        DDDDDDDDDDDDDDDDDDDDDDDDDDDDDDDDDDDDDDDDD                       DDDDDDDDDDDDDDDDDDDDDDDDDDDDDDDDDDDDDDDDDDD                      DDDDDDDDDDDDDDDDDDDDDDDDDDDDDDDDDDDDDDDDDDD                     SSDDDDDDDDDDDDDDDDDDDDDDDDDDDDDDDDDDDDDDDDDDD                    SSSSDDDDDDDDDDDDDDDDDDDDDDDDDDDDDDDDDDDDDDDDD                    SSSSSSDDDDDDDDDDDDDDDDDDDDDDDDDDDDDDDDDDDDDDD          
             DDDDDDDDDDDDDDDDDDDDDDDDDDDDDDDDDDDDDDD                         DDDDDDDDDDDDDDDDDDDDDDDDDDDDDDDDDDDDDDDDD                        DDDDDDDDDDDDDDDDDDDDDDDDDDDDDDDDDDDDDDDDD                       DDDDDDDDDDDDDDDDDDDDDDDDDDDDDDDDDDDDDDDDDDD                      DDDDDDDDDDDDDDDDDDDDDDDDDDDDDDDDDDDDDDDDDDD                     DDDDDDDDDDDDDDDDDDDDDDDDDDDDDDDDDDDDDDDDDDDDD                    DDDDDDDDDDDDDDDDDDDDDDDDDDDDDDDDDDDDDDDDDDDDD                    SSSDDDDDDDDDDDDDDDDDDDDDDDDDDDDDDDDDDDDDDDDDD                   SSSSSSDDDDDDDDDDDDDDDiiiiiDDDDDDDDDDDDDDDDDDDDD         
             DDDDDDDDDDDDDDDDDDDDDDDDDDDDDDDDDDDDDDD                         DDDDDDDDDDDDDDDDDDDDDDDDDDDDDDDDDDDDDDDDD                       DDDDDDDDDDDDDDDDDDDDDDDDDDDDDDDDDDDDDDDDDDD                      DDDDDDDDDDDDDDDDDDDDDDDDDDDDDDDDDDDDDDDDDDD                     DDDDDDDDDDDDDDDDDDDDDDDDDDDDDDDDDDDDDDDDDDDDD                    DDDDDDDDDDDDDDDDDDDDDDDDDDDDDDDDDDDDDDDDDDDDD                   DDDDDDDDDDDDDDDDDDDDDDDDDDDDDDDDDDDDDDDDDDDDDDD                  SSSDDDDDDDDDDDDDDDDDiiiiiiiDDDDDDDDDDDDDDDDDDDD                  SSSSSDDDDDDDDDDDDDiiiiiiiiiiiDDDDDDDDDDDDDDDDDD         
            DDDDDDDDDDDDDDDDDDDDDDDDDDDDDDDDDDDDDDDDD                       DDDDDDDDDDDDDDDDDDDDDDDDDDDDDDDDDDDDDDDDDDD                      DDDDDDDDDDDDDDDDDDDDDDDDDDDDDDDDDDDDDDDDDDD                     DDDDDDDDDDDDDDDDDDDDDDDDDDDDDDDDDDDDDDDDDDDDD                    DDDDDDDDDDDDDDDDDDDDDDDDDDDDDDDDDDDDDDDDDDDDD                   DDDDDDDDDDDDDDDDDDDDDDDDDDDDDDDDDDDDDDDDDDDDDDD                  DDDDDDDDDDDDDDDDDDDiiiiiiiiiDDDDDDDDDDDDDDDDDDD                  SDDDDDDDDDDDDDDDDDiiiiiiiiiiiDDDDDDDDDDDDDDDDDD                 SSSSSDDDDDDDDDDDDDiiiiiiiiiiiiiDDDDDDDDDDDDDDDDDD        
            DDDDDDDDDDDDDDDDDDDDDDDDDDDDDDDDDDDDDDDDD                       DDDDDDDDDDDDDDDDDDDDDDDDDDDDDDDDDDDDDDDDDDD                      DDDDDDDDDDDDDDDDDDDDDDDDDDDDDDDDDDDDDDDDDDD                     DDDDDDDDDDDDDDDDDDDDDDDDDDDDDDDDDDDDDDDDDDDDD                    DDDDDDDDDDDDDDDDDDDDDDDDDDDDDDDDDDDDDDDDDDDDD                   DDDDDDDDDDDDDDDDDDDDiiiiiiiDDDDDDDDDDDDDDDDDDDD                  DDDDDDDDDDDDDDDDDDiiiiiiiiiiiDDDDDDDDDDDDDDDDDD                 SDDDDDDDDDDDDDDDDDiiiiiiiiiiiiiDDDDDDDDDDDDDDDDDD                SSSSDDDDDDDDDDDDDiiiiiiiiiiiiiiiDDDDDDDDDDDDDDDDD        
           DDDDDDDDDDDDDDDDDDDDDDDDDDDDDDDDDDDDDDDDDDD                      DDDDDDDDDDDDDDDDDDDDDDDDDDDDDDDDDDDDDDDDDDD                     DDDDDDDDDDDDDDDDDDDDDDDDDDDDDDDDDDDDDDDDDDDDD                    DDDDDDDDDDDDDDDDDDDDDDDDDDDDDDDDDDDDDDDDDDDDD                   DDDDDDDDDDDDDDDDDDDDDiiiiiDDDDDDDDDDDDDDDDDDDDD                  DDDDDDDDDDDDDDDDDDiiiiiiiiiiiDDDDDDDDDDDDDDDDDD                 DDDDDDDDDDDDDDDDDDiiiiiiiiiiiiiDDDDDDDDDDDDDDDDDD                DDDDDDDDDDDDDDDDDiiiiiiiiiiiiiiiDDDDDDDDDDDDDDDDD                SSDDDDDDDDDDDDDDiiiiiiiiiiiiiiiiiDDDDDDDDDDDDDDDD        
           DDDDDDDDDDDDDDDDDDDDDDDDDDDDDDDDDDDDDDDDDDD                      DDDDDDDDDDDDDDDDDDDDDDDDDDDDDDDDDDDDDDDDDDD                     DDDDDDDDDDDDDDDDDDDDDDDDDDDDDDDDDDDDDDDDDDDDD                   DDDDDDDDDDDDDDDDDDDDDDDDDDDDDDDDDDDDDDDDDDDDDDD                  DDDDDDDDDDDDDDDDDDDiiiiiiiiiDDDDDDDDDDDDDDDDDDD                  DDDDDDDDDDDDDDDDDiiiiiiiiiiiiiDDDDDDDDDDDDDDDDD                 DDDDDDDDDDDDDDDDDiiiiiiiiiiiiiiiDDDDDDDDDDDDDDDDD                DDDDDDDDDDDDDDDDiiiiiiiiiiiiiiiiiDDDDDDDDDDDDDDDD                SDDDDDDDDDDDDDDiiiiiiiiiiiiiiiiiiiDDDDDDDDDDDDDDD        
           DDDDDDDDDDDDDDDDDDDDDDDDDDDDDDDDDDDDDDDDDDD                     DDDDDDDDDDDDDDDDDDDDDDDDDDDDDDDDDDDDDDDDDDDDD                    DDDDDDDDDDDDDDDDDDDDDDDDDDDDDDDDDDDDDDDDDDDDD                   DDDDDDDDDDDDDDDDDDDDDiiiiiDDDDDDDDDDDDDDDDDDDDD                  DDDDDDDDDDDDDDDDDDiiiiiiiiiiiDDDDDDDDDDDDDDDDDD                 DDDDDDDDDDDDDDDDDDiiiiiiiiiiiiiDDDDDDDDDDDDDDDDDD                DDDDDDDDDDDDDDDDiiiiiiiiiiiiiiiiiDDDDDDDDDDDDDDDD                DDDDDDDDDDDDDDDDiiiiiiiiiiiiiiiiiDDDDDDDDDDDDDDDD                DDDDDDDDDDDDDDDiiiiiiiiiiiiiiiiiiiDDDDDDDDDDDDDDD        
           DDDDDDDDDDDDDDDDDDDDDDDDDDDDDDDDDDDDDDDDDDD                     DDDDDDDDDDDDDDDDDDDDDDDDDDDDDDDDDDDDDDDDDDDDD                    DDDDDDDDDDDDDDDDDDDDDDDDDDDDDDDDDDDDDDDDDDDDD                   DDDDDDDDDDDDDDDDDDDDiiiiiiiDDDDDDDDDDDDDDDDDDDD                  DDDDDDDDDDDDDDDDDDiiiiiiiiiiiDDDDDDDDDDDDDDDDDD                 DDDDDDDDDDDDDDDDDiiiiiiiiiiiiiiiDDDDDDDDDDDDDDDDD                DDDDDDDDDDDDDDDDiiiiiiiiiiiiiiiiiDDDDDDDDDDDDDDDD                DDDDDDDDDDDDDDDiiiiiiiiiiiiiiiiiiiDDDDDDDDDDDDDDD               DDDDDDDDDDDDDDDDiiiiiiiiiiiiiiiiiiiDDDDDDDDDDDDDDDD       
           DDDDDDDDDDDDDDDDDDDDDDDDDDDDDDDDDDDDDDDDDDD                     DDDDDDDDDDDDDDDDDDDDDDDDDDDDDDDDDDDDDDDDDDDDD                    DDDDDDDDDDDDDDDDDDDDDDDDDDDDDDDDDDDDDDDDDDDDD                   DDDDDDDDDDDDDDDDDDDiiiiiiiiiDDDDDDDDDDDDDDDDDDD                  DDDDDDDDDDDDDDDDDiiiiiiiiiiiiiDDDDDDDDDDDDDDDDD                 DDDDDDDDDDDDDDDDDiiiiiiiiiiiiiiiDDDDDDDDDDDDDDDDD                DDDDDDDDDDDDDDDDiiiiiiiiiiiiiiiiiDDDDDDDDDDDDDDDD                DDDDDDDDDDDDDDDiiiiiiiiiiiiiiiiiiiDDDDDDDDDDDDDDD               DDDDDDDDDDDDDDDiiiiiiiiiiiiiiiiiiiiiDDDDDDDDDDDDDDD       
           DDDDDDDDDDDDDDDDDDDDDDDDDDDDDDDDDDDDDDDDDDD                     DDDDDDDDDDDDDDDDDDDDDDDDDDDDDDDDDDDDDDDDDDDDD                   DDDDDDDDDDDDDDDDDDDDDDDDDDDDDDDDDDDDDDDDDDDDDDD                  DDDDDDDDDDDDDDDDDDDiiiiiiiiiDDDDDDDDDDDDDDDDDDD                  DDDDDDDDDDDDDDDDDiiiiiiiiiiiiiDDDDDDDDDDDDDDDDD                 DDDDDDDDDDDDDDDDDiiiiiiiiiiiiiiiDDDDDDDDDDDDDDDDD                DDDDDDDDDDDDDDDDiiiiiiiiiiiiiiiiiDDDDDDDDDDDDDDDD               DDDDDDDDDDDDDDDDiiiiiiiiiiiiiiiiiiiDDDDDDDDDDDDDDDD              DDDDDDDDDDDDDDDiiiiiiiiiiiiiiiiiiiiiDDDDDDDDDDDDDDD       
           DDDDDDDDDDDDDDDDDDDDDDDDDDDDDDDDDDDDDDDDDDD                     DDDDDDDDDDDDDDDDDDDDDDDDDDDDDDDDDDDDDDDDDDDDD                   DDDDDDDDDDDDDDDDDDDDDDDiDDDDDDDDDDDDDDDDDDDDDDD                  DDDDDDDDDDDDDDDDDDDiiiiiiiiiDDDDDDDDDDDDDDDDDDD                 DDDDDDDDDDDDDDDDDDiiiiiiiiiiiiiDDDDDDDDDDDDDDDDDD                DDDDDDDDDDDDDDDDDiiiiiiiiiiiiiiiDDDDDDDDDDDDDDDDD                DDDDDDDDDDDDDDDDiiiiiiiiiiiiiiiiiDDDDDDDDDDDDDDDD               DDDDDDDDDDDDDDDDiiiiiiiiiiiiiiiiiiiDDDDDDDDDDDDDDDD              DDDDDDDDDDDDDDDiiiiiiiiiiiiiiiiiiiiiDDDDDDDDDDDDDDD       
           DDDDDDDDDDDDDDDDDDDDDDDDDDDDDDDDDDDDDDDDDDD                     DDDDDDDDDDDDDDDDDDDDDDDDDDDDDDDDDDDDDDDDDDDDD                   DDDDDDDDDDDDDDDDDDDDDDDDDDDDDDDDDDDDDDDDDDDDDDD                  DDDDDDDDDDDDDDDDDDDiiiiiiiiiDDDDDDDDDDDDDDDDDDD                  DDDDDDDDDDDDDDDDDiiiiiiiiiiiiiDDDDDDDDDDDDDDDDD                 DDDDDDDDDDDDDDDDDiiiiiiiiiiiiiiiDDDDDDDDDDDDDDDDD                DDDDDDDDDDDDDDDDiiiiiiiiiiiiiiiiiDDDDDDDDDDDDDDDD               DDDDDDDDDDDDDDDDiiiiiiiiiiiiiiiiiiiDDDDDDDDDDDDDDDD              DDDDDDDDDDDDDDDiiiiiiiiiiiiiiiiiiiiiDDDDDDDDDDDDDDD       
           DDDDDDDDDDDDDDDDDDDDDDDDDDDDDDDDDDDDDDDDDDD                     DDDDDDDDDDDDDDDDDDDDDDDDDDDDDDDDDDDDDDDDDDDDD                    DDDDDDDDDDDDDDDDDDDDDDDDDDDDDDDDDDDDDDDDDDDDD                   DDDDDDDDDDDDDDDDDDDiiiiiiiiiDDDDDDDDDDDDDDDDDDD                  DDDDDDDDDDDDDDDDDiiiiiiiiiiiiiDDDDDDDDDDDDDDDDD                 DDDDDDDDDDDDDDDDDiiiiiiiiiiiiiiiDDDDDDDDDDDDDDDDD                DDDDDDDDDDDDDDDDiiiiiiiiiiiiiiiiiDDDDDDDDDDDDDDDD                DDDDDDDDDDDDDDDiiiiiiiiiiiiiiiiiiiDDDDDDDDDDDDDDD               DDDDDDDDDDDDDDDiiiiiiiiiiiiiiiiiiiiiDDDDDDDDDDDDDDD       
           DDDDDDDDDDDDDDDDDDDDDDDDDDDDDDDDDDDDDDDDDDD                     DDDDDDDDDDDDDDDDDDDDDDDDDDDDDDDDDDDDDDDDDDDDD                    DDDDDDDDDDDDDDDDDDDDDDDDDDDDDDDDDDDDDDDDDDDDD                   DDDDDDDDDDDDDDDDDDDDiiiiiiiDDDDDDDDDDDDDDDDDDDD                  DDDDDDDDDDDDDDDDDDiiiiiiiiiiiDDDDDDDDDDDDDDDDDD                 DDDDDDDDDDDDDDDDDiiiiiiiiiiiiiiiDDDDDDDDDDDDDDDDD                DDDDDDDDDDDDDDDDiiiiiiiiiiiiiiiiiDDDDDDDDDDDDDDDD                DDDDDDDDDDDDDDDiiiiiiiiiiiiiiiiiiiDDDDDDDDDDDDDDD               DDDDDDDDDDDDDDDDiiiiiiiiiiiiiiiiiiiDDDDDDDDDDDDDDDD       
           DDDDDDDDDDDDDDDDDDDDDDDDDDDDDDDDDDDDDDDDDDD                     DDDDDDDDDDDDDDDDDDDDDDDDDDDDDDDDDDDDDDDDDDDDD                    DDDDDDDDDDDDDDDDDDDDDDDDDDDDDDDDDDDDDDDDDDDDD                   DDDDDDDDDDDDDDDDDDDDDiiiiiDDDDDDDDDDDDDDDDDDDDD                  DDDDDDDDDDDDDDDDDDiiiiiiiiiiiDDDDDDDDDDDDDDDDDD                 DDDDDDDDDDDDDDDDDDiiiiiiiiiiiiiDDDDDDDDDDDDDDDDDD                DDDDDDDDDDDDDDDDiiiiiiiiiiiiiiiiiDDDDDDDDDDDDDDDD                DDDDDDDDDDDDDDDDiiiiiiiiiiiiiiiiiDDDDDDDDDDDDDDDD                DDDDDDDDDDDDDDDiiiiiiiiiiiiiiiiiiiDDDDDDDDDDDDDDD        
           DDDDDDDDDDDDDDDDDDDDDDDDDDDDDDDDDDDDDDDDDDD                      DDDDDDDDDDDDDDDDDDDDDDDDDDDDDDDDDDDDDDDDDDD                     DDDDDDDDDDDDDDDDDDDDDDDDDDDDDDDDDDDDDDDDDDDDD                   DDDDDDDDDDDDDDDDDDDDDDDDDDDDDDDDDDDDDDDDDDDDDDD                  DDDDDDDDDDDDDDDDDDDiiiiiiiiiDDDDDDDDDDDDDDDDDDD                  DDDDDDDDDDDDDDDDDiiiiiiiiiiiiiDDDDDDDDDDDDDDDDD                 DDDDDDDDDDDDDDDDDiiiiiiiiiiiiiiiDDDDDDDDDDDDDDDDD                DDDDDDDDDDDDDDDDiiiiiiiiiiiiiiiiiDDDDDDDDDDDDDDDD                DDDDDDDDDDDDDDDiiiiiiiiiiiiiiiiiiiDDDDDDDDDDDDDDD        
           DDDDDDDDDDDDDDDDDDDDDDDDDDDDDDDDDDDDDDDDDDD                      DDDDDDDDDDDDDDDDDDDDDDDDDDDDDDDDDDDDDDDDDDD                     DDDDDDDDDDDDDDDDDDDDDDDDDDDDDDDDDDDDDDDDDDDDD                    DDDDDDDDDDDDDDDDDDDDDDDDDDDDDDDDDDDDDDDDDDDDD                   DDDDDDDDDDDDDDDDDDDDDiiiiiDDDDDDDDDDDDDDDDDDDDD                  DDDDDDDDDDDDDDDDDDiiiiiiiiiiiDDDDDDDDDDDDDDDDDD                 DDDDDDDDDDDDDDDDDDiiiiiiiiiiiiiDDDDDDDDDDDDDDDDDD                DDDDDDDDDDDDDDDDDiiiiiiiiiiiiiiiDDDDDDDDDDDDDDDDD                DDDDDDDDDDDDDDDDiiiiiiiiiiiiiiiiiDDDDDDDDDDDDDDDD        
            DDDDDDDDDDDDDDDDDDDDDDDDDDDDDDDDDDDDDDDDD                       DDDDDDDDDDDDDDDDDDDDDDDDDDDDDDDDDDDDDDDDDDD                      DDDDDDDDDDDDDDDDDDDDDDDDDDDDDDDDDDDDDDDDDDD                     DDDDDDDDDDDDDDDDDDDDDDDDDDDDDDDDDDDDDDDDDDDDD                    DDDDDDDDDDDDDDDDDDDDDDDDDDDDDDDDDDDDDDDDDDDDD                   DDDDDDDDDDDDDDDDDDDDiiiiiiiDDDDDDDDDDDDDDDDDDDD                  DDDDDDDDDDDDDDDDDDiiiiiiiiiiiDDDDDDDDDDDDDDDDDD                 DDDDDDDDDDDDDDDDDDiiiiiiiiiiiiiDDDDDDDDDDDDDDDDDD                DDDDDDDDDDDDDDDDDiiiiiiiiiiiiiiiDDDDDDDDDDDDDDDDD        
            DDDDDDDDDDDDDDDDDDDDDDDDDDDDDDDDDDDDDDDDD                       DDDDDDDDDDDDDDDDDDDDDDDDDDDDDDDDDDDDDDDDDDD                      DDDDDDDDDDDDDDDDDDDDDDDDDDDDDDDDDDDDDDDDDDD                     DDDDDDDDDDDDDDDDDDDDDDDDDDDDDDDDDDDDDDDDDDDDD                    DDDDDDDDDDDDDDDDDDDDDDDDDDDDDDDDDDDDDDDDDDDDD                   DDDDDDDDDDDDDDDDDDDDDDDDDDDDDDDDDDDDDDDDDDDDDDD                  DDDDDDDDDDDDDDDDDDDiiiiiiiiiDDDDDDDDDDDDDDDDDDD                  DDDDDDDDDDDDDDDDDDiiiiiiiiiiiDDDDDDDDDDDDDDDDDD                 DDDDDDDDDDDDDDDDDDiiiiiiiiiiiiiDDDDDDDDDDDDDDDDDD        
             DDDDDDDDDDDDDDDDDDDDDDDDDDDDDDDDDDDDDDD                         DDDDDDDDDDDDDDDDDDDDDDDDDDDDDDDDDDDDDDDDD                       DDDDDDDDDDDDDDDDDDDDDDDDDDDDDDDDDDDDDDDDDDD                      DDDDDDDDDDDDDDDDDDDDDDDDDDDDDDDDDDDDDDDDDDD                     DDDDDDDDDDDDDDDDDDDDDDDDDDDDDDDDDDDDDDDDDDDDD                    DDDDDDDDDDDDDDDDDDDDDDDDDDDDDDDDDDDDDDDDDDDDD                   DDDDDDDDDDDDDDDDDDDDDDDDDDDDDDDDDDDDDDDDDDDDDDD                  DDDDDDDDDDDDDDDDDDDDiiiiiiiDDDDDDDDDDDDDDDDDDDD                  DDDDDDDDDDDDDDDDDDiiiiiiiiiiiDDDDDDDDDDDDDDDDDD         
             DDDDDDDDDDDDDDDDDDDDDDDDDDDDDDDDDDDDDDD                         DDDDDDDDDDDDDDDDDDDDDDDDDDDDDDDDDDDDDDDDD                        DDDDDDDDDDDDDDDDDDDDDDDDDDDDDDDDDDDDDDDDD                       DDDDDDDDDDDDDDDDDDDDDDDDDDDDDDDDDDDDDDDDDDD                      DDDDDDDDDDDDDDDDDDDDDDDDDDDDDDDDDDDDDDDDDDD                     DDDDDDDDDDDDDDDDDDDDDDDDDDDDDDDDDDDDDDDDDDDDD                    DDDDDDDDDDDDDDDDDDDDDDDDDDDDDDDDDDDDDDDDDDDDD                    DDDDDDDDDDDDDDDDDDDDDDDDDDDDDDDDDDDDDDDDDDDDD                   DDDDDDDDDDDDDDDDDDDDDiiiiiDDDDDDDDDDDDDDDDDDDDD         
              DDDDDDDDDDDDDDDDDDDDDDDDDDDDDDDDDDDDD                           DDDDDDDDDDDDDDDDDDDDDDDDDDDDDDDDDDDDDDD                         DDDDDDDDDDDDDDDDDDDDDDDDDDDDDDDDDDDDDDDDD                        DDDDDDDDDDDDDDDDDDDDDDDDDDDDDDDDDDDDDDDDD                       DDDDDDDDDDDDDDDDDDDDDDDDDDDDDDDDDDDDDDDDDDD                      DDDDDDDDDDDDDDDDDDDDDDDDDDDDDDDDDDDDDDDDDDD                     DDDDDDDDDDDDDDDDDDDDDDDDDDDDDDDDDDDDDDDDDDDDD                    DDDDDDDDDDDDDDDDDDDDDDDDDDDDDDDDDDDDDDDDDDDDD                    DDDDDDDDDDDDDDDDDDDDDDDDDDDDDDDDDDDDDDDDDDDDD          
              DDDDDDDDDDDDDDDDDDDDDDDDDDDDDDDDDDDDD                           DDDDDDDDDDDDDDDDDDDDDDDDDDDDDDDDDDDDDDD                          DDDDDDDDDDDDDDDDDDDDDDDDDDDDDDDDDDDDDDD                         DDDDDDDDDDDDDDDDDDDDDDDDDDDDDDDDDDDDDDDDD                        DDDDDDDDDDDDDDDDDDDDDDDDDDDDDDDDDDDDDDDDD                       DDDDDDDDDDDDDDDDDDDDDDDDDDDDDDDDDDDDDDDDDDD                      DDDDDDDDDDDDDDDDDDDDDDDDDDDDDDDDDDDDDDDDDDD                      DDDDDDDDDDDDDDDDDDDDDDDDDDDDDDDDDDDDDDDDDDD                     DDDDDDDDDDDDDDDDDDDDDDDDDDDDDDDDDDDDDDDDDDDDD          
               DDDDDDDDDDDDDDDDDDDDDDDDDDDDDDDDDDD                             DDDDDDDDDDDDDDDDDDDDDDDDDDDDDDDDDDDDD                           DDDDDDDDDDDDDDDDDDDDDDDDDDDDDDDDDDDDDDD                          DDDDDDDDDDDDDDDDDDDDDDDDDDDDDDDDDDDDDDD                         DDDDDDDDDDDDDDDDDDDDDDDDDDDDDDDDDDDDDDDDD                        DDDDDDDDDDDDDDDDDDDDDDDDDDDDDDDDDDDDDDDDD                       DDDDDDDDDDDDDDDDDDDDDDDDDDDDDDDDDDDDDDDDDDD                      DDDDDDDDDDDDDDDDDDDDDDDDDDDDDDDDDDDDDDDDDDD                      DDDDDDDDDDDDDDDDDDDDDDDDDDDDDDDDDDDDDDDDDDD           
                DDDDDDDDDDDDDDDDDDDDDDDDDDDDDDDDD                               DDDDDDDDDDDDDDDDDDDDDDDDDDDDDDDDDDD                             DDDDDDDDDDDDDDDDDDDDDDDDDDDDDDDDDDDDD                            DDDDDDDDDDDDDDDDDDDDDDDDDDDDDDDDDDDDD                           DDDDDDDDDDDDDDDDDDDDDDDDDDDDDDDDDDDDDDD                          DDDDDDDDDDDDDDDDDDDDDDDDDDDDDDDDDDDDDDD                         DDDDDDDDDDDDDDDDDDDDDDDDDDDDDDDDDDDDDDDDD                        DDDDDDDDDDDDDDDDDDDDDDDDDDDDDDDDDDDDDDDDD                       DDDDDDDDDDDDDDDDDDDDDDDDDDDDDDDDDDDDDDDDDDD           
                 DDDDDDDDDDDDDDDDDDDDDDDDDDDDDDD                                 DDDDDDDDDDDDDDDDDDDDDDDDDDDDDDDDD                               DDDDDDDDDDDDDDDDDDDDDDDDDDDDDDDDDDD                             DDDDDDDDDDDDDDDDDDDDDDDDDDDDDDDDDDDDD                            DDDDDDDDDDDDDDDDDDDDDDDDDDDDDDDDDDDDD                           DDDDDDDDDDDDDDDDDDDDDDDDDDDDDDDDDDDDDDD                          DDDDDDDDDDDDDDDDDDDDDDDDDDDDDDDDDDDDDDD                         DDDDDDDDDDDDDDDDDDDDDDDDDDDDDDDDDDDDDDDDD                        DDDDDDDDDDDDDDDDDDDDDDDDDDDDDDDDDDDDDDDDD            
                  DDDDDDDDDDDDDDDDDDDDDDDDDDDDD                                   DDDDDDDDDDDDDDDDDDDDDDDDDDDDDDD                                 DDDDDDDDDDDDDDDDDDDDDDDDDDDDDDDDD                               DDDDDDDDDDDDDDDDDDDDDDDDDDDDDDDDDDD                              DDDDDDDDDDDDDDDDDDDDDDDDDDDDDDDDDDD                             DDDDDDDDDDDDDDDDDDDDDDDDDDDDDDDDDDDDD                            DDDDDDDDDDDDDDDDDDDDDDDDDDDDDDDDDDDDD                           DDDDDDDDDDDDDDDDDDDDDDDDDDDDDDDDDDDDDDD                          DDDDDDDDDDDDDDDDDDDDDDDDDDDDDDDDDDDDDDD             
                   DDDDDDDDDDDDDDDDDDDDDDDDDDD                                     DDDDDDDDDDDDDDDDDDDDDDDDDDDDD                                   DDDDDDDDDDDDDDDDDDDDDDDDDDDDDDD                                 DDDDDDDDDDDDDDDDDDDDDDDDDDDDDDDDD                                DDDDDDDDDDDDDDDDDDDDDDDDDDDDDDDDD                               DDDDDDDDDDDDDDDDDDDDDDDDDDDDDDDDDDD                              DDDDDDDDDDDDDDDDDDDDDDDDDDDDDDDDDDD                             DDDDDDDDDDDDDDDDDDDDDDDDDDDDDDDDDDDDD                            DDDDDDDDDDDDDDDDDDDDDDDDDDDDDDDDDDDDD              
                    DDDDDDDDDDDDDDDDDDDDDDDDD                                       DDDDDDDDDDDDDDDDDDDDDDDDDDD                                     DDDDDDDDDDDDDDDDDDDDDDDDDDDDD                                   DDDDDDDDDDDDDDDDDDDDDDDDDDDDDDD                                  DDDDDDDDDDDDDDDDDDDDDDDDDDDDDDD                                 DDDDDDDDDDDDDDDDDDDDDDDDDDDDDDDDD                                DDDDDDDDDDDDDDDDDDDDDDDDDDDDDDDDD                               DDDDDDDDDDDDDDDDDDDDDDDDDDDDDDDDDDD                              DDDDDDDDDDDDDDDDDDDDDDDDDDDDDDDDDDD               
                      DDDDDDDDDDDDDDDDDDDDD                                          DDDDDDDDDDDDDDDDDDDDDDDDD                                       DDDDDDDDDDDDDDDDDDDDDDDDDDD                                      DDDDDDDDDDDDDDDDDDDDDDDDDDD                                     DDDDDDDDDDDDDDDDDDDDDDDDDDDDD                                   DDDDDDDDDDDDDDDDDDDDDDDDDDDDDDD                                  DDDDDDDDDDDDDDDDDDDDDDDDDDDDDDD                                 DDDDDDDDDDDDDDDDDDDDDDDDDDDDDDDDD                                DDDDDDDDDDDDDDDDDDDDDDDDDDDDDDDDD                
                        DDDDDDDDDDDDDDDDD                                              DDDDDDDDDDDDDDDDDDDDD                                           DDDDDDDDDDDDDDDDDDDDDDD                                         DDDDDDDDDDDDDDDDDDDDDDDDD                                       DDDDDDDDDDDDDDDDDDDDDDDDDDD                                      DDDDDDDDDDDDDDDDDDDDDDDDDDD                                     DDDDDDDDDDDDDDDDDDDDDDDDDDDDD                                   DDDDDDDDDDDDDDDDDDDDDDDDDDDDDDD                                  DDDDDDDDDDDDDDDDDDDDDDDDDDDDDDD                 
                          DDDDDDDDDDDDD                                                  DDDDDDDDDDDDDDDDD                                               DDDDDDDDDDDDDDDDDDD                                             DDDDDDDDDDDDDDDDDDDDD                                           DDDDDDDDDDDDDDDDDDDDDDD                                         DDDDDDDDDDDDDDDDDDDDDDDDD                                       DDDDDDDDDDDDDDDDDDDDDDDDDDD                                      DDDDDDDDDDDDDDDDDDDDDDDDDDD                                     DDDDDDDDDDDDDDDDDDDDDDDDDDDDD                  
                                                                                             DDDDDDDDD                                                      DDDDDDDDDDDDD                                                  DDDDDDDDDDDDDDDDD                                               DDDDDDDDDDDDDDDDDDD                                             DDDDDDDDDDDDDDDDDDDDD                                           DDDDDDDDDDDDDDDDDDDDDDD                                          DDDDDDDDDDDDDDDDDDDDDDD                                         DDDDDDDDDDDDDDDDDDDDDDDDD                    
                                                                                                                                                                 DDD                                                          DDDDDDDDDDD                                                     DDDDDDDDDDDDD                                                  DDDDDDDDDDDDDDDDD                                               DDDDDDDDDDDDDDDDDDD                                              DDDDDDDDDDDDDDDDDDD                                             DDDDDDDDDDDDDDDDDDDDD                      
                                                                                                                                                                                                                                                                                                    D                                                            DDDDDDDDD                                                      DDDDDDDDDDDDD                                                   DDDDDDDDDDDDDDD                                                 DDDDDDDDDDDDDDDDD                        
                                                                                                                                                                                                                                                                                                                                                                                                                                                                                                      DDD                                                            DDDDDDD                             
                                                                                                                                                                                                                                                                                                                                                                                                                                                                                                                                                                                                         
                                                                                                                                                                                                                                                                                                                                                                                                                                                                                                                                                                                                         
                                                                                                                                                                                                                                                                                                                                                                                                                                                                                                                                                                                                         
acbbaaabbbaaccbaaabbbaacbbbaccbaaaabbbaacbbaacbbaaabbbaacbbaaabbbccaabbcaabbaabbbaabbccaabbaaabbaabbcaabbccaabbaabbcaabbcaabbcaabbbcbabacbababbababbcbabacaabacaababacbabacbabacaababaabababbcbabacacacccbcbbbbbbbbbbbbbaabaaaaaaaaaacaaccaccbbcbbbbbbbbbbabbaaaaaaabcababcabcabcababbabbabbabaabaabaabaababcabcabcababcabcabcababbabacbbacbbacbbaabaacbaacbaacbaabbacbbacbbacbbabbaabbaacbaacbaabaacbacaabbbbcaaabbbbcaaaabbbcaaaabbcacaabbbccaaabbbbcaaabbbbcaaaabbcabcbababababababababababacacababacacbcbabcacbcbabababababababababaaaaccbbbbaaaacbbbbaaaaccbbbbaaaacbbbbaaaaccbbbbaaaacbbbbaaaaccbbb
                                                                                                                                                                                                                                                                                                                                                                                                                                                                                                                                                                                                         
                                                                                                                                                                                                                                                                                                                                                                                                                                                                                                                                                                                                         
                                                                                                                                                                                                                                                                                                                                                                                                                                                                                                                                                                                                         
                                                                                                                                                                                                                                                                                                                                                                                                                                                                                                                                                                                                         
                                                                                                                                                                                                                                                                                                                                                                                                                                                                                                                                                                                                         
                                                                                                                                                                                                                                                                                                                                                                                                                                                                                                                                                                                                         
                                                                                                                                                                                                                                                                                                                                                                                                                                                                                                                                                                                                         
                                                                                                                                                                                                                                                                                                                                                                                                                                                                                                                                                                                                         
                                                                                                                                                                                                                                                                                                                                                                                                                                                                                                                                                                                                         
                                                                                                                                                                                                                                                                                                                                                                     M                                                                                                                                                                                                                                   
                           SSSSSSSSSDD                                                      SSSSSSSSSSS                                                     SSSSSSSSSSSSS                                                    MMSSSSSSSSSSS                                                   MMMMMSSSSSSSSSS                                                  MMMMMMMMSSSSSSS                                                  MMMMMMMMMMSSSSS                                                   MMMMMMMMMMMMS                                                    MMMMMMMMMMMMM                          
                        SSSSSSSSSSDDDDDDD                                               SSSSSSSSSSSSSSDDDDD                                              MSSSSSSSSSSSSSSSDDD                                              MMMMSSSSSSSSSSSSSSS                                              MMMMMMSSSSSSSSSSSSS                                             MMMMMMMMMMSSSSSSSSSSS                                             MMMMMMMMMMMSSSSSSSS                                              MMMMMMMMMMMMMSSSSSS                                              LMMMMMMMMMMMMMMMSSS                       
                     SSSSSSSSSSSSDDDDDDDDDDD                                          SSSSSSSSSSSSSSSDDDDDDDD                                          MMSSSSSSSSSSSSSSSDDDDDD                                          MMMMMSSSSSSSSSSSSSSDDDD                                         MMMMMMMMSSSSSSSSSSSSSSSDD                                        MMMMMMMMMMSSSSSSSSSSSSSSS                                        MMMMMMMMMMMMMSSSSSSSSSSSS                                         MMMMMMMMMMMMMMSSSSSSSSS                                          LLMMMMMMMMMMMMMMMSSSSSS                     
                    SSSSSSSSSSSSDDDDDDDDDDDDD                                       MSSSSSSSSSSSSSSDDDDDDDDDDDD                                      MMMSSSSSSSSSSSSSSSDDDDDDDDD                                      MMMMMSSSSSSSSSSSSSSSDDDDDDD                                      MMMMMMMMSSSSSSSSSSSSSSSDDDD                                      MMMMMMMMMMSSSSSSSSSSSSSSSDD                                      MMMMMMMMMMMMMSSSSSSSSSSSSSS                                      MMMMMMMMMMMMMMMSSSSSSSSSSSS                                      LLLMMMMMMMMMMMMMMSSSSSSSSSS                   
                  SSSSSSSSSSSSSDDDDDDDDDDDDDDDD                                    SSSSSSSSSSSSSSSDDDDDDDDDDDDDD                                   MMMMSSSSSSSSSSSSSSSDDDDDDDDDDDD                                  MMMMMMSSSSSSSSSSSSSSSDDDDDDDDDD                                  MMMMMMMMMSSSSSSSSSSSSSSDDDDDDDD                                  MMMMMMMMMMMSSSSSSSSSSSSSSSDDDDD                                  MMMMMMMMMMMMMSSSSSSSSSSSSSSSDDD                                  LMMMMMMMMMMMMMMMSSSSSSSSSSSSSSS                                  LLLMMMMMMMMMMMMMMMSSSSSSSSSSSSS                 
                 SSSSSSSSSSSSSDDDDDDDDDDDDDDDDDD                                 MSSSSSSSSSSSSSSSDDDDDDDDDDDDDDDDD                                MMMMSSSSSSSSSSSSSSDDDDDDDDDDDDDDD                                MMMMMMSSSSSSSSSSSSSSSDDDDDDDDDDDD                                MMMMMMMMSSSSSSSSSSSSSSSDDDDDDDDDD                                MMMMMMMMMMMSSSSSSSSSSSSSSSDDDDDDD                                MMMMMMMMMMMMMSSSSSSSSSSSSSSSDDDDD                                LMMMMMMMMMMMMMMMSSSSSSSSSSSSSSDDD                                LLLMMMMMMMMMMMMMMMSSSSSSSSSSSSSSS                
               SSSSSSSSSSSSSDDDDDDDDDDDDDDDDDDDDDD                              MSSSSSSSSSSSSSSSDDDDDDDDDDDDDDDDDDD                              MMMSSSSSSSSSSSSSSSDDDDDDDDDDDDDDDDD                              MMMMMMSSSSSSSSSSSSSSSDDDDDDDDDDDDDD                              MMMMMMMMSSSSSSSSSSSSSSSDDDDDDDDDDDD                              MMMMMMMMMMMSSSSSSSSSSSSSSDDDDDDDDDD                              MMMMMMMMMMMMMSSSSSSSSSSSSSSSDDDDDDD                              LMMMMMMMMMMMMMMSSSSSSSSSSSSSSSDDDDD                              LLLMMMMMMMMMMMMMMMSSSSSSSSSSSSSSSDD               
              SSSSSSSSSSSSSDDDDDDDDDDDDDDDDDDDDDDDD                            MSSSSSSSSSSSSSSSDDDDDDDDDDDDDDDDDDDDD                            MMMSSSSSSSSSSSSSSSDDDDDDDDDDDDDDDDDDD                            MMMMMMSSSSSSSSSSSSSSDDDDDDDDDDDDDDDDD                            MMMMMMMMSSSSSSSSSSSSSSSDDDDDDDDDDDDDD                            MMMMMMMMMMSSSSSSSSSSSSSSSDDDDDDDDDDDD                            MMMMMMMMMMMMMSSSSSSSSSSSSSSSDDDDDDDDD                            MMMMMMMMMMMMMMMSSSSSSSSSSSSSSSDDDDDDD                            LLLMMMMMMMMMMMMMMMSSSSSSSSSSSSSSDDDDD              
             SSSSSSSSSSSSSDDDDDDDDDDDDDDDDDDDDDDDDDD                          MSSSSSSSSSSSSSSDDDDDDDDDDDDDDDDDDDDDDDD                          MMMSSSSSSSSSSSSSSSDDDDDDDDDDDDDDDDDDDDD                          MMMMMSSSSSSSSSSSSSSSDDDDDDDDDDDDDDDDDDD                          MMMMMMMMSSSSSSSSSSSSSSSDDDDDDDDDDDDDDDD                          MMMMMMMMMMSSSSSSSSSSSSSSSDDDDDDDDDDDDDD                          MMMMMMMMMMMMMSSSSSSSSSSSSSSDDDDDDDDDDDD                          MMMMMMMMMMMMMMMSSSSSSSSSSSSSSSDDDDDDDDD                          LLLMMMMMMMMMMMMMMSSSSSSSSSSSSSSSDDDDDDD             
             SSSSSSSSSSSSDDDDDDDDDDDDDDDDDDDDDDDDDDD                         SSSSSSSSSSSSSSSDDDDDDDDDDDDDDDDDDDDDDDDDD                        MMMSSSSSSSSSSSSSSSDDDDDDDDDDDDDDDDDDDDDDD                        MMMMMSSSSSSSSSSSSSSSDDDDDDDDDDDDDDDDDDDDD                        MMMMMMMMSSSSSSSSSSSSSSDDDDDDDDDDDDDDDDDDD                        MMMMMMMMMMSSSSSSSSSSSSSSSDDDDDDDDDDDDDDDD                        MMMMMMMMMMMMSSSSSSSSSSSSSSSDDDDDDDDDDDDDD                        MMMMMMMMMMMMMMMSSSSSSSSSSSSSSSDDDDDDDDDDD                        LLMMMMMMMMMMMMMMMSSSSSSSSSSSSSSSDDDDDDDDD            
            SSSSSSSSSSSSDDDDDDDDDDDDDDDDDDDDDDDDDDDDD                        SSSSSSSSSSSSSSDDDDDDDDDDDDDDDDDDDDDDDDDDD                       MMMSSSSSSSSSSSSSSDDDDDDDDDDDDDDDDDDDDDDDDDD                      MMMMMSSSSSSSSSSSSSSSDDDDDDDDDDDDDDDDDDDDDDD                      MMMMMMMSSSSSSSSSSSSSSSDDDDDDDDDDDDDDDDDDDDD                      MMMMMMMMMMSSSSSSSSSSSSSSSDDDDDDDDDDDDDDDDDD                      MMMMMMMMMMMMSSSSSSSSSSSSSSSDDDDDDDDDDDDDDDD                      MMMMMMMMMMMMMMMSSSSSSSSSSSSSSDDDDDDDDDDDDDD                      LLMMMMMMMMMMMMMMMSSSSSSSSSSSSSSSDDDDDDDDDDD           
           SSSSSSSSSSSDDDDDDDDDDDDDDDDDDDDDDDDDDDDDDDD                      SSSSSSSSSSSSSSDDDDDDDDDDDDDDDDDDDDDDDDDDDDD                      MSSSSSSSSSSSSSSSDDDDDDDDDDDDDDDDDDDDDDDDDDD                      MMMMSSSSSSSSSSSSSSSDDDDDDDDDDDDDDDDDDDDDDDD                      MMMMMMSSSSSSSSSSSSSSSDDDDDDDDDDDDDDDDDDDDDD                      MMMMMMMMMSSSSSSSSSSSSSSDDDDDDDDDDDDDDDDDDDD                      MMMMMMMMMMMSSSSSSSSSSSSSSSDDDDDDDDDDDDDDDDD                      MMMMMMMMMMMMMSSSSSSSSSSSSSSSDDDDDDDDDDDDDDD                      LMMMMMMMMMMMMMMMSSSSSSSSSSSSSSSDDDDDDDDDDDD           
           SSSSSSSSSSDDDDDDDDDDDDDDDDDDDDDDDDDDDDDDDDD                     SSSSSSSSSSSSSSDDDDDDDDDDDDDDDDDDDDDDDDDDDDDDD                    MSSSSSSSSSSSSSSSDDDDDDDDDDDDDDDDDDDDDDDDDDDDD                    MMMMSSSSSSSSSSSSSSDDDDDDDDDDDDDDDDDDDDDDDDDDD                    MMMMMMSSSSSSSSSSSSSSSDDDDDDDDDDDDDDDDDDDDDDDD                    MMMMMMMMSSSSSSSSSSSSSSSDDDDDDDDDDDDDDDDDDDDDD                    MMMMMMMMMMMSSSSSSSSSSSSSSSDDDDDDDDDDDDDDDDDDD                    MMMMMMMMMMMMMSSSSSSSSSSSSSSSDDDDDDDDDDDDDDDDD                    LMMMMMMMMMMMMMMMSSSSSSSSSSSSSSDDDDDDDDDDDDDDD          
          SSSSSSSSSSDDDDDDDDDDDDDDDDDDDDDDDDDDDDDDDDDDD                    SSSSSSSSSSSSDDDDDDDDDDDDDDDDDDDDDDDDDDDDDDDDD                    SSSSSSSSSSSSSSSDDDDDDDDDDDDDDDDDDDDDDDDDDDDDD                    MMSSSSSSSSSSSSSSSDDDDDDDDDDDDDDDDDDDDDDDDDDDD                   MMMMMMSSSSSSSSSSSSSSSDDDDDDDDDDDDDDDDDDDDDDDDDD                  MMMMMMMMSSSSSSSSSSSSSSSiDDDDDDDDDDDDDDDDDDDDDDD                  MMMMMMMMMMMSSSSSSSSSSSSSSDDDDDDDDDDDDDDDDDDDDDD                   MMMMMMMMMMMMSSSSSSSSSSSSSSSDDDDDDDDDDDDDDDDDD                    MMMMMMMMMMMMMMSSSSSSSSSSSSSSSDDDDDDDDDDDDDDDD          
         SSSSSSSSSSDDDDDDDDDDDDDDDDDDDDDDDDDDDDDDDDDDDDD                  SSSSSSSSSSSSDDDDDDDDDiiiiiDDDDDDDDDDDDDDDDDDDDD                  SSSSSSSSSSSSSSSDDDDDiiiiiiiDDDDDDDDDDDDDDDDDDDD                  MMSSSSSSSSSSSSSSSDDiiiiiiiiiDDDDDDDDDDDDDDDDDDD                  MMMMMSSSSSSSSSSSSSSiiiiiiiiiDDDDDDDDDDDDDDDDDDD                  MMMMMMMSSSSSSSSSSSSiiiiiiiiiDDDDDDDDDDDDDDDDDDD                  MMMMMMMMMSSSSSSSSSSiiiiiiiiiDDDDDDDDDDDDDDDDDDD                  MMMMMMMMMMMMSSSSSSSiiiiiiiiiDDDDDDDDDDDDDDDDDDD                  MMMMMMMMMMMMMMSSSSSSiiiiiiiSSDDDDDDDDDDDDDDDDDD         
         SSSSSSSSSDDDDDDDDDDiiiiiiiiiDDDDDDDDDDDDDDDDDDD                  SSSSSSSSSSSDDDDDDDiiiiiiiiiiiDDDDDDDDDDDDDDDDDD                  SSSSSSSSSSSSSDDDDDiiiiiiiiiiiDDDDDDDDDDDDDDDDDD                  MSSSSSSSSSSSSSSSDiiiiiiiiiiiiiDDDDDDDDDDDDDDDDD                  MMMSSSSSSSSSSSSSSiiiiiiiiiiiiiDDDDDDDDDDDDDDDDD                 MMMMMMMSSSSSSSSSSSiiiiiiiiiiiiiDDDDDDDDDDDDDDDDDD                 MMMMMMMMSSSSSSSSSiiiiiiiiiiiiiDDDDDDDDDDDDDDDDD                  MMMMMMMMMMMSSSSSSiiiiiiiiiiiiiDDDDDDDDDDDDDDDDD                  MMMMMMMMMMMMMSSSSSiiiiiiiiiiiDDDDDDDDDDDDDDDDDD         
         SSSSSSSDDDDDDDDDDiiiiiiiiiiiiiDDDDDDDDDDDDDDDDD                 SSSSSSSSSSSDDDDDDDiiiiiiiiiiiiiDDDDDDDDDDDDDDDDDD                SSSSSSSSSSSSSDDDDiiiiiiiiiiiiiiiDDDDDDDDDDDDDDDDD                MSSSSSSSSSSSSSSSDiiiiiiiiiiiiiiiDDDDDDDDDDDDDDDDD                MMMSSSSSSSSSSSSSSiiiiiiiiiiiiiiiDDDDDDDDDDDDDDDDD                MMMMMMSSSSSSSSSSSiiiiiiiiiiiiiiiDDDDDDDDDDDDDDDDD                MMMMMMMMSSSSSSSSSiiiiiiiiiiiiiiiDDDDDDDDDDDDDDDDD                MMMMMMMMMMSSSSSSSiiiiiiiiiiiiiiiDDDDDDDDDDDDDDDDD                MMMMMMMMMMMMMSSSSjiiiiiiiiiiiiiiDDDDDDDDDDDDDDDDD        
        SSSSSSSDDDDDDDDDDiiiiiiiiiiiiiiiDDDDDDDDDDDDDDDDD                SSSSSSSSSSDDDDDDiiiiiiiiiiiiiiiiiDDDDDDDDDDDDDDDD                SSSSSSSSSSSSDDDDiiiiiiiiiiiiiiiiiDDDDDDDDDDDDDDDD                SSSSSSSSSSSSSSDDiiiiiiiiiiiiiiiiiDDDDDDDDDDDDDDDD                MMSSSSSSSSSSSSSSiiiiiiiiiiiiiiiiiDDDDDDDDDDDDDDDD                MMMMSSSSSSSSSSSSiiiiiiiiiiiiiiiiiDDDDDDDDDDDDDDDD                MMMMMMMSSSSSSSSSiiiiiiiiiiiiiiiiiDDDDDDDDDDDDDDDD                MMMMMMMMMSSSSSSSiiiiiiiiiiiiiiiiiDDDDDDDDDDDDDDDD                MMMMMMMMMMMMSSSSjiiiiiiiiiiiiiiiiDDDDDDDDDDDDDDDD        
        SSSSSSDDDDDDDDDDiiiiiiiiiiiiiiiiiDDDDDDDDDDDDDDDD                SSSSSSSSDDDDDDDDiiiiiiiiiiiiiiiiiDDDDDDDDDDDDDDDD                SSSSSSSSSSSDDDDiiiiiiiiiiiiiiiiiiiDDDDDDDDDDDDDDD                SSSSSSSSSSSSSDDiiiiiiiiiiiiiiiiiiiDDDDDDDDDDDDDDD               MMSSSSSSSSSSSSSSiiiiiiiiiiiiiiiiiiiDDDDDDDDDDDDDDDD              MMMMSSSSSSSSSSSSiiiiiiiiiiiiiiiiiiiDDDDDDDDDDDDDDDD              MMMMMMMSSSSSSSSSiiiiiiiiiiiiiiiiiiiDDDDDDDDDDDDDDDD               MMMMMMMMSSSSSSSiiiiiiiiiiiiiiiiiiiDDDDDDDDDDDDDDD                MMMMMMMMMMSSSSSiiiiiiiiiiiiiiiiiiiDDDDDDDDDDDDDDD        
        SSSSSDDDDDDDDDDiiiiiiiiiiiiiiiiiiiDDDDDDDDDDDDDDD                SSSSSSSDDDDDDDDiiiiiiiiiiiiiiiiiiiDDDDDDDDDDDDDDD               SSSSSSSSSSSDDDDDiiiiiiiiiiiiiiiiiiiDDDDDDDDDDDDDDDD              SSSSSSSSSSSSSDDiiiiiiiiiiiiiiiiiiiiiDDDDDDDDDDDDDDD              MSSSSSSSSSSSSSSiiiiiiiiiiiiiiiiiiiiiDDDDDDDDDDDDDDD              MMMSSSSSSSSSSSSiiiiiiiiiiiiiiiiiiiiiDDDDDDDDDDDDDDD              MMMMMSSSSSSSSSSiiiiiiiiiiiiiiiiiiiiiDDDDDDDDDDDDDDD              MMMMMMMMSSSSSSSiiiiiiiiiiiiiiiiiiiiiDDDDDDDDDDDDDDD              MMMMMMMMMMSSSSSSiiiiiiiiiiiiiiiiiiiDDDDDDDDDDDDDDDD       
       SSSSSDDDDDDDDDDDiiiiiiiiiiiiiiiiiiiDDDDDDDDDDDDDDDD              SSSSSSSDDDDDDDDiiiiiiiiiiiiiiiiiiiiiDDDDDDDDDDDDDDD              SSSSSSSSSDDDDDDiiiiiiiiiiiiiiiiiiiiiDDDDDDDDDDDDDDD              SSSSSSSSSSSSDDDiiiiiiiiiiiiiiiiiiiiiDDDDDDDDDDDDDDD              SSSSSSSSSSSSSSDiiiiiiiiiiiiiiiiiiiiiDDDDDDDDDDDDDDD              MMSSSSSSSSSSSSSiiiiiiiiiiiiiiiiiiiiiDDDDDDDDDDDDDDD              MMMMSSSSSSSSSSSiiiiiiiiiiiiiiiiiiiiiDDDDDDDDDDDDDDD              MMMMMMMSSSSSSSSiiiiiiiiiiiiiiiiiiiiiDDDDDDDDDDDDDDD              MMMMMMMMMSSSSSSiiiiiiiiiiiiiiiiiiiiiDDDDDDDDDDDDDDD       
       SSSDDDDDDDDDDDDiiiiiiiiiiiiiiiiiiiiiDDDDDDDDDDDDDDD              SSSSSSDDDDDDDDDiiiiiiiiiiiiiiiiiiiiiDDDDDDDDDDDDDDD              SSSSSSSSDDDDDDDiiiiiiiiiiiiiiiiiiiiiDDDDDDDDDDDDDDD              SSSSSSSSSSSDDDiiiiiiiiiiiiiiiiiiiiiiiDDDDDDDDDDDDDD              SSSSSSSSSSSSSDiiiiiiiiiiiiiiiiiiiiiiiDDDDDDDDDDDDDD              MSSSSSSSSSSSSSiiiiiiiiiiiiiiiiiiiiiiiDDDDDDDDDDDDDD              MMMSSSSSSSSSSSiiiiiiiiiiiiiiiiiiiiiiiDDDDDDDDDDDDDD              MMMMMSSSSSSSSSiiiiiiiiiiiiiiiiiiiiiiiDDDDDDDDDDDDDD              MMMMMMMMSSSSSSSiiiiiiiiiiiiiiiiiiiiiDDDDDDDDDDDDDDD       
       SSDDDDDDDDDDDDDiiiiiiiiiiiiiiiiiiiiiDDDDDDDDDDDDDDD              SSSSSDDDDDDDDDDiiiiiiiiiiiiiiiiiiiiiDDDDDDDDDDDDDDD              SSSSSSSDDDDDDDiiiiiiiiiiiiiiiiiiiiiiiDDDDDDDDDDDDDD              SSSSSSSSSDDDDDiiiiiiiiiiiiiiiiiiiiiiiDDDDDDDDDDDDDD              SSSSSSSSSSSSDDiiiiiiiiiiiiiiiiiiiiiiiDDDDDDDDDDDDDD              SSSSSSSSSSSSSSiiiiiiiiiiiiiiiiiiiiiiiDDDDDDDDDDDDDD              MMSSSSSSSSSSSSiiiiiiiiiiiiiiiiiiiiiiiDDDDDDDDDDDDDD              MMMMSSSSSSSSSSiiiiiiiiiiiiiiiiiiiiiiiDDDDDDDDDDDDDD              MMMMMMMSSSSSSSiiiiiiiiiiiiiiiiiiiiiiiDDDDDDDDDDDDDD       
       SDDDDDDDDDDDDDDiiiiiiiiiiiiiiiiiiiiiDDDDDDDDDDDDDDD              SSSDDDDDDDDDDDiiiiiiiiiiiiiiiiiiiiiiiDDDDDDDDDDDDDD              SSSSSSDDDDDDDDiiiiiiiiiiiiiiiiiiiiiiiDDDDDDDDDDDDDD              SSSSSSSSDDDDDDiiiiiiiiiiiiiiiiiiiiiiiDDDDDDDDDDDDDD              SSSSSSSSSSSDDDiiiiiiiiiiiiiiiiiiiiiiiDDDDDDDDDDDDDD              SSSSSSSSSSSSSDiiiiiiiiiiiiiiiiiiiiiiiDDDDDDDDDDDDDD              MSSSSSSSSSSSSSiiiiiiiiiiiiiiiiiiiiiiiDDDDDDDDDDDDDD              MMMSSSSSSSSSSSiiiiiiiiiiiiiiiiiiiiiiiDDDDDDDDDDDDDD              MMMMMSSSSSSSSSiiiiiiiiiiiiiiiiiiiiiiiDDDDDDDDDDDDDD       
       DDDDDDDDDDDDDDDiiiiiiiiiiiiiiiiiiiiiDDDDDDDDDDDDDDD              SSDDDDDDDDDDDDiiiiiiiiiiiiiiiiiiiiiiiDDDDDDDDDDDDDD              SSSSSDDDDDDDDDiiiiiiiiiiiiiiiiiiiiiiiDDDDDDDDDDDDDD              SSSSSSSDDDDDDDiiiiiiiiiiiiiiiiiiiiiiiDDDDDDDDDDDDDD              SSSSSSSSSDDDDDiiiiiiiiiiiiiiiiiiiiiiiDDDDDDDDDDDDDD              SSSSSSSSSSSSDDiiiiiiiiiiiiiiiiiiiiiiiDDDDDDDDDDDDDD              SSSSSSSSSSSSSSiiiiiiiiiiiiiiiiiiiiiiiDDDDDDDDDDDDDD              MMSSSSSSSSSSSSiiiiiiiiiiiiiiiiiiiiiiiDDDDDDDDDDDDDD              MMMMSSSSSSSSSSiiiiiiiiiiiiiiiiiiiiiiiDDDDDDDDDDDDDD       
       DDDDDDDDDDDDDDDiiiiiiiiiiiiiiiiiiiiiDDDDDDDDDDDDDDD              SDDDDDDDDDDDDDiiiiiiiiiiiiiiiiiiiiiiiDDDDDDDDDDDDDD              SSSDDDDDDDDDDDiiiiiiiiiiiiiiiiiiiiiiiDDDDDDDDDDDDDD              SSSSSSDDDDDDDDiiiiiiiiiiiiiiiiiiiiiiiDDDDDDDDDDDDDD              SSSSSSSSDDDDDDiiiiiiiiiiiiiiiiiiiiiiiDDDDDDDDDDDDDD             SSSSSSSSSSSSDDiiiiiiiiiiiiiiiiiiiiiiiiiDDDDDDDDDDDDDD             SSSSSSSSSSSSSDiiiiiiiiiiiiiiiiiiiiiiiDDDDDDDDDDDDDD              MSSSSSSSSSSSSSiiiiiiiiiiiiiiiiiiiiiiiDDDDDDDDDDDDDD              MMMSSSSSSSSSSSiiiiiiiiiiiiiiiiiiiiiiiDDDDDDDDDDDDDD       
       DDDDDDDDDDDDDDDiiiiiiiiiiiiiiiiiiiiiDDDDDDDDDDDDDDD              DDDDDDDDDDDDDDiiiiiiiiiiiiiiiiiiiiiiiDDDDDDDDDDDDDD              SSDDDDDDDDDDDDiiiiiiiiiiiiiiiiiiiiiiiDDDDDDDDDDDDDD              SSSSSDDDDDDDDDiiiiiiiiiiiiiiiiiiiiiiiDDDDDDDDDDDDDD              SSSSSSSDDDDDDDiiiiiiiiiiiiiiiiiiiiiiiDDDDDDDDDDDDDD              SSSSSSSSSDDDDDiiiiiiiiiiiiiiiiiiiiiiiDDDDDDDDDDDDDD              SSSSSSSSSSSSDDiiiiiiiiiiiiiiiiiiiiiiiDDDDDDDDDDDDDD              SSSSSSSSSSSSSSiiiiiiiiiiiiiiiiiiiiiiiDDDDDDDDDDDDDD              MMSSSSSSSSSSSSiiiiiiiiiiiiiiiiiiiiiiiDDDDDDDDDDDDDD       
       DDDDDDDDDDDDDDDiiiiiiiiiiiiiiiiiiiiiDDDDDDDDDDDDDDD              DDDDDDDDDDDDDDiiiiiiiiiiiiiiiiiiiiiiiDDDDDDDDDDDDDD              SDDDDDDDDDDDDDiiiiiiiiiiiiiiiiiiiiiiiDDDDDDDDDDDDDD              SSSDDDDDDDDDDDiiiiiiiiiiiiiiiiiiiiiiiDDDDDDDDDDDDDD              SSSSSSDDDDDDDDiiiiiiiiiiiiiiiiiiiiiiiDDDDDDDDDDDDDD              SSSSSSSSDDDDDDiiiiiiiiiiiiiiiiiiiiiiiDDDDDDDDDDDDDD              SSSSSSSSSSSDDDiiiiiiiiiiiiiiiiiiiiiiiDDDDDDDDDDDDDD              SSSSSSSSSSSSSDiiiiiiiiiiiiiiiiiiiiiiiDDDDDDDDDDDDDD              MSSSSSSSSSSSSSiiiiiiiiiiiiiiiiiiiiiiiDDDDDDDDDDDDDD       
       DDDDDDDDDDDDDDDiiiiiiiiiiiiiiiiiiiiiDDDDDDDDDDDDDDD              DDDDDDDDDDDDDDDiiiiiiiiiiiiiiiiiiiiiDDDDDDDDDDDDDDD              DDDDDDDDDDDDDDiiiiiiiiiiiiiiiiiiiiiiiDDDDDDDDDDDDDD              SSDDDDDDDDDDDDiiiiiiiiiiiiiiiiiiiiiiiDDDDDDDDDDDDDD              SSSSSDDDDDDDDDiiiiiiiiiiiiiiiiiiiiiiiDDDDDDDDDDDDDD              SSSSSSSDDDDDDDiiiiiiiiiiiiiiiiiiiiiiiDDDDDDDDDDDDDD              SSSSSSSSSDDDDDiiiiiiiiiiiiiiiiiiiiiiiDDDDDDDDDDDDDD              SSSSSSSSSSSSDDiiiiiiiiiiiiiiiiiiiiiiiDDDDDDDDDDDDDD              SSSSSSSSSSSSSSiiiiiiiiiiiiiiiiiiiiiiiDDDDDDDDDDDDDD       
       DDDDDDDDDDDDDDDiiiiiiiiiiiiiiiiiiiiiDDDDDDDDDDDDDDD              DDDDDDDDDDDDDDDiiiiiiiiiiiiiiiiiiiiiDDDDDDDDDDDDDDD              DDDDDDDDDDDDDDDiiiiiiiiiiiiiiiiiiiiiDDDDDDDDDDDDDDD              SDDDDDDDDDDDDDiiiiiiiiiiiiiiiiiiiiiiiDDDDDDDDDDDDDD              SSSDDDDDDDDDDDiiiiiiiiiiiiiiiiiiiiiiiDDDDDDDDDDDDDD              SSSSSSDDDDDDDDiiiiiiiiiiiiiiiiiiiiiiiDDDDDDDDDDDDDD              SSSSSSSSDDDDDDiiiiiiiiiiiiiiiiiiiiiiiDDDDDDDDDDDDDD              SSSSSSSSSSSDDDiiiiiiiiiiiiiiiiiiiiiiiDDDDDDDDDDDDDD              SSSSSSSSSSSSSDDiiiiiiiiiiiiiiiiiiiiiDDDDDDDDDDDDDDD       
       DDDDDDDDDDDDDDDDiiiiiiiiiiiiiiiiiiiDDDDDDDDDDDDDDDD              DDDDDDDDDDDDDDDiiiiiiiiiiiiiiiiiiiiiDDDDDDDDDDDDDDD              DDDDDDDDDDDDDDDiiiiiiiiiiiiiiiiiiiiiDDDDDDDDDDDDDDD              DDDDDDDDDDDDDDDiiiiiiiiiiiiiiiiiiiiiDDDDDDDDDDDDDDD              SSDDDDDDDDDDDDDiiiiiiiiiiiiiiiiiiiiiDDDDDDDDDDDDDDD              SSSSSDDDDDDDDDDiiiiiiiiiiiiiiiiiiiiiDDDDDDDDDDDDDDD              SSSSSSSDDDDDDDDiiiiiiiiiiiiiiiiiiiiiDDDDDDDDDDDDDDD              SSSSSSSSSDDDDDDiiiiiiiiiiiiiiiiiiiiiDDDDDDDDDDDDDDD              SSSSSSSSSSSSDDDiiiiiiiiiiiiiiiiiiiiiDDDDDDDDDDDDDDD       
        DDDDDDDDDDDDDDDiiiiiiiiiiiiiiiiiiiDDDDDDDDDDDDDDD                DDDDDDDDDDDDDDDiiiiiiiiiiiiiiiiiiiDDDDDDDDDDDDDDD               DDDDDDDDDDDDDDDDiiiiiiiiiiiiiiiiiiiDDDDDDDDDDDDDDDD              DDDDDDDDDDDDDDDiiiiiiiiiiiiiiiiiiiiiDDDDDDDDDDDDDDD              SDDDDDDDDDDDDDDiiiiiiiiiiiiiiiiiiiiiDDDDDDDDDDDDDDD              SSSDDDDDDDDDDDDiiiiiiiiiiiiiiiiiiiiiDDDDDDDDDDDDDDD              SSSSSSDDDDDDDDDiiiiiiiiiiiiiiiiiiiiiDDDDDDDDDDDDDDD              SSSSSSSSDDDDDDDiiiiiiiiiiiiiiiiiiiiiDDDDDDDDDDDDDDD              SSSSSSSSSSSDDDDDiiiiiiiiiiiiiiiiiiiDDDDDDDDDDDDDDDD       
        DDDDDDDDDDDDDDDDiiiiiiiiiiiiiiiiiDDDDDDDDDDDDDDDD                DDDDDDDDDDDDDDDDiiiiiiiiiiiiiiiiiDDDDDDDDDDDDDDDD                DDDDDDDDDDDDDDDiiiiiiiiiiiiiiiiiiiDDDDDDDDDDDDDDD                DDDDDDDDDDDDDDDiiiiiiiiiiiiiiiiiiiDDDDDDDDDDDDDDD               DDDDDDDDDDDDDDDDiiiiiiiiiiiiiiiiiiiDDDDDDDDDDDDDDDD              SSDDDDDDDDDDDDDDiiiiiiiiiiiiiiiiiiiDDDDDDDDDDDDDDDD              SSSSSDDDDDDDDDDDiiiiiiiiiiiiiiiiiiiDDDDDDDDDDDDDDDD               SSSSSSDDDDDDDDDiiiiiiiiiiiiiiiiiiiDDDDDDDDDDDDDDD                SSSSSSSSDDDDDDDiiiiiiiiiiiiiiiiiiiDDDDDDDDDDDDDDD        
        DDDDDDDDDDDDDDDDDiiiiiiiiiiiiiiiDDDDDDDDDDDDDDDDD                DDDDDDDDDDDDDDDDiiiiiiiiiiiiiiiiiDDDDDDDDDDDDDDDD                DDDDDDDDDDDDDDDDiiiiiiiiiiiiiiiiiDDDDDDDDDDDDDDDD                DDDDDDDDDDDDDDDDiiiiiiiiiiiiiiiiiDDDDDDDDDDDDDDDD                DDDDDDDDDDDDDDDDiiiiiiiiiiiiiiiiiDDDDDDDDDDDDDDDD                DDDDDDDDDDDDDDDDiiiiiiiiiiiiiiiiiDDDDDDDDDDDDDDDD                SSDDDDDDDDDDDDDDiiiiiiiiiiiiiiiiiDDDDDDDDDDDDDDDD                SSSSSDDDDDDDDDDDiiiiiiiiiiiiiiiiiDDDDDDDDDDDDDDDD                SSSSSSSDDDDDDDDDiiiiiiiiiiiiiiiiiDDDDDDDDDDDDDDDD        
         DDDDDDDDDDDDDDDDDiiiiiiiiiiiiiDDDDDDDDDDDDDDDDD                 DDDDDDDDDDDDDDDDDDiiiiiiiiiiiiiDDDDDDDDDDDDDDDDDD                DDDDDDDDDDDDDDDDDiiiiiiiiiiiiiiiDDDDDDDDDDDDDDDDD                DDDDDDDDDDDDDDDDDiiiiiiiiiiiiiiiDDDDDDDDDDDDDDDDD                DDDDDDDDDDDDDDDDDiiiiiiiiiiiiiiiDDDDDDDDDDDDDDDDD                DDDDDDDDDDDDDDDDDiiiiiiiiiiiiiiiDDDDDDDDDDDDDDDDD                SDDDDDDDDDDDDDDDDiiiiiiiiiiiiiiiDDDDDDDDDDDDDDDDD                SSSSDDDDDDDDDDDDDiiiiiiiiiiiiiiiDDDDDDDDDDDDDDDDD                SSSSSSDDDDDDDDDDDiiiiiiiiiiiiiiiDDDDDDDDDDDDDDDDD        
         DDDDDDDDDDDDDDDDDDDiiiiiiiiiDDDDDDDDDDDDDDDDDDD                  DDDDDDDDDDDDDDDDDDiiiiiiiiiiiDDDDDDDDDDDDDDDDDD                  DDDDDDDDDDDDDDDDDDiiiiiiiiiiiDDDDDDDDDDDDDDDDDD                  DDDDDDDDDDDDDDDDDiiiiiiiiiiiiiDDDDDDDDDDDDDDDDD                  DDDDDDDDDDDDDDDDDiiiiiiiiiiiiiDDDDDDDDDDDDDDDDD                 DDDDDDDDDDDDDDDDDDiiiiiiiiiiiiiDDDDDDDDDDDDDDDDDD                 DDDDDDDDDDDDDDDDDiiiiiiiiiiiiiDDDDDDDDDDDDDDDDD                  SDDDDDDDDDDDDDDDDiiiiiiiiiiiiiDDDDDDDDDDDDDDDDD                  SSSSDDDDDDDDDDDDDDiiiiiiiiiiiDDDDDDDDDDDDDDDDDD         
         DDDDDDDDDDDDDDDDDDDDDDDDDDDDDDDDDDDDDDDDDDDDDDD                  DDDDDDDDDDDDDDDDDDDDDiiiiiDDDDDDDDDDDDDDDDDDDDD                  DDDDDDDDDDDDDDDDDDDDiiiiiiiDDDDDDDDDDDDDDDDDDDD                  DDDDDDDDDDDDDDDDDDDiiiiiiiiiDDDDDDDDDDDDDDDDDDD                  DDDDDDDDDDDDDDDDDDDiiiiiiiiiDDDDDDDDDDDDDDDDDDD                  DDDDDDDDDDDDDDDDDDDiiiiiiiiiDDDDDDDDDDDDDDDDDDD                  DDDDDDDDDDDDDDDDDDDiiiiiiiiiDDDDDDDDDDDDDDDDDDD                  DDDDDDDDDDDDDDDDDDDiiiiiiiiiDDDDDDDDDDDDDDDDDDD                  SSSDDDDDDDDDDDDDDDDDiiiiiiiDDDDDDDDDDDDDDDDDDDD         
          DDDDDDDDDDDDDDDDDDDDDDDDDDDDDDDDDDDDDDDDDDDDD                    DDDDDDDDDDDDDDDDDDDDDDDDDDDDDDDDDDDDDDDDDDDDD                    DDDDDDDDDDDDDDDDDDDDDDDDDDDDDDDDDDDDDDDDDDDDD                    DDDDDDDDDDDDDDDDDDDDDDDDDDDDDDDDDDDDDDDDDDDDD                   DDDDDDDDDDDDDDDDDDDDDDDDDDDDDDDDDDDDDDDDDDDDDDD                  DDDDDDDDDDDDDDDDDDDDDDDiDDDDDDDDDDDDDDDDDDDDDDD                  DDDDDDDDDDDDDDDDDDDDDDDDDDDDDDDDDDDDDDDDDDDDDDD                   DDDDDDDDDDDDDDDDDDDDDDDDDDDDDDDDDDDDDDDDDDDDD                    DDDDDDDDDDDDDDDDDDDDDDDDDDDDDDDDDDDDDDDDDDDDD          
           DDDDDDDDDDDDDDDDDDDDDDDDDDDDDDDDDDDDDDDDDDD                     DDDDDDDDDDDDDDDDDDDDDDDDDDDDDDDDDDDDDDDDDDDDD                    DDDDDDDDDDDDDDDDDDDDDDDDDDDDDDDDDDDDDDDDDDDDD                    DDDDDDDDDDDDDDDDDDDDDDDDDDDDDDDDDDDDDDDDDDDDD                    DDDDDDDDDDDDDDDDDDDDDDDDDDDDDDDDDDDDDDDDDDDDD                    DDDDDDDDDDDDDDDDDDDDDDDDDDDDDDDDDDDDDDDDDDDDD                    DDDDDDDDDDDDDDDDDDDDDDDDDDDDDDDDDDDDDDDDDDDDD                    DDDDDDDDDDDDDDDDDDDDDDDDDDDDDDDDDDDDDDDDDDDDD                    DDDDDDDDDDDDDDDDDDDDDDDDDDDDDDDDDDDDDDDDDDDDD          
           DDDDDDDDDDDDDDDDDDDDDDDDDDDDDDDDDDDDDDDDDDD                      DDDDDDDDDDDDDDDDDDDDDDDDDDDDDDDDDDDDDDDDDDD                      DDDDDDDDDDDDDDDDDDDDDDDDDDDDDDDDDDDDDDDDDDD                      DDDDDDDDDDDDDDDDDDDDDDDDDDDDDDDDDDDDDDDDDDD                      DDDDDDDDDDDDDDDDDDDDDDDDDDDDDDDDDDDDDDDDDDD                      DDDDDDDDDDDDDDDDDDDDDDDDDDDDDDDDDDDDDDDDDDD                      DDDDDDDDDDDDDDDDDDDDDDDDDDDDDDDDDDDDDDDDDDD                      DDDDDDDDDDDDDDDDDDDDDDDDDDDDDDDDDDDDDDDDDDD                      DDDDDDDDDDDDDDDDDDDDDDDDDDDDDDDDDDDDDDDDDDD           
            DDDDDDDDDDDDDDDDDDDDDDDDDDDDDDDDDDDDDDDDD                        DDDDDDDDDDDDDDDDDDDDDDDDDDDDDDDDDDDDDDDDD                       DDDDDDDDDDDDDDDDDDDDDDDDDDDDDDDDDDDDDDDDDDD                      DDDDDDDDDDDDDDDDDDDDDDDDDDDDDDDDDDDDDDDDDDD                      DDDDDDDDDDDDDDDDDDDDDDDDDDDDDDDDDDDDDDDDDDD                      DDDDDDDDDDDDDDDDDDDDDDDDDDDDDDDDDDDDDDDDDDD                      DDDDDDDDDDDDDDDDDDDDDDDDDDDDDDDDDDDDDDDDDDD                      DDDDDDDDDDDDDDDDDDDDDDDDDDDDDDDDDDDDDDDDDDD                      DDDDDDDDDDDDDDDDDDDDDDDDDDDDDDDDDDDDDDDDDDD           
             DDDDDDDDDDDDDDDDDDDDDDDDDDDDDDDDDDDDDDD                         DDDDDDDDDDDDDDDDDDDDDDDDDDDDDDDDDDDDDDDDD                        DDDDDDDDDDDDDDDDDDDDDDDDDDDDDDDDDDDDDDDDD                        DDDDDDDDDDDDDDDDDDDDDDDDDDDDDDDDDDDDDDDDD                        DDDDDDDDDDDDDDDDDDDDDDDDDDDDDDDDDDDDDDDDD                        DDDDDDDDDDDDDDDDDDDDDDDDDDDDDDDDDDDDDDDDD                        DDDDDDDDDDDDDDDDDDDDDDDDDDDDDDDDDDDDDDDDD                        DDDDDDDDDDDDDDDDDDDDDDDDDDDDDDDDDDDDDDDDD                        DDDDDDDDDDDDDDDDDDDDDDDDDDDDDDDDDDDDDDDDD            
             DDDDDDDDDDDDDDDDDDDDDDDDDDDDDDDDDDDDDDD                          DDDDDDDDDDDDDDDDDDDDDDDDDDDDDDDDDDDDDDD                          DDDDDDDDDDDDDDDDDDDDDDDDDDDDDDDDDDDDDDD                          DDDDDDDDDDDDDDDDDDDDDDDDDDDDDDDDDDDDDDD                          DDDDDDDDDDDDDDDDDDDDDDDDDDDDDDDDDDDDDDD                          DDDDDDDDDDDDDDDDDDDDDDDDDDDDDDDDDDDDDDD                          DDDDDDDDDDDDDDDDDDDDDDDDDDDDDDDDDDDDDDD                          DDDDDDDDDDDDDDDDDDDDDDDDDDDDDDDDDDDDDDD                          DDDDDDDDDDDDDDDDDDDDDDDDDDDDDDDDDDDDDDD             
              DDDDDDDDDDDDDDDDDDDDDDDDDDDDDDDDDDDDD                            DDDDDDDDDDDDDDDDDDDDDDDDDDDDDDDDDDDDD                            DDDDDDDDDDDDDDDDDDDDDDDDDDDDDDDDDDDDD                            DDDDDDDDDDDDDDDDDDDDDDDDDDDDDDDDDDDDD                            DDDDDDDDDDDDDDDDDDDDDDDDDDDDDDDDDDDDD                            DDDDDDDDDDDDDDDDDDDDDDDDDDDDDDDDDDDDD                            DDDDDDDDDDDDDDDDDDDDDDDDDDDDDDDDDDDDD                            DDDDDDDDDDDDDDDDDDDDDDDDDDDDDDDDDDDDD                            DDDDDDDDDDDDDDDDDDDDDDDDDDDDDDDDDDDDD              
               DDDDDDDDDDDDDDDDDDDDDDDDDDDDDDDDDDD                              DDDDDDDDDDDDDDDDDDDDDDDDDDDDDDDDDDD                              DDDDDDDDDDDDDDDDDDDDDDDDDDDDDDDDDDD                              DDDDDDDDDDDDDDDDDDDDDDDDDDDDDDDDDDD                              DDDDDDDDDDDDDDDDDDDDDDDDDDDDDDDDDDD                              DDDDDDDDDDDDDDDDDDDDDDDDDDDDDDDDDDD                              DDDDDDDDDDDDDDDDDDDDDDDDDDDDDDDDDDD                              DDDDDDDDDDDDDDDDDDDDDDDDDDDDDDDDDDD                              DDDDDDDDDDDDDDDDDDDDDDDDDDDDDDDDDDD               
                 DDDDDDDDDDDDDDDDDDDDDDDDDDDDDDD                                 DDDDDDDDDDDDDDDDDDDDDDDDDDDDDDDDD                                DDDDDDDDDDDDDDDDDDDDDDDDDDDDDDDDD                                DDDDDDDDDDDDDDDDDDDDDDDDDDDDDDDDD                                DDDDDDDDDDDDDDDDDDDDDDDDDDDDDDDDD                                DDDDDDDDDDDDDDDDDDDDDDDDDDDDDDDDD                                DDDDDDDDDDDDDDDDDDDDDDDDDDDDDDDDD                                DDDDDDDDDDDDDDDDDDDDDDDDDDDDDDDDD                                DDDDDDDDDDDDDDDDDDDDDDDDDDDDDDDDD                
                  DDDDDDDDDDDDDDDDDDDDDDDDDDDDD                                    DDDDDDDDDDDDDDDDDDDDDDDDDDDDD                                   DDDDDDDDDDDDDDDDDDDDDDDDDDDDDDD                                  DDDDDDDDDDDDDDDDDDDDDDDDDDDDDDD                                  DDDDDDDDDDDDDDDDDDDDDDDDDDDDDDD                                  DDDDDDDDDDDDDDDDDDDDDDDDDDDDDDD                                  DDDDDDDDDDDDDDDDDDDDDDDDDDDDDDD                                  DDDDDDDDDDDDDDDDDDDDDDDDDDDDDDD                                  DDDDDDDDDDDDDDDDDDDDDDDDDDDDDDD                 
                    DDDDDDDDDDDDDDDDDDDDDDDDD                                       DDDDDDDDDDDDDDDDDDDDDDDDDDD                                      DDDDDDDDDDDDDDDDDDDDDDDDDDD                                      DDDDDDDDDDDDDDDDDDDDDDDDDDD                                      DDDDDDDDDDDDDDDDDDDDDDDDDDD                                      DDDDDDDDDDDDDDDDDDDDDDDDDDD                                      DDDDDDDDDDDDDDDDDDDDDDDDDDD                                      DDDDDDDDDDDDDDDDDDDDDDDDDDD                                      DDDDDDDDDDDDDDDDDDDDDDDDDDD                   
                     DDDDDDDDDDDDDDDDDDDDDDD                                          DDDDDDDDDDDDDDDDDDDDDDD                                          DDDDDDDDDDDDDDDDDDDDDDD                                          DDDDDDDDDDDDDDDDDDDDDDD                                         DDDDDDDDDDDDDDDDDDDDDDDDD                                        DDDDDDDDDDDDDDDDDDDDDDDDD                                        DDDDDDDDDDDDDDDDDDDDDDDDD                                         DDDDDDDDDDDDDDDDDDDDDDD                                          DDDDDDDDDDDDDDDDDDDDDDD                     
                        DDDDDDDDDDDDDDDDD                                               DDDDDDDDDDDDDDDDDDD                                              DDDDDDDDDDDDDDDDDDD                                              DDDDDDDDDDDDDDDDDDD                                              DDDDDDDDDDDDDDDDDDD                                             DDDDDDDDDDDDDDDDDDDDD                                             DDDDDDDDDDDDDDDDDDD                                              DDDDDDDDDDDDDDDDDDD                                              DDDDDDDDDDDDDDDDDDD                       
                           DDDDDDDDDDD                                                      DDDDDDDDDDD                                                     DDDDDDDDDDDDD                                                    DDDDDDDDDDDDD                                                   DDDDDDDDDDDDDDD                                                  DDDDDDDDDDDDDDD                                                  DDDDDDDDDDDDDDD                                                   DDDDDDDDDDDDD                                                    DDDDDDDDDDDDD                          
                                                                                                                                                                                                                                                                                                                                                                     D                                                                                                                                                                                                                                   
                                                                                                                                                                                                                                                                                                                                                                                                                                                                                                                                                                                                         
                                                                                                                                                                                                                                                                                                                                                                                                                                                                                                                                                                                                         
cabbcabbaabbabbaabcaabcabbabbcabbaabbaabaabcaabcabbcbbcabbaabbaabbabbabaabbabaabbabacbbabacbbabacbbabacbbabacbaabacbaabacbacbacbacaaaaaaaaabbbbbbbbbaaaaaaaabbbbbbbbbccccaaaaaaaaabbbbbbbbbccccaaaababcbcabababcbbababcbbabababbabababbabababbabababaabababaabababaabaccbaaacbbaaabbbaccbbaaabbbaacbbaacbbaaabbbaaccbaaacbbaacbbbaccbaaabbaabbccaabbcaabbaabbcaabbccaabbaabbcaabbcaabbcaabbbaabbcaabbcbacaabababbcbabbcbabacbabacbababbcbabacbabacaababacbabacbabacaabaaaaaaaaaccacccbcbbbbbbbbbbbbbaabaaaaaaaaaacaaccbccbbcbbbbbbbbbbabcabaabaabaababbabcabcabcababcabcabcababcabcabcabaababbabbabbabcab
                                                                                                                                                                                                                                                                                                                                                                                                                                                                                                                                                                                                         
                                                                                                                                                                                                                                                                                                                                                                                                                                                                                                                                                                                                         
                                                                                                                                                                                                                                                                                                                                                                                                                                                                                                                                                                                                         
                                                                                                                                                                                                                                                                                                                                                                                                                                                                                                                                                                                                         
                                                                                                                                                                                                                                                                                                                                                                                                                                                                                                                                                                                                         
                                                                                                                                                                                                                                                                                                                                                                                                                                                                                                                                                                                                         
                                                                                                                                                                                                                                                                                                                                                                                                                                                                                                                                                                                                         
                                                                                                                                                                                                                                                                                                                                                                                                                                                                                                                                                                                                         
                                                                                                                                                                                                                                                                                                                                                                                                                                                                                                                                                                                                         
                                                                                                                                                                                                                                                                                                                                                                                                                                                                                                                                                                                                         
                           LMMMMMMMMMM                                                      LLLMMMMMMMM                                                        LLLMMMM                                                            LLL                                                                                                                                                                                                                                                                                                                                                                    
                       LLLMMMMMMMMMMMMMMMS                                               LLLLLMMMMMMMMMMMM                                                LLLLLLLMMMMMMMMMM                                                 LLLLLLLLLMMMMMM                                                   LLLLLLLLLLMMM                                                      LLLLLLLLL                                                            L                                                                                                                                                                  
                     LLLLMMMMMMMMMMMMMMMSSSS                                          LLLLLLLMMMMMMMMMMMMMMSS                                           LLLLLLLLMMMMMMMMMMMMM                                             LLLLLLLLLMMMMMMMMMM                                              LLLLLLLLLLLLMMMMMMM                                               LLLLLLLLLLLLLMMMM                                                  LLLLLLLLLLLLL                                                     LLLLLLLLLLL                                                          LLL                               
                   LLLLLMMMMMMMMMMMMMMMSSSSSSS                                       LLLLLLMMMMMMMMMMMMMMMSSSS                                        LLLLLLLLLMMMMMMMMMMMMMMMS                                         LLLLLLLLLLMMMMMMMMMMMMM                                          LLLLLLLLLLLLLMMMMMMMMMM                                           LLLLLLLLLLLLLLMMMMMMM                                             LLLLLLLLLLLLLLLMMMM                                               HHLLLLLLLLLLLLLLL                                                  HHLLLLLLLLLLL                          
                  LLLLLMMMMMMMMMMMMMMMSSSSSSSSS                                    LLLLLLLMMMMMMMMMMMMMMMSSSSSSS                                    LLLLLLLLLLMMMMMMMMMMMMMMSSSSS                                     LLLLLLLLLLLMMMMMMMMMMMMMMMS                                      LLLLLLLLLLLLLMMMMMMMMMMMMMM                                       LLLLLLLLLLLLLLLMMMMMMMMMM                                         HLLLLLLLLLLLLLLLMMMMMMM                                           HHHLLLLLLLLLLLLLLLMMM                                             HHHHLLLLLLLLLLLLLLL                       
                LLLLLLMMMMMMMMMMMMMMSSSSSSSSSSSSS                                 LLLLLLLMMMMMMMMMMMMMMMSSSSSSSSS                                  LLLLLLLLLMMMMMMMMMMMMMMMSSSSSSS                                  LLLLLLLLLLLLMMMMMMMMMMMMMMMSSSS                                   LLLLLLLLLLLLLMMMMMMMMMMMMMMMS                                     LLLLLLLLLLLLLLLMMMMMMMMMMMM                                      HHLLLLLLLLLLLLLLLMMMMMMMMMM                                       HHHLLLLLLLLLLLLLLLMMMMMMM                                         HHHHHLLLLLLLLLLLLLLLMMM                     
               LLLLLMMMMMMMMMMMMMMMSSSSSSSSSSSSSSS                              LLLLLLLLMMMMMMMMMMMMMMMSSSSSSSSSSSS                               LLLLLLLLLMMMMMMMMMMMMMMMSSSSSSSSS                                LLLLLLLLLLLLMMMMMMMMMMMMMMSSSSSSS                                 LLLLLLLLLLLLLMMMMMMMMMMMMMMMSSS                                  LLLLLLLLLLLLLLLMMMMMMMMMMMMMMMS                                   HHLLLLLLLLLLLLLLLMMMMMMMMMMMM                                     HHHLLLLLLLLLLLLLLLMMMMMMMMM                                      HHHHHHLLLLLLLLLLLLLLLMMMMMM                   
              LLLLLMMMMMMMMMMMMMMMSSSSSSSSSSSSSSSDD                            LLLLLLLLMMMMMMMMMMMMMMSSSSSSSSSSSSSSS                             LLLLLLLLLMMMMMMMMMMMMMMMSSSSSSSSSSS                              LLLLLLLLLLLMMMMMMMMMMMMMMMSSSSSSSSS                               LLLLLLLLLLLLLMMMMMMMMMMMMMMMSSSSS                                LLLLLLLLLLLLLLLMMMMMMMMMMMMMMMSSS                                 HHLLLLLLLLLLLLLLLMMMMMMMMMMMMMM                                  HHHHLLLLLLLLLLLLLLLMMMMMMMMMMMM                                   HHHHHLLLLLLLLLLLLLLLMMMMMMMMM                  
             LLLLLMMMMMMMMMMMMMMMSSSSSSSSSSSSSSSDDDD                          LLLLLLLMMMMMMMMMMMMMMMSSSSSSSSSSSSSSSDD                           LLLLLLLLLMMMMMMMMMMMMMMMSSSSSSSSSSSSS                            LLLLLLLLLLLMMMMMMMMMMMMMMMSSSSSSSSSSS                             LLLLLLLLLLLLLMMMMMMMMMMMMMMSSSSSSSS                              LLLLLLLLLLLLLLLMMMMMMMMMMMMMMMSSSSS                               HLLLLLLLLLLLLLLLMMMMMMMMMMMMMMMSS                                HHHHLLLLLLLLLLLLLLLMMMMMMMMMMMMMM                                 HHHHHLLLLLLLLLLLLLLLMMMMMMMMMMM                 
            LLLLLMMMMMMMMMMMMMMMSSSSSSSSSSSSSSDDDDDDD                         LLLLLLMMMMMMMMMMMMMMMSSSSSSSSSSSSSSSDDD                          LLLLLLLLLMMMMMMMMMMMMMMSSSSSSSSSSSSSSSD                          LLLLLLLLLLLMMMMMMMMMMMMMMMSSSSSSSSSSSSS                           LLLLLLLLLLLLMMMMMMMMMMMMMMMSSSSSSSSSS                            LLLLLLLLLLLLLLLMMMMMMMMMMMMMMMSSSSSSS                             HLLLLLLLLLLLLLLLMMMMMMMMMMMMMMMSSSS                              HHHHLLLLLLLLLLLLLLLMMMMMMMMMMMMMMSS                               HHHHHLLLLLLLLLLLLLLLMMMMMMMMMMMMM                
            LLLLMMMMMMMMMMMMMMSSSSSSSSSSSSSSSDDDDDDDD                        LLLLLLMMMMMMMMMMMMMMMSSSSSSSSSSSSSSSDDDDD                        LLLLLLLLMMMMMMMMMMMMMMMSSSSSSSSSSSSSSSDDD                        LLLLLLLLLLLMMMMMMMMMMMMMMMSSSSSSSSSSSSSSD                         LLLLLLLLLLLLMMMMMMMMMMMMMMMSSSSSSSSSSSS                          LLLLLLLLLLLLLLLMMMMMMMMMMMMMMSSSSSSSSSS                           HLLLLLLLLLLLLLLLMMMMMMMMMMMMMMMSSSSSS                            HHHLLLLLLLLLLLLLLLMMMMMMMMMMMMMMMSSSS                             HHHHHLLLLLLLLLLLLLLLMMMMMMMMMMMMMMM               
           LLLMMMMMMMMMMMMMMMSSSSSSSSSSSSSSSDDDDDDDDDD                      LLLLLLMMMMMMMMMMMMMMMSSSSSSSSSSSSSSDDDDDDDD                      LLLLLLLLMMMMMMMMMMMMMMMSSSSSSSSSSSSSSSDDDDD                       LLLLLLLLLLMMMMMMMMMMMMMMSSSSSSSSSSSSSSSDD                        LLLLLLLLLLLLMMMMMMMMMMMMMMMSSSSSSSSSSSSSS                         LLLLLLLLLLLLLMMMMMMMMMMMMMMMSSSSSSSSSSS                          HLLLLLLLLLLLLLLLMMMMMMMMMMMMMMMSSSSSSSS                           HHLLLLLLLLLLLLLLLMMMMMMMMMMMMMMMSSSSS                            HHHHHLLLLLLLLLLLLLLLMMMMMMMMMMMMMMSSS              
          LLLMMMMMMMMMMMMMMMSSSSSSSSSSSSSSSDDDDDDDDDDDD                     LLLLLMMMMMMMMMMMMMMSSSSSSSSSSSSSSSDDDDDDDDD                      LLLLLLLMMMMMMMMMMMMMMMSSSSSSSSSSSSSSSDDDDDD                      LLLLLLLLLMMMMMMMMMMMMMMMSSSSSSSSSSSSSSSDDDD                      LLLLLLLLLLLLMMMMMMMMMMMMMMMSSSSSSSSSSSSSSDD                       LLLLLLLLLLLLLMMMMMMMMMMMMMMMSSSSSSSSSSSSS                        HLLLLLLLLLLLLLLLMMMMMMMMMMMMMMSSSSSSSSSSS                         HHLLLLLLLLLLLLLLLMMMMMMMMMMMMMMMSSSSSSS                          HHHHLLLLLLLLLLLLLLLMMMMMMMMMMMMMMMSSSSS             
          LLMMMMMMMMMMMMMMMSSSSSSSSSSSSSSSDDDDDDDDDDDDD                    LLLLMMMMMMMMMMMMMMMSSSSSSSSSSSSSSSDDDDDDDDDDD                    LLLLLLLMMMMMMMMMMMMMMMSSSSSSSSSSSSSSDDDDDDDDD                     LLLLLLLLMMMMMMMMMMMMMMMSSSSSSSSSSSSSSSDDDDD                      LLLLLLLLLLLMMMMMMMMMMMMMMSSSSSSSSSSSSSSSDDD                      LLLLLLLLLLLLLMMMMMMMMMMMMMMMSSSSSSSSSSSSSSS                       LLLLLLLLLLLLLLMMMMMMMMMMMMMMMSSSSSSSSSSSS                        HHLLLLLLLLLLLLLLLMMMMMMMMMMMMMMMSSSSSSSSS                         HHHLLLLLLLLLLLLLLLMMMMMMMMMMMMMMMSSSSSS             
         LLMMMMMMMMMMMMMMMSSSSjiiiiSSSSSDDDDDDDDDDDDDDDD                  LLLLMMMMMMMMMMMMMMMSSSSSSSSSSSSSSSDDDDDDDDDDDDD                   LLLLLLMMMMMMMMMMMMMMSSSSSSSSSSSSSSSDDDDDDDDDD                    LLLLLLLLMMMMMMMMMMMMMMMSSSSSSSSSSSSSSSDDDDDDD                    LLLLLLLLLLMMMMMMMMMMMMMMMSSSSSSSSSSSSSSSDDDDD                     LLLLLLLLLLLLMMMMMMMMMMMMMMMSSSSSSSSSSSSSSDD                      LLLLLLLLLLLLLLMMMMMMMMMMMMMMMSSSSSSSSSSSSSS                       HLLLLLLLLLLLLLLLMMMMMMMMMMMMMMSSSSSSSSSSS                        HHHLLLLLLLLLLLLLLLMMMMMMMMMMMMMMMSSSSSSSS            
         LMMMMMMMMMMMMMMSSSjjiiiiiiiiiSDDDDDDDDDDDDDDDDD                  LLLMMMMMMMMMMMMMMMSjjjjiiiiiSSSSSDDDDDDDDDDDDDD                  LLLLLMMMMMMMMMMMMMMMSjjjjiSSSSSSSSSDDDDDDDDDDDD                   LLLLLLLMMMMMMMMMMMMMMMSSSSSSSSSSSSSSDDDDDDDDD                    LLLLLLLLLMMMMMMMMMMMMMMMSSSSSSSSSSSSSSSDDDDDD                    LLLLLLLLLLLLMMMMMMMMMMMMMMSSSSSSSSSSSSSSSDDDD                     LLLLLLLLLLLLLMMMMMMMMMMMMMMMSSSSSSSSSSSSSSS                      LLLLLLLLLLLLLLLMMMMMMMMMMMMMMMSSSSSSSSSSSSS                       HHLLLLLLLLLLLLLLLMMMMMMMMMMMMMMMSSSSSSSSS            
        MMMMMMMMMMMMMMMSSSjjiiiiiiiiiiiDDDDDDDDDDDDDDDDDD                 LLMMMMMMMMMMMMMMMjjjjjiiiiiiiiSDDDDDDDDDDDDDDDD                  LLLLMMMMMMMMMMMMMMjjjjjjiiiiiSSSSSDDDDDDDDDDDDD                  LLLLLLLMMMMMMMMMMMMMjjjjjjiSSSSSSSSSDDDDDDDDDDD                  LLLLLLLLLMMMMMMMMMMMMMMMSSSSSSSSSSSSSSSDDDDDDDD                   LLLLLLLLLLMMMMMMMMMMMMMMMSSSSSSSSSSSSSSSDDDDD                    LLLLLLLLLLLLLMMMMMMMMMMMMMMMSSSSSSSSSSSSSSDDD                     LLLLLLLLLLLLLLMMMMMMMMMMMMMMMSSSSSSSSSSSSSS                      HHLLLLLLLLLLLLLLLMMMMMMMMMMMMMMSSSSSSSSSSSS           
        MMMMMMMMMMMMMMSSjjjiiiiiiiiiiiiiiDDDDDDDDDDDDDDDD                LLMMMMMMMMMMMMMMSjjjjiiiiiiiiiiiDDDDDDDDDDDDDDDDD                LLLLMMMMMMMMMMMMMMjjjjjjiiiiiiiSSSDDDDDDDDDDDDDDD                 LLLLLMMMMMMMMMMMMMjjjjjjjiiiiSSSSSSDDDDDDDDDDDD                  LLLLLLLLMMMMMMMMMMMjjjjjjjjjSSSSSSSSSDDDDDDDDDD                  LLLLLLLLLLMMMMMMMMMMMMMMMSSSSSSSSSSSSSSSDDDDDDD                   LLLLLLLLLLLLMMMMMMMMMMMMMMSSSSSSSSSSSSSSSDDDD                    LLLLLLLLLLLLLLMMMMMMMMMMMMMMMSSSSSSSSSSSSSSSD                     LLLLLLLLLLLLLLLMMMMMMMMMMMMMMMSSSSSSSSSSSSS           
        MMMMMMMMMMMMMSSSjjiiiiiiiiiiiiiiiDDDDDDDDDDDDDDDD                MMMMMMMMMMMMMMMSjjjjiiiiiiiiiiiiiDDDDDDDDDDDDDDDD                LLLMMMMMMMMMMMMMMjjjjjjiiiiiiiiiDDDDDDDDDDDDDDDDD                LLLLLMMMMMMMMMMMMMjjjjjjjiiiiiiSSSSDDDDDDDDDDDDDD                 LLLLLLLMMMMMMMMMMMjjjjjjjjiiiSSSSSSSDDDDDDDDDDD                  LLLLLLLLLMMMMMMMMMMMjjjjjjjSSSSSSSSSSSSDDDDDDDD                   LLLLLLLLLLMMMMMMMMMMMMMMMSSSSSSSSSSSSSSSDDDDD                    LLLLLLLLLLLLLMMMMMMMMMMMMMMMSSSSSSSSSSSSSSDDD                     LLLLLLLLLLLLLLMMMMMMMMMMMMMMMSSSSSSSSSSSSSS           
        MMMMMMMMMMMMSSSjjiiiiiiiiiiiiiiiiiDDDDDDDDDDDDDDD                MMMMMMMMMMMMMMSjjjjiiiiiiiiiiiiiiiDDDDDDDDDDDDDDD                LLMMMMMMMMMMMMMMjjjjjiiiiiiiiiiiiDDDDDDDDDDDDDDDD                LLLLMMMMMMMMMMMMMjjjjjjjiiiiiiiiSSDDDDDDDDDDDDDDD                LLLLLLMMMMMMMMMMMMjjjjjjjjiiiiiSSSSSDDDDDDDDDDDDD                 LLLLLLLLMMMMMMMMMMjjjjjjjjjjiSSSSSSSSDDDDDDDDDD                  LLLLLLLLLLMMMMMMMMMMMjjjjjSSSSSSSSSSSSSSDDDDDDD                   LLLLLLLLLLLLMMMMMMMMMMMMMMSSSSSSSSSSSSSSSDDDD                    LLLLLLLLLLLLLLMMMMMMMMMMMMMMMSSSSSSSSSSSSSSSD          
       MMMMMMMMMMMSSSSjiiiiiiiiiiiiiiiiiiiiDDDDDDDDDDDDDDD              MMMMMMMMMMMMMMSSjjjiiiiiiiiiiiiiiiiDDDDDDDDDDDDDDDD               MMMMMMMMMMMMMMMjjjjjiiiiiiiiiiiiiiDDDDDDDDDDDDDDD                LLLMMMMMMMMMMMMMjjjjjjjiiiiiiiiiiDDDDDDDDDDDDDDDD                LLLLLMMMMMMMMMMMMjjjjjjjjiiiiiiiSSSDDDDDDDDDDDDDD                 LLLLLLLMMMMMMMMMMjjjjjjjjjiiiiSSSSSSDDDDDDDDDDD                  LLLLLLLLLMMMMMMMMMMjjjjjjjjjSSSSSSSSSSSDDDDDDDD                  LLLLLLLLLLLMMMMMMMMMMMMMMMSSSSSSSSSSSSSSSDDDDDD                   LLLLLLLLLLLLLMMMMMMMMMMMMMMMSSSSSSSSSSSSSSDDD          
       MMMMMMMMMMSSSSSiiiiiiiiiiiiiiiiiiiiiDDDDDDDDDDDDDDD              MMMMMMMMMMMMMSSjjjiiiiiiiiiiiiiiiiiiDDDDDDDDDDDDDDD               MMMMMMMMMMMMMMSjjjjiiiiiiiiiiiiiiiDDDDDDDDDDDDDDD                LLMMMMMMMMMMMMMMjjjjjiiiiiiiiiiiiDDDDDDDDDDDDDDDD                LLLLMMMMMMMMMMMMjjjjjjjjiiiiiiiiiSDDDDDDDDDDDDDDD                LLLLLLMMMMMMMMMMMMjjjjjjjjiiiiiSSSSSDDDDDDDDDDDDD                 LLLLLLLLMMMMMMMMMMjjjjjjjjjjiSSSSSSSSDDDDDDDDDD                  LLLLLLLLLLMMMMMMMMMMMjjjjjSSSSSSSSSSSSSSDDDDDDD                   LLLLLLLLLLLLMMMMMMMMMMMMMMSSSSSSSSSSSSSSSDDDD          
       MMMMMMMMMSSSSSSiiiiiiiiiiiiiiiiiiiiiDDDDDDDDDDDDDDD              MMMMMMMMMMMSSSSjiiiiiiiiiiiiiiiiiiiiDDDDDDDDDDDDDDD              MMMMMMMMMMMMMMSSjjjiiiiiiiiiiiiiiiiDDDDDDDDDDDDDDDD               MMMMMMMMMMMMMMMjjjjjiiiiiiiiiiiiiiDDDDDDDDDDDDDDD                LLLMMMMMMMMMMMMMjjjjjjjiiiiiiiiiiDDDDDDDDDDDDDDDD                LLLLLMMMMMMMMMMMMjjjjjjjjiiiiiiiSSSDDDDDDDDDDDDDD                 LLLLLLLMMMMMMMMMMMjjjjjjjjiiiSSSSSSSDDDDDDDDDDD                  LLLLLLLLLMMMMMMMMMMMjjjjjjjSSSSSSSSSSSSDDDDDDDD                   LLLLLLLLLLMMMMMMMMMMMMMMMSSSSSSSSSSSSSSSDDDDD          
       MMMMMMMMSSSSSSiiiiiiiiiiiiiiiiiiiiiiiDDDDDDDDDDDDDD              MMMMMMMMMMSSSSSiiiiiiiiiiiiiiiiiiiiiDDDDDDDDDDDDDDD              MMMMMMMMMMMMMSSjjjiiiiiiiiiiiiiiiiiiDDDDDDDDDDDDDDD               MMMMMMMMMMMMMMSjjjjiiiiiiiiiiiiiiiDDDDDDDDDDDDDDD                LLMMMMMMMMMMMMMMjjjjjiiiiiiiiiiiiDDDDDDDDDDDDDDDD                LLLLMMMMMMMMMMMMMjjjjjjjiiiiiiiiSSDDDDDDDDDDDDDDD                 LLLLLMMMMMMMMMMMMjjjjjjjjiiiiiSSSSSDDDDDDDDDDDD                  LLLLLLLLMMMMMMMMMMMjjjjjjjjjSSSSSSSSSDDDDDDDDDD                   LLLLLLLLLMMMMMMMMMMMMMMMSSSSSSSSSSSSSSSDDDDDD          
       MMMMMMMSSSSSSSiiiiiiiiiiiiiiiiiiiiiiiDDDDDDDDDDDDDD              MMMMMMMMMSSSSSSiiiiiiiiiiiiiiiiiiiiiDDDDDDDDDDDDDDD              MMMMMMMMMMMSSSSjiiiiiiiiiiiiiiiiiiiiDDDDDDDDDDDDDDD              MMMMMMMMMMMMMMSSjjjiiiiiiiiiiiiiiiiDDDDDDDDDDDDDDDD               MMMMMMMMMMMMMMMSjjjjiiiiiiiiiiiiiDDDDDDDDDDDDDDDD                LLLMMMMMMMMMMMMMMjjjjjjiiiiiiiiiDDDDDDDDDDDDDDDDD                 LLLLMMMMMMMMMMMMMjjjjjjjiiiiiiSSSSDDDDDDDDDDDDD                  LLLLLLLMMMMMMMMMMMMjjjjjjjiiSSSSSSSSDDDDDDDDDDD                  LLLLLLLLLMMMMMMMMMMMMMMMSSSSSSSSSSSSSSSDDDDDDDD         
       MMMMMSSSSSSSSSiiiiiiiiiiiiiiiiiiiiiiiDDDDDDDDDDDDDD              MMMMMMMMSSSSSSSiiiiiiiiiiiiiiiiiiiiiDDDDDDDDDDDDDDD              MMMMMMMMMMSSSSSiiiiiiiiiiiiiiiiiiiiiDDDDDDDDDDDDDDD              MMMMMMMMMMMMMSSSjjiiiiiiiiiiiiiiiiiDDDDDDDDDDDDDDDD               MMMMMMMMMMMMMMSSjjjiiiiiiiiiiiiiiDDDDDDDDDDDDDDDD                LLMMMMMMMMMMMMMMSjjjjiiiiiiiiiiiDDDDDDDDDDDDDDDDD                LLLLMMMMMMMMMMMMMMjjjjjjiiiiiiiSSSDDDDDDDDDDDDDDD                 LLLLLMMMMMMMMMMMMMMjjjjjjiiiSSSSSSSDDDDDDDDDDDD                  LLLLLLLLMMMMMMMMMMMMMMMjSSSSSSSSSSSSSDDDDDDDDDD         
       MMMMSSSSSSSSSSiiiiiiiiiiiiiiiiiiiiiiiDDDDDDDDDDDDDD              MMMMMMMSSSSSSSSiiiiiiiiiiiiiiiiiiiiiDDDDDDDDDDDDDDD              MMMMMMMMMSSSSSSiiiiiiiiiiiiiiiiiiiiiDDDDDDDDDDDDDDD              MMMMMMMMMMMSSSSSiiiiiiiiiiiiiiiiiiiDDDDDDDDDDDDDDDD               MMMMMMMMMMMMMSSSjjiiiiiiiiiiiiiiiDDDDDDDDDDDDDDDD                MMMMMMMMMMMMMMMSSjjjiiiiiiiiiiiiDDDDDDDDDDDDDDDDD                 LLMMMMMMMMMMMMMMMjjjjjiiiiiiiiSDDDDDDDDDDDDDDDD                  LLLLMMMMMMMMMMMMMMMjjjjjiiiiSSSSSSDDDDDDDDDDDDD                  LLLLLLLMMMMMMMMMMMMMMSSSSSSSSSSSSSSSDDDDDDDDDDD         
       MMMSSSSSSSSSSSiiiiiiiiiiiiiiiiiiiiiiiDDDDDDDDDDDDDD              MMMMMSSSSSSSSSSiiiiiiiiiiiiiiiiiiiiiDDDDDDDDDDDDDDD              MMMMMMMMSSSSSSSiiiiiiiiiiiiiiiiiiiiiDDDDDDDDDDDDDDD               MMMMMMMMMSSSSSSiiiiiiiiiiiiiiiiiiiDDDDDDDDDDDDDDD                MMMMMMMMMMMMSSSSjiiiiiiiiiiiiiiiiDDDDDDDDDDDDDDDD                MMMMMMMMMMMMMMSSSjjiiiiiiiiiiiiiDDDDDDDDDDDDDDDDD                 LMMMMMMMMMMMMMMSSjjjiiiiiiiiiiDDDDDDDDDDDDDDDDD                  LLLMMMMMMMMMMMMMMMSjjjjiiiiiSSSSSDDDDDDDDDDDDDD                   LLLLMMMMMMMMMMMMMMMSSSSSSSSSSSSSSSDDDDDDDDDDD          
       MMSSSSSSSSSSSSSiiiiiiiiiiiiiiiiiiiiiDDDDDDDDDDDDDDD              MMMMSSSSSSSSSSSiiiiiiiiiiiiiiiiiiiiiDDDDDDDDDDDDDDD              MMMMMMMSSSSSSSSSiiiiiiiiiiiiiiiiiiiDDDDDDDDDDDDDDDD               MMMMMMMMSSSSSSSiiiiiiiiiiiiiiiiiiiDDDDDDDDDDDDDDD                MMMMMMMMMMSSSSSSiiiiiiiiiiiiiiiiiDDDDDDDDDDDDDDDD                MMMMMMMMMMMMMSSSSjiiiiiiiiiiiiiiDDDDDDDDDDDDDDDDD                 MMMMMMMMMMMMMMSSSSjiiiiiiiiiiDDDDDDDDDDDDDDDDDD                  LLMMMMMMMMMMMMMMMSSSjjiiiiiSSSSDDDDDDDDDDDDDDDD                   LLLMMMMMMMMMMMMMMMSSSSSSSSSSSSSSSDDDDDDDDDDDD          
       MSSSSSSSSSSSSSSiiiiiiiiiiiiiiiiiiiiiDDDDDDDDDDDDDDD              MMMSSSSSSSSSSSSiiiiiiiiiiiiiiiiiiiiiDDDDDDDDDDDDDDD               MMMMSSSSSSSSSSSiiiiiiiiiiiiiiiiiiiDDDDDDDDDDDDDDD                MMMMMMMSSSSSSSSSiiiiiiiiiiiiiiiiiDDDDDDDDDDDDDDDD                MMMMMMMMMSSSSSSSiiiiiiiiiiiiiiiiiDDDDDDDDDDDDDDDD                MMMMMMMMMMMMSSSSSSiiiiiiiiiiiiiDDDDDDDDDDDDDDDDDD                 MMMMMMMMMMMMMSSSSSiiiiiiiiiiiDDDDDDDDDDDDDDDDDD                  LMMMMMMMMMMMMMMSSSSSSiiiiiSSSSDDDDDDDDDDDDDDDDD                   LLMMMMMMMMMMMMMMMSSSSSSSSSSSSSSSDDDDDDDDDDDDD          
       SSSSSSSSSSSSSSDiiiiiiiiiiiiiiiiiiiiiDDDDDDDDDDDDDDD              MMSSSSSSSSSSSSSSiiiiiiiiiiiiiiiiiiiDDDDDDDDDDDDDDDD               MMMSSSSSSSSSSSSiiiiiiiiiiiiiiiiiiiDDDDDDDDDDDDDDD                MMMMMMSSSSSSSSSSiiiiiiiiiiiiiiiiiDDDDDDDDDDDDDDDD                MMMMMMMMSSSSSSSSSiiiiiiiiiiiiiiiDDDDDDDDDDDDDDDDD                 MMMMMMMMMSSSSSSSSiiiiiiiiiiiiiDDDDDDDDDDDDDDDDD                  MMMMMMMMMMMMSSSSSSSiiiiiiiiiDDDDDDDDDDDDDDDDDDD                  MMMMMMMMMMMMMMSSSSSSSSSSSSSSSDDDDDDDDDDDDDDDDDD                   LMMMMMMMMMMMMMMMSSSSSSSSSSSSSSDDDDDDDDDDDDDDD          
        SSSSSSSSSSSSDDDiiiiiiiiiiiiiiiiiiiDDDDDDDDDDDDDDD                SSSSSSSSSSSSSSDiiiiiiiiiiiiiiiiiiiDDDDDDDDDDDDDDD                MMSSSSSSSSSSSSSSiiiiiiiiiiiiiiiiiDDDDDDDDDDDDDDDD                MMMMSSSSSSSSSSSSSiiiiiiiiiiiiiiiDDDDDDDDDDDDDDDDD                MMMMMMMSSSSSSSSSSSiiiiiiiiiiiiiDDDDDDDDDDDDDDDDDD                 MMMMMMMMSSSSSSSSSSiiiiiiiiiiiDDDDDDDDDDDDDDDDDD                  MMMMMMMMMMMSSSSSSSSSSiiiiiDDDDDDDDDDDDDDDDDDDDD                   MMMMMMMMMMMMSSSSSSSSSSSSSSSDDDDDDDDDDDDDDDDDD                    MMMMMMMMMMMMMMSSSSSSSSSSSSSSSDDDDDDDDDDDDDDDD          
        SSSSSSSSSSSDDDDDiiiiiiiiiiiiiiiiiDDDDDDDDDDDDDDDD                SSSSSSSSSSSSSDDDiiiiiiiiiiiiiiiiiDDDDDDDDDDDDDDDD                MSSSSSSSSSSSSSSSDiiiiiiiiiiiiiiiDDDDDDDDDDDDDDDDD                MMMSSSSSSSSSSSSSSSiiiiiiiiiiiiiDDDDDDDDDDDDDDDDDD                 MMMMMSSSSSSSSSSSSSiiiiiiiiiiiDDDDDDDDDDDDDDDDDD                  MMMMMMMSSSSSSSSSSSSSiiiiiiiDDDDDDDDDDDDDDDDDDDD                   MMMMMMMMSSSSSSSSSSSSSSSDDDDDDDDDDDDDDDDDDDDDD                    MMMMMMMMMMMSSSSSSSSSSSSSSSDDDDDDDDDDDDDDDDDDD                     MMMMMMMMMMMMSSSSSSSSSSSSSSSDDDDDDDDDDDDDDDD           
        SSSSSSSSSSDDDDDDiiiiiiiiiiiiiiiiiDDDDDDDDDDDDDDDD                SSSSSSSSSSSSDDDDDiiiiiiiiiiiiiiiDDDDDDDDDDDDDDDDD                SSSSSSSSSSSSSSDDDDiiiiiiiiiiiiiDDDDDDDDDDDDDDDDDD                 MSSSSSSSSSSSSSSSDDiiiiiiiiiiiDDDDDDDDDDDDDDDDDD                  MMMSSSSSSSSSSSSSSSDiiiiiiiiiDDDDDDDDDDDDDDDDDDD                  MMMMMMSSSSSSSSSSSSSSSDDDDDDDDDDDDDDDDDDDDDDDDDD                   MMMMMMMSSSSSSSSSSSSSSSDDDDDDDDDDDDDDDDDDDDDDD                    MMMMMMMMMMSSSSSSSSSSSSSSDDDDDDDDDDDDDDDDDDDDD                     MMMMMMMMMMMSSSSSSSSSSSSSSSDDDDDDDDDDDDDDDDD           
        SSSSSSSSDDDDDDDDDDiiiiiiiiiiiiiDDDDDDDDDDDDDDDDDD                 SSSSSSSSSSDDDDDDDiiiiiiiiiiiiiDDDDDDDDDDDDDDDDD                  SSSSSSSSSSSSDDDDDDiiiiiiiiiiiDDDDDDDDDDDDDDDDDD                  SSSSSSSSSSSSSSSDDDDDiiiiiiiDDDDDDDDDDDDDDDDDDDD                  MMSSSSSSSSSSSSSSSDDDDDDDDDDDDDDDDDDDDDDDDDDDDDD                   MMMMSSSSSSSSSSSSSSDDDDDDDDDDDDDDDDDDDDDDDDDDD                    MMMMMMSSSSSSSSSSSSSSSDDDDDDDDDDDDDDDDDDDDDDDD                     MMMMMMMSSSSSSSSSSSSSSSDDDDDDDDDDDDDDDDDDDDD                      MMMMMMMMMMSSSSSSSSSSSSSSSDDDDDDDDDDDDDDDDDD           
         SSSSSSDDDDDDDDDDDDiiiiiiiiiiiDDDDDDDDDDDDDDDDDD                  SSSSSSSSSDDDDDDDDDDiiiiiiiiiDDDDDDDDDDDDDDDDDDD                  SSSSSSSSSSSDDDDDDDDDDiiiiiDDDDDDDDDDDDDDDDDDDDD                   SSSSSSSSSSSSDDDDDDDDDDDDDDDDDDDDDDDDDDDDDDDDD                    SSSSSSSSSSSSSSSDDDDDDDDDDDDDDDDDDDDDDDDDDDDDD                    MMSSSSSSSSSSSSSSSDDDDDDDDDDDDDDDDDDDDDDDDDDDD                     MMMMSSSSSSSSSSSSSSSDDDDDDDDDDDDDDDDDDDDDDDD                      MMMMMMSSSSSSSSSSSSSSSDDDDDDDDDDDDDDDDDDDDDD                       MMMMMMMMSSSSSSSSSSSSSSDDDDDDDDDDDDDDDDDDD            
         SSSSSDDDDDDDDDDDDDDDDiiiiiDDDDDDDDDDDDDDDDDDDDD                  SSSSSSSDDDDDDDDDDDDDDDDDDDDDDDDDDDDDDDDDDDDDDDD                   SSSSSSSSSDDDDDDDDDDDDDDDDDDDDDDDDDDDDDDDDDDDD                    SSSSSSSSSSSDDDDDDDDDDDDDDDDDDDDDDDDDDDDDDDDDD                    SSSSSSSSSSSSSSDDDDDDDDDDDDDDDDDDDDDDDDDDDDDDD                     SSSSSSSSSSSSSSSDDDDDDDDDDDDDDDDDDDDDDDDDDDD                      MMMSSSSSSSSSSSSSSDDDDDDDDDDDDDDDDDDDDDDDDDD                       MMMMSSSSSSSSSSSSSSSDDDDDDDDDDDDDDDDDDDDDD                        MMMMMMSSSSSSSSSSSSSSSDDDDDDDDDDDDDDDDDDDD            
          SSSDDDDDDDDDDDDDDDDDDDDDDDDDDDDDDDDDDDDDDDDDD                    SSSSSDDDDDDDDDDDDDDDDDDDDDDDDDDDDDDDDDDDDDDDD                    SSSSSSSSDDDDDDDDDDDDDDDDDDDDDDDDDDDDDDDDDDDDD                     SSSSSSSSSDDDDDDDDDDDDDDDDDDDDDDDDDDDDDDDDDD                      SSSSSSSSSSSDDDDDDDDDDDDDDDDDDDDDDDDDDDDDDDD                      SSSSSSSSSSSSSSDDDDDDDDDDDDDDDDDDDDDDDDDDDDD                       SSSSSSSSSSSSSSSDDDDDDDDDDDDDDDDDDDDDDDDDD                        MMMSSSSSSSSSSSSSSSDDDDDDDDDDDDDDDDDDDDDDD                         MMMMSSSSSSSSSSSSSSSDDDDDDDDDDDDDDDDDDDD             
          SSDDDDDDDDDDDDDDDDDDDDDDDDDDDDDDDDDDDDDDDDDDD                     SSSDDDDDDDDDDDDDDDDDDDDDDDDDDDDDDDDDDDDDDDD                      SSSSSDDDDDDDDDDDDDDDDDDDDDDDDDDDDDDDDDDDDDD                      SSSSSSSSDDDDDDDDDDDDDDDDDDDDDDDDDDDDDDDDDDD                      SSSSSSSSSSDDDDDDDDDDDDDDDDDDDDDDDDDDDDDDDDD                       SSSSSSSSSSSSDDDDDDDDDDDDDDDDDDDDDDDDDDDDD                        SSSSSSSSSSSSSSDDDDDDDDDDDDDDDDDDDDDDDDDDD                         MSSSSSSSSSSSSSSDDDDDDDDDDDDDDDDDDDDDDDD                          MMMSSSSSSSSSSSSSSSDDDDDDDDDDDDDDDDDDDDD             
           DDDDDDDDDDDDDDDDDDDDDDDDDDDDDDDDDDDDDDDDDDD                      SSDDDDDDDDDDDDDDDDDDDDDDDDDDDDDDDDDDDDDDDDD                      SSSSDDDDDDDDDDDDDDDDDDDDDDDDDDDDDDDDDDDDDDD                       SSSSSSDDDDDDDDDDDDDDDDDDDDDDDDDDDDDDDDDDD                        SSSSSSSSDDDDDDDDDDDDDDDDDDDDDDDDDDDDDDDDD                         SSSSSSSSSDDDDDDDDDDDDDDDDDDDDDDDDDDDDDD                          SSSSSSSSSSSSDDDDDDDDDDDDDDDDDDDDDDDDDDD                           SSSSSSSSSSSSSDDDDDDDDDDDDDDDDDDDDDDDD                            MSSSSSSSSSSSSSSSDDDDDDDDDDDDDDDDDDDDD              
            DDDDDDDDDDDDDDDDDDDDDDDDDDDDDDDDDDDDDDDDD                        DDDDDDDDDDDDDDDDDDDDDDDDDDDDDDDDDDDDDDDDD                        SSDDDDDDDDDDDDDDDDDDDDDDDDDDDDDDDDDDDDDDD                        SSSSDDDDDDDDDDDDDDDDDDDDDDDDDDDDDDDDDDDDD                         SSSSSSDDDDDDDDDDDDDDDDDDDDDDDDDDDDDDDDD                          SSSSSSSSDDDDDDDDDDDDDDDDDDDDDDDDDDDDDDD                           SSSSSSSSSSDDDDDDDDDDDDDDDDDDDDDDDDDDD                            SSSSSSSSSSSSDDDDDDDDDDDDDDDDDDDDDDDDD                             SSSSSSSSSSSSSDDDDDDDDDDDDDDDDDDDDDD               
            DDDDDDDDDDDDDDDDDDDDDDDDDDDDDDDDDDDDDDDDD                         DDDDDDDDDDDDDDDDDDDDDDDDDDDDDDDDDDDDDDD                          DDDDDDDDDDDDDDDDDDDDDDDDDDDDDDDDDDDDDDD                          SSDDDDDDDDDDDDDDDDDDDDDDDDDDDDDDDDDDDDD                           SSSSDDDDDDDDDDDDDDDDDDDDDDDDDDDDDDDDD                            SSSSSSDDDDDDDDDDDDDDDDDDDDDDDDDDDDDDD                             SSSSSSSDDDDDDDDDDDDDDDDDDDDDDDDDDDD                              SSSSSSSSSSDDDDDDDDDDDDDDDDDDDDDDDDD                               SSSSSSSSSSSDDDDDDDDDDDDDDDDDDDDDD                
             DDDDDDDDDDDDDDDDDDDDDDDDDDDDDDDDDDDDDDD                          DDDDDDDDDDDDDDDDDDDDDDDDDDDDDDDDDDDDDDD                           DDDDDDDDDDDDDDDDDDDDDDDDDDDDDDDDDDDDD                            DDDDDDDDDDDDDDDDDDDDDDDDDDDDDDDDDDDDD                             SDDDDDDDDDDDDDDDDDDDDDDDDDDDDDDDDDD                              SSSSDDDDDDDDDDDDDDDDDDDDDDDDDDDDDDD                               SSSSSDDDDDDDDDDDDDDDDDDDDDDDDDDDD                                SSSSSSSSDDDDDDDDDDDDDDDDDDDDDDDDD                                 SSSSSSSSSDDDDDDDDDDDDDDDDDDDDDD                 
              DDDDDDDDDDDDDDDDDDDDDDDDDDDDDDDDDDDDD                            DDDDDDDDDDDDDDDDDDDDDDDDDDDDDDDDDDDDD                             DDDDDDDDDDDDDDDDDDDDDDDDDDDDDDDDDDD                              DDDDDDDDDDDDDDDDDDDDDDDDDDDDDDDDDDD                               DDDDDDDDDDDDDDDDDDDDDDDDDDDDDDDDD                                SSDDDDDDDDDDDDDDDDDDDDDDDDDDDDDDD                                 SSSDDDDDDDDDDDDDDDDDDDDDDDDDDDD                                  SSSSSDDDDDDDDDDDDDDDDDDDDDDDDDD                                   SSSSSSSDDDDDDDDDDDDDDDDDDDDDD                  
               DDDDDDDDDDDDDDDDDDDDDDDDDDDDDDDDDDD                              DDDDDDDDDDDDDDDDDDDDDDDDDDDDDDDDDDD                               DDDDDDDDDDDDDDDDDDDDDDDDDDDDDDDDD                                DDDDDDDDDDDDDDDDDDDDDDDDDDDDDDDDD                                 DDDDDDDDDDDDDDDDDDDDDDDDDDDDDDD                                  DDDDDDDDDDDDDDDDDDDDDDDDDDDDDDD                                   SDDDDDDDDDDDDDDDDDDDDDDDDDDDD                                     SSDDDDDDDDDDDDDDDDDDDDDDDDD                                      SSSSSDDDDDDDDDDDDDDDDDDDDDD                   
                DDDDDDDDDDDDDDDDDDDDDDDDDDDDDDDDD                                 DDDDDDDDDDDDDDDDDDDDDDDDDDDDDDD                                  DDDDDDDDDDDDDDDDDDDDDDDDDDDDDDD                                  DDDDDDDDDDDDDDDDDDDDDDDDDDDDDDD                                   DDDDDDDDDDDDDDDDDDDDDDDDDDDDD                                     DDDDDDDDDDDDDDDDDDDDDDDDDDD                                      DDDDDDDDDDDDDDDDDDDDDDDDDDD                                       DDDDDDDDDDDDDDDDDDDDDDDDD                                         SDDDDDDDDDDDDDDDDDDDDDD                     
                  DDDDDDDDDDDDDDDDDDDDDDDDDDDDD                                    DDDDDDDDDDDDDDDDDDDDDDDDDDDDD                                    DDDDDDDDDDDDDDDDDDDDDDDDDDDDD                                     DDDDDDDDDDDDDDDDDDDDDDDDDDD                                      DDDDDDDDDDDDDDDDDDDDDDDDDDD                                       DDDDDDDDDDDDDDDDDDDDDDDDD                                         DDDDDDDDDDDDDDDDDDDDDDD                                           DDDDDDDDDDDDDDDDDDDDD                                             DDDDDDDDDDDDDDDDDDD                       
                   DDDDDDDDDDDDDDDDDDDDDDDDDDD                                       DDDDDDDDDDDDDDDDDDDDDDDDD                                        DDDDDDDDDDDDDDDDDDDDDDDDD                                         DDDDDDDDDDDDDDDDDDDDDDD                                          DDDDDDDDDDDDDDDDDDDDDDD                                           DDDDDDDDDDDDDDDDDDDDD                                             DDDDDDDDDDDDDDDDDDD                                               DDDDDDDDDDDDDDDDD                                                  DDDDDDDDDDDDD                          
                     DDDDDDDDDDDDDDDDDDDDDDD                                          DDDDDDDDDDDDDDDDDDDDDDD                                           DDDDDDDDDDDDDDDDDDDDD                                             DDDDDDDDDDDDDDDDDDD                                              DDDDDDDDDDDDDDDDDDD                                               DDDDDDDDDDDDDDDDD                                                  DDDDDDDDDDDDD                                                     DDDDDDDDDDD                                                          DDD                               
                       DDDDDDDDDDDDDDDDDDD                                               DDDDDDDDDDDDDDDDD                                                DDDDDDDDDDDDDDDDD                                                 DDDDDDDDDDDDDDD                                                   DDDDDDDDDDDDD                                                      DDDDDDDDD                                                            D                                                                                                                                                                  
                           DDDDDDDDDDD                                                      DDDDDDDDDDD                                                        DDDDDDD                                                            DDD                                                                                                                                                                                                                                                                                                                                                                    
                                                                                                                                                                                                                                                                                                                                                                                                                                                                                                                                                                                                         
                                                                                                                                                                                                                                                                                                                                                                                                                                                                                                                                                                                                         
                                                                                                                                                                                                                                                                                                                                                                                                                                                                                                                                                                                                         
bacbbacbbacbbabbaabbaabbaacbaabaacbaacbbacbbabbacbbaabbaabbaabaacaaabbbccaaabbcbcaabbbbcaaabbbbcaaaabbbcaaaabbcbcaabbbbcaaabbbbcaacabababacacbcbbacacbcbabababcbababababababababababacabababacacbcbbaaaaccbbbbaaaacbbbbaaaaccbbbbaaaacbbbbaaaaccbbbbaaaacbbbbaaaaccbaabcabbcabbaabaabbaabcaabcabcabbcabbaabaabbaabcaabcabcabbcabbaabbbaabacbaabacbaabacbaabacbaabacbabbacbabbacbabbacbabbacbabbacbabbaaaaaabbbbbbbbaaaaaaaaabbbbbbbbbccccaaaaaaaaabbbbbbbbcccccaaaaaaaaaabababaabababaabababaacababaacabababcacababcacababcbcababcbcacabbaaabbbaacbbaaabbbaacbbaaccbaaabbbbaccbbaacbbaaabbbaacbbaaabbbaac
                                                                                                                                                                                                                                                                                                                                                                                                                                                                                                                                                                                                         
                                                                                                                                                                                                                                                                                                                                                                                                                                                                                                                                                                                                         
                                                                                                                                                                                                                                                                                                                                                                                                                                                                                                                                                                                                         
                                                                                                                                                                                                                                                                                                                                                                                                                                                                                                                                                                                                         
                                                                                                                                                                                                                                                                                                                                                                                                                                                                                                                                                                                                         
                                                                                                                                                                                                                                                                                                                                                                                                                                                                                                                                                                                                         
                                                                                                                                                                                                                                                                                                                                                                                                                                                                                                                                                                                                         
                                                                                                                                                                                                                                                                                                                                                                                                                                                                                                                                                                                                         
                                                                                                                                                                                                                                                                                                                                                                                                                                                                                                                                                                                                         
                                                                                                                                                                                                                                                                                                                                                                                                                                                                                                                                                                                                         
                                                                                                                                                                                                                                                                                                                                                                                                                                                                                                                                                                                                         
                                                                                                                                                                                                                                                                                                                                                                                                                                                                                                                                                                                                         
                                                                                                                                                                                                                                                                                                                                                                                                                                                                                                                                                                                                         
                            HHHLLLLLL                                                                                                                                                                                                                                                                                                                                                                                                                                                                                                                                                                    
                        HHHHHLLLLLLLLLLLL                                                  HHHHHHLLLLLLL                                                       HHHHHLL                                                                                                                                                                                                                                                                                                                                                                                                                                   
                      HHHHHHLLLLLLLLLLLLLLL                                              HHHHHHHLLLLLLLLLL                                                 HHHHHHHHLLLLLLL                                                     HHHHHHHLL                                                                                                                                                                                                                                                                                                                                                                 
                    HHHHHHHLLLLLLLLLLLLLLLMMM                                          HHHHHHHLLLLLLLLLLLLLL                                             HHHHHHHHHLLLLLLLLLL                                                HHHHHHHHHLLLLLL                                                    HHHHHHHHHHL                                                                                                                                                                                                                                                                                               
                   HHHHHHHLLLLLLLLLLLLLLLMMMMM                                       HHHHHHHHLLLLLLLLLLLLLLLMM                                         HHHHHHHHHHLLLLLLLLLLLLL                                            HHHHHHHHHHLLLLLLLLL                                                HHHHHHHHHHLLLLL                                                    HHHHHHHHHHH                                                                                                                                                                                                                              
                  HHHHHHHLLLLLLLLLLLLLLLMMMMMMM                                     HHHHHHHHLLLLLLLLLLLLLLLMMMM                                       HHHHHHHHHLLLLLLLLLLLLLLLM                                         HHHHHHHHHHHLLLLLLLLLLLL                                            HHHHHHHHHHHLLLLLLLL                                                HHHHHHHHHHHHLLL                                                    HHHHHHHHHHH                                                                                                                                                             
                 HHHHHHLLLLLLLLLLLLLLLMMMMMMMMMM                                   HHHHHHHHLLLLLLLLLLLLLLLMMMMMM                                     HHHHHHHHHLLLLLLLLLLLLLLLMMM                                       HHHHHHHHHHHLLLLLLLLLLLLLL                                         HHHHHHHHHHHHLLLLLLLLLLL                                            HHHHHHHHHHHHLLLLLLL                                                HHHHHHHHHHHHHLL                                                     HHHHHHHHH                                                                                             
                HHHHHHLLLLLLLLLLLLLLLMMMMMMMMMMMM                                 HHHHHHHHLLLLLLLLLLLLLLLMMMMMMMM                                  HHHHHHHHHHLLLLLLLLLLLLLLLMMMMMM                                    HHHHHHHHHHLLLLLLLLLLLLLLLMM                                       HHHHHHHHHHHHLLLLLLLLLLLLL                                         HHHHHHHHHHHHHLLLLLLLLLL                                            HHHHHHHHHHHHHHLLLLL                                                HHHHHHHHHHHHHHL                                                      HHHHHHH                             
               HHHHHHLLLLLLLLLLLLLLLMMMMMMMMMMMMMM                               HHHHHHHLLLLLLLLLLLLLLLMMMMMMMMMMM                                 HHHHHHHHHLLLLLLLLLLLLLLLMMMMMMM                                   HHHHHHHHHHLLLLLLLLLLLLLLLMMMM                                     HHHHHHHHHHHHLLLLLLLLLLLLLLL                                       HHHHHHHHHHHHHLLLLLLLLLLLL                                          HHHHHHHHHHHHHLLLLLLLL                                              HHHHHHHHHHHHHHLLL                                                  HHHHHHHHHHHHH                          
              HHHHHHLLLLLLLLLLLLLLLMMMMMMMMMMMMMMMS                             HHHHHHHLLLLLLLLLLLLLLLMMMMMMMMMMMMM                               HHHHHHHHHLLLLLLLLLLLLLLLMMMMMMMMM                                 HHHHHHHHHHLLLLLLLLLLLLLLLMMMMMM                                   HHHHHHHHHHHLLLLLLLLLLLLLLLMMM                                     HHHHHHHHHHHHHLLLLLLLLLLLLLL                                       HHHHHHHHHHHHHHLLLLLLLLLLL                                          HHHHHHHHHHHHHHHLLLLLL                                              HHHHHHHHHHHHHHHLL                        
             HHHHHHLLLLLLLLLLLLLLLMMMMMMMMMMMMMMSSSS                           HHHHHHHLLLLLLLLLLLLLLLMMMMMMMMMMMMMMM                             HHHHHHHHLLLLLLLLLLLLLLLMMMMMMMMMMMM                               HHHHHHHHHHLLLLLLLLLLLLLLLMMMMMMMM                                 HHHHHHHHHHHLLLLLLLLLLLLLLLMMMMM                                   HHHHHHHHHHHHHLLLLLLLLLLLLLLLM                                     HHHHHHHHHHHHHHLLLLLLLLLLLLL                                        HHHHHHHHHHHHHHLLLLLLLLL                                            HHHHHHHHHHHHHHHLLLL                       
             HHHHLLLLLLLLLLLLLLLMMMMMMMMMMMMMMMSSSSS                           HHHHHHLLLLLLLLLLLLLLLMMMMMMMMMMMMMMMS                            HHHHHHHHLLLLLLLLLLLLLLLMMMMMMMMMMMMMM                             HHHHHHHHHHLLLLLLLLLLLLLLLMMMMMMMMMM                               HHHHHHHHHHHLLLLLLLLLLLLLLLMMMMMMM                                 HHHHHHHHHHHHLLLLLLLLLLLLLLLMMMM                                    HHHHHHHHHHHHHLLLLLLLLLLLLLL                                       HHHHHHHHHHHHHHLLLLLLLLLLL                                          HHHHHHHHHHHHHHHLLLLLL                      
            HHHHLLLLLLLLLLLLLLLMMMMMMMMMMMMMMMSSSSSSS                         HHHHHHLLLLLLLLLLLLLLLMMMMMMMMMMMMMMSSSS                           HHHHHHHLLLLLLLLLLLLLLLMMMMMMMMMMMMMMM                             HHHHHHHHLLLLLLLLLLLLLLLMMMMMMMMMMMM                               HHHHHHHHHHLLLLLLLLLLLLLLLMMMMMMMM                                 HHHHHHHHHHHLLLLLLLLLLLLLLLMMMMM                                   HHHHHHHHHHHHHLLLLLLLLLLLLLLLM                                     HHHHHHHHHHHHHHLLLLLLLLLLLLL                                        HHHHHHHHHHHHHHLLLLLLLLL                     
            HHHLLLLLLLLLLLLLLLMMMMMMMMMMMMMMMSSSSSSSS                         HHHHLLLLLLLLLLLLLLLMMMMMMMMMMMMMMMSSSSS                          HHHHHHHLLLLLLLLLLLLLLLMMMMMMMMMMMMMMMSS                           HHHHHHHHLLLLLLLLLLLLLLLMMMMMMMMMMMMMM                             HHHHHHHHHHLLLLLLLLLLLLLLLMMMMMMMMMM                               HHHHHHHHHHHLLLLLLLLLLLLLLLMMMMMMM                                 HHHHHHHHHHHHLLLLLLLLLLLLLLLMMMM                                    HHHHHHHHHHHHHLLLLLLLLLLLLLL                                       HHHHHHHHHHHHHHLLLLLLLLLLL                    
           HHHLLLLLLLLLLLLLLLMMMMMMMMMMMMMMMSSSSSSSSSS                       HHHHLLLLLLLLLLLLLLLMMMMMMMMMMMMMMMSSSSSSS                         HHHHHHLLLLLLLLLLLLLLLMMMMMMMMMMMMMMSSSS                           HHHHHHHLLLLLLLLLLLLLLLMMMMMMMMMMMMMMM                             HHHHHHHHLLLLLLLLLLLLLLLMMMMMMMMMMMM                               HHHHHHHHHHLLLLLLLLLLLLLLLMMMMMMMM                                 HHHHHHHHHHHLLLLLLLLLLLLLLLMMMMM                                   HHHHHHHHHHHHHLLLLLLLLLLLLLLLM                                     HHHHHHHHHHHHHHLLLLLLLLLLLLL                   
           HHLLLLLLLLLLLLLLLMMMMMMMMMMMMMMSSSSSSSSSSSS                       HHHLLLLLLLLLLLLLLLMMMMMMMMMMMMMMMSSSSSSSS                        HHHHHLLLLLLLLLLLLLLLMMMMMMMMMMMMMMMSSSSSS                         HHHHHHHLLLLLLLLLLLLLLLMMMMMMMMMMMMMMMSS                           HHHHHHHHLLLLLLLLLLLLLLLMMMMMMMMMMMMMM                             HHHHHHHHHHLLLLLLLLLLLLLLLMMMMMMMMMM                               HHHHHHHHHHHLLLLLLLLLLLLLLLMMMMMMM                                 HHHHHHHHHHHHLLLLLLLLLLLLLLLMMMM                                    HHHHHHHHHHHHHLLLLLLLLLLLLLL                   
           LLLLLLLLLLLLLLLMMMMMMMMMMMMMMMSSSSSSSSSSSSS                      HHHLLLLLLLLLLLLLLLMMMMMMMMMMMMMMMSSSSSSSSSS                       HHHHLLLLLLLLLLLLLLLMMMMMMMMMMMMMMMSSSSSSS                         HHHHHHLLLLLLLLLLLLLLLMMMMMMMMMMMMMMSSSS                           HHHHHHHLLLLLLLLLLLLLLLMMMMMMMMMMMMMMM                             HHHHHHHHLLLLLLLLLLLLLLLMMMMMMMMMMMM                               HHHHHHHHHHLLLLLLLLLLLLLLLMMMMMMMM                                 HHHHHHHHHHHLLLLLLLLLLLLLLLMMMMM                                   HHHHHHHHHHHHHLLLLLLLLLLLLLLLM                  
           LLLLLLLLLLLLLLMMMMMMMMMMMMMMMSSSSSSSSSSSSSS                      HHLLLLLLLLLLLLLLLMMMMMMMMMMMMMMSSSSSSSSSSSS                       HHHLLLLLLLLLLLLLLLMMMMMMMMMMMMMMMSSSSSSSS                         HHHHLLLLLLLLLLLLLLLMMMMMMMMMMMMMMMSSSSS                          HHHHHHHLLLLLLLLLLLLLLLMMMMMMMMMMMMMMMSS                           HHHHHHHHLLLLLLLLLLLLLLLMMMMMMMMMMMMMM                             HHHHHHHHHHLLLLLLLLLLLLLLLMMMMMMMMMM                                HHHHHHHHHHLLLLLLLLLLLLLLLMMMMMM                                   HHHHHHHHHHHLLLLLLLLLLLLLLLMMM                  
          LLLLLLLLLLLLLLMMMMMMMMMMMMMMMSSSSSSSSSSSSSSSD                     LLLLLLLLLLLLLLLMMMMMMMMMMMMMMMSSSSSSSSSSSSS                       HHLLLLLLLLLLLLLLLMMMMMMMMMMMMMMMSSSSSSSSS                        HHHHLLLLLLLLLLLLLLLMMMMMMMMMMMMMMMSSSSSSS                         HHHHHHLLLLLLLLLLLLLLLMMMMMMMMMMMMMMSSSS                           HHHHHHHLLLLLLLLLLLLLLLMMMMMMMMMMMMMMM                             HHHHHHHHLLLLLLLLLLLLLLLMMMMMMMMMMMM                               HHHHHHHHHHLLLLLLLLLLLLLLLMMMMMMMM                                  HHHHHHHHHHLLLLLLLLLLLLLLLMMMM                  
          LLLLLLLLLLLLLMMMMMMMMMMMMMMMSSSSSSSSSSSSSSDDD                     LLLLLLLLLLLLLLMMMMMMMMMMMMMMMSSSSSSSSSSSSSS                      HHLLLLLLLLLLLLLLLMMMMMMMMMMMMMMSSSSSSSSSSSS                       HHHLLLLLLLLLLLLLLLMMMMMMMMMMMMMMMSSSSSSSS                         HHHHLLLLLLLLLLLLLLLMMMMMMMMMMMMMMMSSSSS                           HHHHHHLLLLLLLLLLLLLLLMMMMMMMMMMMMMMMS                             HHHHHHHLLLLLLLLLLLLLLLMMMMMMMMMMMMM                               HHHHHHHHHLLLLLLLLLLLLLLLMMMMMMMMM                                 HHHHHHHHHHLLLLLLLLLLLLLLLMMMMMM                 
          LLLLLLLLLLLLMMMMMMMMMMMMMMSSSSSSSSSSSSSSSDDDD                     LLLLLLLLLLLLLMMMMMMMMMMMMMMMSSSSSSSSSSSSSSS                      LLLLLLLLLLLLLLLMMMMMMMMMMMMMMMSSSSSSSSSSSSS                       HHLLLLLLLLLLLLLLLMMMMMMMMMMMMMMMSSSSSSSSS                         HHHLLLLLLLLLLLLLLLMMMMMMMMMMMMMMMSSSSSS                           HHHHHLLLLLLLLLLLLLLLMMMMMMMMMMMMMMSSS                             HHHHHHLLLLLLLLLLLLLLLMMMMMMMMMMMMMM                               HHHHHHHLLLLLLLLLLLLLLLMMMMMMMMMMM                                 HHHHHHHHHLLLLLLLLLLLLLLLMMMMMMM                 
          LLLLLLLLLLMMMMMMMMMMMMMMMSSSSSSSSSSSSSSSDDDDD                     LLLLLLLLLLLLMMMMMMMMMMMMMMMSSSSSSSSSSSSSSDD                      LLLLLLLLLLLLLLMMMMMMMMMMMMMMMSSSSSSSSSSSSSS                       HLLLLLLLLLLLLLLLMMMMMMMMMMMMMMSSSSSSSSSSS                         HHLLLLLLLLLLLLLLLMMMMMMMMMMMMMMMSSSSSSS                           HHHLLLLLLLLLLLLLLLMMMMMMMMMMMMMMMSSSS                             HHHHHLLLLLLLLLLLLLLLMMMMMMMMMMMMMMM                               HHHHHHLLLLLLLLLLLLLLLMMMMMMMMMMMM                                 HHHHHHHHLLLLLLLLLLLLLLLMMMMMMMM                 
          LLLLLLLLLMMMMMMMMMMMMMMMSSSSSSSSSSSSSSSDDDDDD                     LLLLLLLLLLLMMMMMMMMMMMMMMSSSSSSSSSSSSSSSDDD                      LLLLLLLLLLLLLMMMMMMMMMMMMMMMSSSSSSSSSSSSSSS                       LLLLLLLLLLLLLLMMMMMMMMMMMMMMMSSSSSSSSSSSS                         HLLLLLLLLLLLLLLLMMMMMMMMMMMMMMMSSSSSSSS                           HHLLLLLLLLLLLLLLLMMMMMMMMMMMMMMMSSSSS                             HHHHLLLLLLLLLLLLLLLMMMMMMMMMMMMMMSS                               HHHHHLLLLLLLLLLLLLLLMMMMMMMMMMMMM                                 HHHHHHLLLLLLLLLLLLLLLMMMMMMMMMM                 
          LLLLLLLLMMMMMMMMMMMMMMMSSSSSSSSSSSSSSSDDDDDDD                     LLLLLLLLLMMMMMMMMMMMMMMMSSSSSSSSSSSSSSSDDDD                      LLLLLLLLLLLLMMMMMMMMMMMMMMMSSSSSSSSSSSSSSDD                       LLLLLLLLLLLLLMMMMMMMMMMMMMMMSSSSSSSSSSSSS                         LLLLLLLLLLLLLLLMMMMMMMMMMMMMMSSSSSSSSSS                           HLLLLLLLLLLLLLLLMMMMMMMMMMMMMMMSSSSSS                             HHLLLLLLLLLLLLLLLMMMMMMMMMMMMMMMSSS                               HHHHLLLLLLLLLLLLLLLMMMMMMMMMMMMMM                                 HHHHHLLLLLLLLLLLLLLLMMMMMMMMMMM                 
          LLLLLLLMMMMMMMMMMMMMMMSSSSSSSSSSSSSSDDDDDDDDD                     LLLLLLLLMMMMMMMMMMMMMMMSSSSSSSSSSSSSSSDDDDD                      LLLLLLLLLLLMMMMMMMMMMMMMMSSSSSSSSSSSSSSSDDD                       LLLLLLLLLLLLMMMMMMMMMMMMMMMSSSSSSSSSSSSSS                         LLLLLLLLLLLLLMMMMMMMMMMMMMMMSSSSSSSSSSS                           LLLLLLLLLLLLLLLMMMMMMMMMMMMMMMSSSSSSS                             HLLLLLLLLLLLLLLLMMMMMMMMMMMMMMMSSSS                               HHHLLLLLLLLLLLLLLLMMMMMMMMMMMMMMS                                 HHHHLLLLLLLLLLLLLLLMMMMMMMMMMMM                 
          LLLLLLMMMMMMMMMMMMMMSSSSSSSSSSSSSSSDDDDDDDDDD                     LLLLLLLMMMMMMMMMMMMMMMSSSSSSSSSSSSSSSDDDDDD                      LLLLLLLLLMMMMMMMMMMMMMMMSSSSSSSSSSSSSSSDDDD                       LLLLLLLLLLLMMMMMMMMMMMMMMMSSSSSSSSSSSSSSD                         LLLLLLLLLLLLMMMMMMMMMMMMMMMSSSSSSSSSSSS                           LLLLLLLLLLLLLLMMMMMMMMMMMMMMSSSSSSSSS                             LLLLLLLLLLLLLLLMMMMMMMMMMMMMMMSSSSS                               HLLLLLLLLLLLLLLLMMMMMMMMMMMMMMMSS                                 HHHLLLLLLLLLLLLLLLMMMMMMMMMMMMM                 
          LLLLMMMMMMMMMMMMMMMSSSSSSSSSSSSSSSDDDDDDDDDDD                     LLLLLLMMMMMMMMMMMMMMMSSSSSSSSSSSSSSDDDDDDDD                       LLLLLLLMMMMMMMMMMMMMMMSSSSSSSSSSSSSSSDDDD                        LLLLLLLLLLMMMMMMMMMMMMMMSSSSSSSSSSSSSSSDD                         LLLLLLLLLLLMMMMMMMMMMMMMMMSSSSSSSSSSSSS                           LLLLLLLLLLLLMMMMMMMMMMMMMMMSSSSSSSSSS                             LLLLLLLLLLLLLLMMMMMMMMMMMMMMMSSSSSS                               LLLLLLLLLLLLLLLMMMMMMMMMMMMMMMSSS                                  HLLLLLLLLLLLLLLLMMMMMMMMMMMMM                  
           LLMMMMMMMMMMMMMMMSSSSSSSSSSSSSSSDDDDDDDDDDD                      LLLLLMMMMMMMMMMMMMMSSSSSSSSSSSSSSSDDDDDDDDD                       LLLLLLMMMMMMMMMMMMMMMSSSSSSSSSSSSSSSDDDDD                         LLLLLLLMMMMMMMMMMMMMMMSSSSSSSSSSSSSSSDD                          LLLLLLLLLLMMMMMMMMMMMMMMMSSSSSSSSSSSSSS                           LLLLLLLLLLLMMMMMMMMMMMMMMMSSSSSSSSSSS                             LLLLLLLLLLLLLMMMMMMMMMMMMMMSSSSSSSS                                LLLLLLLLLLLLLMMMMMMMMMMMMMMMSSS                                   LLLLLLLLLLLLLLMMMMMMMMMMMMMMM                  
           LMMMMMMMMMMMMMMMSSSSSSSSSSSSSSSDDDDDDDDDDDD                      LLLMMMMMMMMMMMMMMMSSSSSSSSSSSSSSSDDDDDDDDDD                       LLLLLMMMMMMMMMMMMMMMSSSSSSSSSSSSSSDDDDDDD                         LLLLLLMMMMMMMMMMMMMMMSSSSSSSSSSSSSSSDDD                           LLLLLLLLMMMMMMMMMMMMMMSSSSSSSSSSSSSSS                             LLLLLLLLLMMMMMMMMMMMMMMMSSSSSSSSSSS                               LLLLLLLLLLMMMMMMMMMMMMMMMSSSSSSSS                                 LLLLLLLLLLLLMMMMMMMMMMMMMMMSSSS                                   LLLLLLLLLLLLLMMMMMMMMMMMMMMMS                  
           MMMMMMMMMMMMMMMSSSSSSSSSSSSSSDDDDDDDDDDDDDD                       LMMMMMMMMMMMMMMMSSSSSSSSSSSSSSSDDDDDDDDDD                        LLLLMMMMMMMMMMMMMMSSSSSSSSSSSSSSSDDDDDDDD                         LLLLLMMMMMMMMMMMMMMMSSSSSSSSSSSSSSSDDDD                           LLLLLLMMMMMMMMMMMMMMMSSSSSSSSSSSSSSSD                             LLLLLLLLMMMMMMMMMMMMMMMSSSSSSSSSSSS                               LLLLLLLLLMMMMMMMMMMMMMMMSSSSSSSSS                                 LLLLLLLLLLLMMMMMMMMMMMMMMSSSSSS                                    LLLLLLLLLLLMMMMMMMMMMMMMMMS                   
           MMMMMMMMMMMMMSSSSSSSSSSSSSSSDDDDDDDDDDDDDDD                       MMMMMMMMMMMMMMMSSSSSSSSSSSSSSSDDDDDDDDDDD                         LMMMMMMMMMMMMMMMSSSSSSSSSSSSSSSDDDDDDDD                           LLLMMMMMMMMMMMMMMMSSSSSSSSSSSSSSDDDDD                             LLLLMMMMMMMMMMMMMMMSSSSSSSSSSSSSSSD                               LLLLLLMMMMMMMMMMMMMMSSSSSSSSSSSSS                                 LLLLLLLMMMMMMMMMMMMMMMSSSSSSSSS                                   LLLLLLLLMMMMMMMMMMMMMMMSSSSSS                                     LLLLLLLLLLMMMMMMMMMMMMMMMSS                   
            MMMMMMMMMMMSSSSSSSSSSSSSSSDDDDDDDDDDDDDDD                         MMMMMMMMMMMMMSSSSSSSSSSSSSSDDDDDDDDDDDD                          MMMMMMMMMMMMMMMSSSSSSSSSSSSSSSDDDDDDDDD                           LLMMMMMMMMMMMMMMSSSSSSSSSSSSSSSDDDDDD                             LLLMMMMMMMMMMMMMMMSSSSSSSSSSSSSSSDD                               LLLLMMMMMMMMMMMMMMMSSSSSSSSSSSSSS                                 LLLLLLMMMMMMMMMMMMMMMSSSSSSSSSS                                    LLLLLLMMMMMMMMMMMMMMMSSSSSS                                       LLLLLLLLMMMMMMMMMMMMMMSSS                    
            MMMMMMMMMMSSSSSSSSSSSSSSSDDDDDDDDDDDDDDDD                         MMMMMMMMMMMSSSSSSSSSSSSSSSDDDDDDDDDDDDD                           MMMMMMMMMMMMMSSSSSSSSSSSSSSSDDDDDDDDD                             MMMMMMMMMMMMMMSSSSSSSSSSSSSSSDDDDDD                               LMMMMMMMMMMMMMMMSSSSSSSSSSSSSSDDD                                 LLMMMMMMMMMMMMMMMSSSSSSSSSSSSSS                                   LLLLMMMMMMMMMMMMMMSSSSSSSSSSS                                     LLLLLMMMMMMMMMMMMMMMSSSSSSS                                        LLLLLMMMMMMMMMMMMMMMSSS                     
             MMMMMMMMSSSSSSSSSSSSSSSDDDDDDDDDDDDDDDD                           MMMMMMMMMSSSSSSSSSSSSSSSDDDDDDDDDDDDD                            MMMMMMMMMMMMSSSSSSSSSSSSSSDDDDDDDDDDD                             MMMMMMMMMMMMMSSSSSSSSSSSSSSSDDDDDDD                               MMMMMMMMMMMMMMSSSSSSSSSSSSSSSDDDD                                 LMMMMMMMMMMMMMMMSSSSSSSSSSSSSSS                                    LMMMMMMMMMMMMMMMSSSSSSSSSSS                                       LLLMMMMMMMMMMMMMMMSSSSSSS                                          LLLMMMMMMMMMMMMMMMSSS                      
             MMMMMMMSSSSSSSSSSSSSSDDDDDDDDDDDDDDDDDD                           MMMMMMMMSSSSSSSSSSSSSSSDDDDDDDDDDDDDD                             MMMMMMMMMSSSSSSSSSSSSSSSDDDDDDDDDDD                               MMMMMMMMMMMSSSSSSSSSSSSSSSDDDDDDD                                 MMMMMMMMMMMMSSSSSSSSSSSSSSSDDDD                                   MMMMMMMMMMMMMMSSSSSSSSSSSSSSD                                     MMMMMMMMMMMMMMMSSSSSSSSSSSS                                        LMMMMMMMMMMMMMMSSSSSSSS                                            LMMMMMMMMMMMMMMMSSS                       
              MMMMSSSSSSSSSSSSSSSDDDDDDDDDDDDDDDDDD                             MMMMMMSSSSSSSSSSSSSSSDDDDDDDDDDDDDD                               MMMMMMMSSSSSSSSSSSSSSSDDDDDDDDDDD                                 MMMMMMMMMSSSSSSSSSSSSSSDDDDDDDD                                   MMMMMMMMMMSSSSSSSSSSSSSSSDDDD                                     MMMMMMMMMMMSSSSSSSSSSSSSSSD                                       MMMMMMMMMMMMMSSSSSSSSSSSS                                          MMMMMMMMMMMMMSSSSSSSS                                              MMMMMMMMMMMMMMSSS                        
               MMSSSSSSSSSSSSSSSDDDDDDDDDDDDDDDDDD                               MMMMSSSSSSSSSSSSSSDDDDDDDDDDDDDDD                                 MMMMMSSSSSSSSSSSSSSSDDDDDDDDDDD                                   MMMMMMSSSSSSSSSSSSSSSDDDDDDDD                                     MMMMMMMMSSSSSSSSSSSSSSSDDDD                                       MMMMMMMMMSSSSSSSSSSSSSSSD                                          MMMMMMMMMMSSSSSSSSSSS                                              MMMMMMMMMMSSSSSSS                                                  MMMMMMMMMMSSS                          
                SSSSSSSSSSSSSSSDDDDDDDDDDDDDDDDDD                                 MSSSSSSSSSSSSSSSDDDDDDDDDDDDDDD                                  MMMMSSSSSSSSSSSSSSSDDDDDDDDDDDD                                    MMMMSSSSSSSSSSSSSSSDDDDDDDD                                       MMMMMMSSSSSSSSSSSSSSDDDDD                                         MMMMMMMSSSSSSSSSSSSSSSD                                            MMMMMMMSSSSSSSSSSSS                                                MMMMMMMMSSSSSSS                                                      MMMMMMS                             
                 SSSSSSSSSSSSSDDDDDDDDDDDDDDDDDD                                   SSSSSSSSSSSSSSDDDDDDDDDDDDDDD                                     MSSSSSSSSSSSSSSDDDDDDDDDDDD                                       MMSSSSSSSSSSSSSSSDDDDDDDD                                         MMMSSSSSSSSSSSSSSSDDDDD                                            MMMMSSSSSSSSSSSSSSS                                                MMMMSSSSSSSSSSS                                                     MMMMSSSSS                                                                                             
                  SSSSSSSSSSDDDDDDDDDDDDDDDDDDD                                     SSSSSSSSSSSSDDDDDDDDDDDDDDD                                       SSSSSSSSSSSSSDDDDDDDDDDDD                                         SSSSSSSSSSSSSSSDDDDDDDD                                            SSSSSSSSSSSSSSSDDDD                                                MSSSSSSSSSSSSSS                                                    MSSSSSSSSSS                                                                                                                                                             
                   SSSSSSSSDDDDDDDDDDDDDDDDDDD                                       SSSSSSSSSSDDDDDDDDDDDDDDD                                         SSSSSSSSSSSDDDDDDDDDDDD                                            SSSSSSSSSSSDDDDDDDD                                                SSSSSSSSSSSSDDD                                                    SSSSSSSSSSS                                                                                                                                                                                                                              
                    SSSSSSDDDDDDDDDDDDDDDDDDD                                          SSSSSSDDDDDDDDDDDDDDD                                             SSSSSSSSDDDDDDDDDDD                                                SSSSSSSSDDDDDDD                                                    SSSSSSSSSDD                                                                                                                                                                                                                                                                                               
                      SSSDDDDDDDDDDDDDDDDDD                                              SSSDDDDDDDDDDDDDD                                                 SSSSSDDDDDDDDDD                                                     SSSSDDDDD                                                                                                                                                                                                                                                                                                                                                                 
                        DDDDDDDDDDDDDDDDD                                                  DDDDDDDDDDDDD                                                       DDDDDDD                                                                                                                                                                                                                                                                                                                                                                                                                                   
                            DDDDDDDDD                                                                                                                                                                                                                                                                                                                                                                                                                                                                                                                                                                    
                                                                                                                                                                                                                                                                                                                                                                                                                                                                                                                                                                                                         
                                                                                                                                                                                                                                                                                                                                                                                                                                                                                                                                                                                                         
                                                                                                                                                                                                                                                                                                                                                                                                                                                                                                                                                                                                         
                                                                                                                                                                                                                                                                                                                                                                                                                                                                                                                                                                                                         
                                                                                                                                                                                                                                                                                                                                                                                                                                                                                                                                                                                                         
                                                                                                                                                                                                                                                                                                                                                                                                                                                                                                                                                                                                         
aabbcaabbaabbcaabbccaabbaabbbaabbcaabbcaaabbaabbcaabbcaabbcaabbaacaababacbabacbabacaabababbababbcbabacbabacbababbcbabbcbabacaababababaaaaaaaaaaaaaccaccbbcbbbbbbbbbbabbaabaaaaaaaaaacaaccbccbbbbbbbaababcabcabcababcabcabcababbabbabbabbabaabaabaababcabcabcababcabcbaacbaacbaacbbabbacbbacbbaabbaabaacbaacbaacbaabbacbbacbbacbbabbaababbcaaaabbbcaaaabbbbcaaabbbbcaababbcaaaabbbcaaaabbbccaaabbbbcaabaacbcbababababababababababababababacacbcabacacbcbababcbcbababababbbbaaaaccbbbbaaaacbbbbaaaaccbbbbaaaacbbbbaaaaccbbbbaaaacbbbbaaaacabcaabcabbcabcabbaabbaabcabcaabcabbcabbabbaabbaabcaacaabcabbcabba
                                                                                                                                                                                                                                                                                                                                                                                                                                                                                                                                                                                                         
                                                                                                                                                                                                                                                                                                                                                                                                                                                                                                                                                                                                         
                                                                                                                                                                                                                                                                                                                                                                                                                                                                                                                                                                                                         
                                                                                                                                                                                                                                                                                                                                                                                                                                                                                                                                                                                                         
                                                                                                                                                                                                                                                                                                                                                                                                                                                                                                                                                                                                         
                                                                                                                                                                                                                                                                                                                                                                                                                                                                                                                                                                                                         
                                                                                                                                                                                                                                                                                                                                                                                                                                                                                                                                                                                                         
                                                                                                                                                                                                                                                                                                                                                                                                                                                                                                                                                                                                         
                                                                                                                                                                                                                                                                                                                                                                                                                                                                                                                                                                                                         
                                                                                                                                                                                                                                                                                                                                                                                                                                                                                                                                                                                                         
                                                                                                                                                                                                                                                                                                                                                                                                                                                                                                                                                                                                         
                                                                                                                                                                                                                                                                                                                                                                                                                                                                                                                                                                                                         
                                                                                                                                                                                                                                                                                                                                                                                                                                                                                                                                                                                                         
                                                                                                                                                                                                                                                                                                                                                                                                                                                                                                                                                                                                         
                                                                                                                                                                                                                                                                                                                                                                                                                                                                                                                                                                                                         
                                                                                                                                                                                                                                                                                                                                                                                                                                                                                                                                                                                                         
                                                                                                                                                                                                                                                                                                                                                                                                                                                                                                                                                                                                         
                                                                                                                                                                                                                                                                                                                                                                                                                                                                                                                                                                                                         
                                                                                                                                                                                                                                                                                                                                                                                                                                                                                                                                                                                                         
                                                                                                                                                                                                                                                                                                                                                                                                                                                                                                                                                                                                         
                                                                                                                                                                                                                                                                                                                                                                                                                                                                                                                                                                                                         
                                                                                                                                                                                                                                                                                                                                                                                                                                                                                                                                                                                                         
                            HHHHHHHHH                                                                                                                                                                                                                                                                                                                                                                                                                                                                                                                                                                    
                          HHHHHHHHHHHHH                                                         HHH                                                                                                                                                                                                                                                                                                                                                                                                                                                                                                      
                        HHHHHHHHHHHHHHHLL                                                   HHHHHHHHHHH                                                                                                                                                                                                                                                                                                                                                                                                                                                                                                  
                       HHHHHHHHHHHHHHHLLLL                                                 HHHHHHHHHHHHH                                                          H                                                                                                                                                                                                                                                                                                                                                                                                                                      
                      HHHHHHHHHHHHHHHLLLLLL                                              HHHHHHHHHHHHHHHLL                                                    HHHHHHHHH                                                                                                                                                                                                                                                                                                                                                                                                                                  
                     HHHHHHHHHHHHHHLLLLLLLLL                                            HHHHHHHHHHHHHHHLLLL                                                 HHHHHHHHHHHHH                                                                                                                                                                                                                                                                                                                                                                                                                                
                     HHHHHHHHHHHHHLLLLLLLLLL                                            HHHHHHHHHHHHHHLLLLL                                                HHHHHHHHHHHHHHL                                                        HHH                                                                                                                                                                                                                                                                                                                                                                    
                    HHHHHHHHHHHHHLLLLLLLLLLLL                                          HHHHHHHHHHHHHLLLLLLLL                                              HHHHHHHHHHHHHHLLL                                                     HHHHHHH                                                                                                                                                                                                                                                                                                                                                                  
                    HHHHHHHHHHHHLLLLLLLLLLLLL                                         HHHHHHHHHHHHHLLLLLLLLLL                                             HHHHHHHHHHHHHLLLL                                                   HHHHHHHHHHH                                                                                                                                                                                                                                                                                                                                                                
                   HHHHHHHHHHHHLLLLLLLLLLLLLLL                                        HHHHHHHHHHHHLLLLLLLLLLL                                            HHHHHHHHHHHHLLLLLLL                                                  HHHHHHHHHHH                                                                                                                                                                                                                                                                                                                                                                
                   HHHHHHHHHHLLLLLLLLLLLLLLLMM                                        HHHHHHHHHHHLLLLLLLLLLLL                                            HHHHHHHHHHHLLLLLLLL                                                 HHHHHHHHHHHLL                                                                                                                                                                                                                                                                                                                                                               
                   HHHHHHHHHLLLLLLLLLLLLLLLMMM                                        HHHHHHHHHHLLLLLLLLLLLLL                                            HHHHHHHHHHLLLLLLLLL                                                 HHHHHHHHHLLLL                                                                                                                                                                                                                                                                                                                                                               
                   HHHHHHHHLLLLLLLLLLLLLLLMMMM                                       HHHHHHHHHLLLLLLLLLLLLLLLM                                           HHHHHHHHHLLLLLLLLLL                                                HHHHHHHHHLLLLLL                                                                                                                                                                                                                                                                                                                                                              
                   HHHHHHHLLLLLLLLLLLLLLLMMMMM                                       HHHHHHHHLLLLLLLLLLLLLLLMM                                          HHHHHHHHHLLLLLLLLLLLL                                               HHHHHHHHLLLLLLL                                                         H                                                                                                                                                                                                                                                                                                    
                   HHHHHHLLLLLLLLLLLLLLLMMMMMM                                       HHHHHHHLLLLLLLLLLLLLLLMMM                                           HHHHHHLLLLLLLLLLLLL                                                HHHHHHHLLLLLLLL                                                                                                                                                                                                                                                                                                                                                              
                   HHHHLLLLLLLLLLLLLLLMMMMMMMM                                        HHHHHLLLLLLLLLLLLLLLMMM                                            HHHHHLLLLLLLLLLLLLL                                                 HHHHHLLLLLLLL                                                                                                                                                                                                                                                                                                                                                               
                   HHHLLLLLLLLLLLLLLLMMMMMMMMM                                        HHHHLLLLLLLLLLLLLLLMMMM                                            HHHHLLLLLLLLLLLLLLL                                                 HHHLLLLLLLLLL                                                                                                                                                                                                                                                                                                                                                               
                   HHLLLLLLLLLLLLLLLMMMMMMMMMM                                        HHLLLLLLLLLLLLLLLMMMMMM                                            HHHLLLLLLLLLLLLLLLM                                                  HLLLLLLLLLL                                                                                                                                                                                                                                                                                                                                                                
                    LLLLLLLLLLLLLLLMMMMMMMMMM                                         HLLLLLLLLLLLLLLLMMMMMMM                                             HLLLLLLLLLLLLLLLM                                                   LLLLLLLLLLL                                                                                                                                                                                                                                                                                                                                                                
                    LLLLLLLLLLLLLLMMMMMMMMMMM                                          LLLLLLLLLLLLLLMMMMMMM                                              LLLLLLLLLLLLLLMMM                                                     LLLLLLL                                                                                                                                                                                                                                                                                                                                                                  
                     LLLLLLLLLLLMMMMMMMMMMMM                                            LLLLLLLLLLLLMMMMMMM                                                LLLLLLLLLLLLMMM                                                        LLL                                                                                                                                                                                                                                                                                                                                                                    
                     LLLLLLLLLLMMMMMMMMMMMMM                                            LLLLLLLLLLLMMMMMMMM                                                 LLLLLLLLLLMMM                                                                                                                                                                                                                                                                                                                                                                                                                                
                      LLLLLLLLMMMMMMMMMMMMM                                              LLLLLLLLMMMMMMMMM                                                    LLLLLLLMM                                                                                                                                                                                                                                                                                                                                                                                                                                  
                       LLLLLLMMMMMMMMMMMMM                                                 LLLLLMMMMMMMM                                                          L                                                                                                                                                                                                                                                                                                                                                                                                                                      
                        LLLLMMMMMMMMMMMMM                                                   LLLMMMMMMMM                                                                                                                                                                                                                                                                                                                                                                                                                                                                                                  
                          MMMMMMMMMMMMM                                                         MMM                                                                                                                                                                                                                                                                                                                                                                                                                                                                                                      
                            MMMMMMMMM                                                                                                                                                                                                                                                                                                                                                                                                                                                                                                                                                                    
                                                                                                                                                                                                                                                                                                                                                                                                                                                                                                                                                                                                         
                                                                                                                                                                                                                                                                                                                                                                                                                                                                                                                                                                                                         
                                                                                                                                                                                                                                                                                                                                                                                                                                                                                                                                                                                                         
                                                                                                                                                                                                                                                                                                                                                                                                                                                                                                                                                                                                         
                                                                                                                                                                                                                                                                                                                                                                                                                                                                                                                                                                                                         
                                                                                                                                                                                                                                                                                                                                                                                                                                                                                                                                                                                                         
                                                                                                                                                                                                                                                                                                                                                                                                                                                                                                                                                                                                         
                                                                                                                                                                                                                                                                                                                                                                                                                                                                                                                                                                                                         
                                                                                                                                                                                                                                                                                                                                                                                                                                                                                                                                                                                                         
                                                                                                                                                                                                                                                                                                                                                                                                                                                                                                                                                                                                         
                                                                                                                                                                                                                                                                                                                                                                                                                                                                                                                                                                                                         
                                                                                                                                                                                                                                                                                                                                                                                                                                                                                                                                                                                                         
                                                                                                                                                                                                                                                                                                                                                                                                                                                                                                                                                                                                         
                                                                                                                                                                                                                                                                                                                                                                                                                                                                                                                                                                                                         
                                                                                                                                                                                                                                                                                                                                                                                                                                                                                                                                                                                                         
cbacbabbacbabbacbabaacbabaacbabaacbabaacbabaabbabaabbabaabaabaababbbbbbbbbaaaaaaaaabbbbbbbbcccccaaaaaaaabbbbbbbbbccccaaaaaaaaabbbbabcacababcbcacabcbcacababcbcababcbcabababcabababcbbababcbbabababbcbaaabbbaacbbbaccbaaaabbbaacbbaacbbaaabbbaacbbaaabbbaacbbaaccbaaabbbaabbccaabbaaabbaabbcaabbccaabbaabbcaabbcaabbcaabbaaabbcaabbcaaababbcbabacaabacaababacbabacbabacaababaabababbcbabacbabacbababbcbbbbbbbbbaabaaaaaaaaaacaaccaccbbcbbbbbbbbbbabbaaaaaaaaaaaaacacccbcababbabbabbabaabaabaabaababcabcabcababcabcabcababbabcabcabaabaabaabaacbaacbaacbaabbacbbacbbacbbabbaabbaacbaacbaabaacbbacbbacbbabba
                                                                                                                                                                                                                                                                                                                                                                                                                                                                                                                                                                                                         
                                                                                                                                                                                                                                                                                                                                                                                                                                                                                                                                                                                                         
                                                                                                                                                                                                                                                                                                                                                                                                                                                                                                                                                                                                         
                                                                                                                                                                                                                                                                                                                                                                                                                                                                                                                                                                                                         
                                                                                                                                                                                                                                                                                                                                                                                                                                                                                                                                                                                                         
                                                                                                                                                                                                                                                                                                                                                                                                                                                                                                                                                                                                         
                                                                                                                                                                                                                                                                                                                                                                                                                                                                                                                                                                                                         
                                                                                                                                                                                                                                                                                                                                                                                                                                                                                                                                                                                                         
                                                                                                                                                                                                                                                                                                                                                                                                                                                                                                                                                                                                         
                                                                                                                                                                                                                                                                                                                                                                                                                                                                                                                                                                                                         
                                                                                                                                                                                                                                                                                                                                                                                                                                                                                                                                                                                                         
                                                                                                                                                                                                                                                                                                                                                                                                                                                                                                                                                                                                         
                                                                                                                                                                                                                                                                                                                                                                                                                                                                                                                                                                                                         
                                                                                                                                                                                                                                                                                                                                                                                                                                                                                                                                                                                                         
                                                                                                                                                                                                                                                                                                                                                                                                                                                                                                                                                                                                         
                                                                                                                                                                                                                                                                                                                                                                                                                                                                                                                                                                                                         
                                                                                                                                                                                                                                                                                                                                                                                                                                                                                                                                                                                                         
                                                                                                                                                                                                                                                                                                                                                                                                                                                                                                                                                                                                         
                                                                                                                                                                                                                                                                                                                                                                                                                                                                                                                                                                                                         
                                                                                                                                                                                                                                                                                                                                                                                                                                                                                                                                                                                                         
                                                                                                                                                                                                                                                                                                                                                                                                                                                                                                                                                                                                         
                                                                                                                                                                                                                                                                                                                                                                                                                                                                                                                                                                                                         
                                                                                                                                                                                                                                                                                                                                                                                                                                                                                                                                                                                                         
                                                                                                                                                                                                                                                                                                                                                                                                                                                                                                                                                                                                         
                                                                                                                                                                                                                                                                                                                                                                                                                                                                                                                                                                                                         
                                                                                                                                                                                                                                                                                                                                                                                                                                                                                                                                                                                                         
                                                                                                                                                                                                                                                                                                                                                                                                                                                                                                                                                                                                         
                                                                                                                                                                                                                                                                                                                                                                                                                                                                                                                                                                                                         
                                                                                                                                                                                                                                                                                                                                                                                                                                                                                                                                                                                                         
                                                                                                                                                                                                                                                                                                                                                                                                                                                                                                                                                                                                         
                                                                                                                                                                                                                                                                                                                                                                                                                                                                                                                                                                                                         
                                                                                                                                                                                                                                                                                                                                                                                                                                                                                                                                                                                                         
                                                                                                                                                                                                                                                                                                                                                                                                                                                                                                                                                                                                         
                                                                                                                                                                                                                                                                                                                                                                                                                                                                                                                                                                                                         
                                                                                                                                                                                                                                                                                                                                                                                                                                                                                                                                                                                                         
                                                                                                                                                                                                                                                                                                                                                                                                                                                                                                                                                                                                         
                                                                                                                                                                                                                                                                                                                                                                                                                                                                                                                                                                                                         
                                                                                                                                                                                                                                                                                                                                                                                                                                                                                                                                                                                                         
                                                                                                                                                                                                                                                                                                                                                                                                                                                                                                                                                                                                         
                                                                                                                                                                                                                                                                                                                                                                                                                                                                                                                                                                                                         
                                                                                                                                                                                                                                                                                                                                                                                                                                                                                                                                                                                                         
                                                                                                                                                                                                                                                                                                                                                                                                                                                                                                                                                                                                         
                                                                                                                                                                                                                                                                                                                                                                                                                                                                                                                                                                                                         
                                                                                                                                                                                                                                                                                                                                                                                                                                                                                                                                                                                                         
                                                                                                                                                                                                                                                                                                                                                                                                                                                                                                                                                                                                         
                                                                                                                                                                                                                                                                                                                                                                                                                                                                                                                                                                                                         
                                                                                                                                                                                                                                                                                                                                                                                                                                                                                                                                                                                                         
                                                                                                                                                                                                                                                                                                                                                                                                                                                                                                                                                                                                         
                                                                                                                                                                                                                                                                                                                                                                                                                                                                                                                                                                                                         
                                                                                                                                                                                                                                                                                                                                                                                                                                                                                                                                                                                                         
                                                                                                                                                                                                                                                                                                                                                                                                                                                                                                                                                                                                         
                                                                                                                                                                                                                                                                                                                                                                                                                                                                                                                                                                                                         
                                                                                                                                                                                                                                                                                                                                                                                                                                                                                                                                                                                                         
                                                                                                                                                                                                                                                                                                                                                                                                                                                                                                                                                                                                         
                                                                                                                                                                                                                                                                                                                                                                                                                                                                                                                                                                                                         
                                                                                                                                                                                                                                                                                                                                                                                                                                                                                                                                                                                                         
                                                                                                                                                                                                                                                                                                                                                                                                                                                                                                                                                                                                         
                                                                                                                                                                                                                                                                                                                                                                                                                                                                                                                                                                                                         
                                                                                                                                                                                                                                                                                                                                                                                                                                                                                                                                                                                                         
                                                                                                                                                                                                                                                                                                                                                                                                                                                                                                                                                                                                         
                                                                                                                                                                                                                                                                                                                                                                                                                                                                                                                                                                                                         
                                                                                                                                                                                                                                                                                                                                                                                                                                                                                                                                                                                                         
                                                                                                                                                                                                                                                                                                                                                                                                                                                                                                                                                                                                         
                                                                                                                                                                                                                                                                                                                                                                                                                                                                                                                                                                                                         
bbbcaaaabbbcaaaabbcacaabbbccaaabbbbcaaabbbbcaaaabbcaaaabbbccaaabbabababababacacababacacbcbabcacbcbababababababababababababababacac                                                                                                                                                                                                                                                                                                                                                                                                                                                                       
                                                                                                                                                                                                                                                                                                                                                                                                                                                                                                                                                                                                         
                                                                                                                                                                                                                                                                                                                                                                                                                                                                                                                                                                                                         
                                                                                                                                                                                                                                                                                                                                                                                                                                                                                                                                                                                                         
